P3
400 225
255
215 232 255
215 232 255
215 232 255
215 232 255
215 232 255
215 232 255
215 232 255
215 232 255
215 232 255
215 232 255
215 232 255
215 232 255
215 232 255
215 232 255
215 232 255
215 232 255
215 232 255
215 232 255
215 232 255
215 232 255
215 232 255
215 232 255
215 232 255
215 232 255
215 232 255
215 232 255
215 232 255
215 232 255
215 232 255
215 232 255
215 232 255
215 232 255
215 232 255
215 232 255
215 232 255
215 232 255
215 232 255
215 232 255
215 232 255
215 232 255
215 232 255
215 232 255
215 232 255
215 232 255
215 232 255
215 232 255
215 232 255
215 232 255
215 232 255
215 232 255
215 232 255
215 232 255
215 232 255
215 232 255
215 232 255
215 232 255
215 232 255
215 232 255
215 232 255
215 232 255
215 232 255
215 232 255
215 232 255
215 232 255
215 232 255
215 232 255
215 232 255
215 232 255
215 232 255
215 232 255
215 232 255
215 232 255
215 232 255
215 232 255
215 232 255
215 232 255
215 232 255
215 232 255
215 232 255
215 232 255
215 232 255
215 232 255
215 232 255
215 232 255
215 232 255
215 232 255
215 232 255
215 232 255
215 232 255
215 232 255
215 232 255
215 232 255
215 232 255
215 232 255
215 232 255
215 232 255
215 232 255
215 232 255
215 232 255
215 232 255
215 232 255
215 232 255
215 232 255
215 232 255
215 232 255
215 232 255
215 232 255
215 232 255
215 232 255
215 232 255
215 232 255
215 232 255
215 232 255
215 232 255
215 232 255
215 232 255
215 232 255
215 232 255
215 232 255
215 232 255
215 232 255
215 232 255
215 232 255
215 232 255
215 232 255
215 232 255
215 232 255
215 232 255
215 232 255
215 232 255
215 232 255
215 232 255
215 232 255
215 232 255
215 232 255
215 232 255
215 232 255
215 232 255
215 232 255
215 232 255
215 232 255
215 232 255
215 232 255
215 232 255
215 232 255
215 232 255
215 232 255
215 232 255
215 232 255
215 232 255
215 232 255
215 232 255
215 232 255
215 232 255
215 232 255
215 232 255
215 232 255
215 232 255
215 232 255
215 232 255
215 232 255
215 232 255
215 232 255
215 232 255
215 232 255
215 232 255
215 232 255
215 232 255
215 232 255
215 232 255
215 232 255
215 232 255
215 232 255
215 232 255
215 232 255
215 232 255
215 232 255
215 232 255
215 232 255
215 232 255
215 232 255
215 232 255
215 232 255
215 232 255
215 232 255
215 232 255
215 232 255
215 232 255
215 232 255
215 232 255
215 232 255
215 232 255
215 232 255
215 232 255
215 232 255
215 232 255
215 232 255
215 232 255
215 232 255
215 232 255
215 232 255
215 232 255
215 232 255
215 232 255
215 232 255
215 232 255
215 232 255
215 232 255
215 232 255
215 232 255
215 232 255
215 232 255
215 232 255
215 232 255
215 232 255
215 232 255
215 232 255
215 232 255
215 232 255
215 232 255
215 232 255
215 232 255
215 232 255
215 232 255
215 232 255
215 232 255
215 232 255
215 232 255
215 232 255
215 232 255
215 232 255
215 232 255
215 232 255
215 232 255
215 232 255
215 232 255
215 232 255
215 232 255
215 232 255
215 232 255
215 232 255
215 232 255
215 232 255
215 232 255
215 232 255
215 232 255
215 232 255
215 232 255
215 232 255
215 232 255
215 232 255
215 232 255
215 232 255
215 232 255
215 232 255
215 232 255
215 232 255
215 232 255
215 232 255
215 232 255
215 232 255
215 232 255
215 232 255
215 232 255
215 232 255
215 232 255
215 232 255
215 232 255
215 232 255
215 232 255
215 232 255
215 232 255
215 232 255
215 232 255
215 232 255
215 232 255
215 232 255
215 232 255
215 232 255
215 232 255
215 232 255
215 232 255
215 232 255
215 232 255
215 232 255
215 232 255
215 232 255
215 232 255
215 232 255
215 232 255
215 232 255
215 232 255
215 232 255
215 232 255
215 232 255
215 232 255
215 232 255
215 232 255
215 232 255
215 232 255
215 232 255
215 232 255
215 232 255
215 232 255
215 232 255
215 232 255
215 232 255
215 232 255
215 232 255
215 232 255
215 232 255
215 232 255
215 232 255
215 232 255
215 232 255
215 232 255
215 232 255
215 232 255
215 232 255
215 232 255
215 232 255
215 232 255
215 232 255
215 232 255
215 232 255
215 232 255
215 232 255
215 232 255
215 232 255
215 232 255
215 232 255
215 232 255
215 232 255
215 232 255
215 232 255
215 232 255
215 232 255
215 232 255
215 232 255
215 232 255
215 232 255
215 232 255
215 232 255
215 232 255
215 232 255
215 232 255
215 232 255
215 232 255
215 232 255
215 232 255
215 232 255
215 232 255
215 232 255
215 232 255
215 232 255
215 232 255
215 232 255
215 232 255
215 232 255
215 232 255
215 232 255
215 232 255
215 232 255
215 232 255
215 232 255
215 232 255
215 232 255
215 232 255
215 232 255
215 232 255
215 232 255
215 232 255
215 232 255
215 232 255
215 232 255
215 232 255
215 232 255
215 232 255
215 232 255
215 232 255
215 232 255
215 232 255
215 232 255
215 232 255
215 232 255
215 232 255
215 232 255
215 232 255
215 232 255
215 232 255
215 232 255
215 232 255
215 232 255
215 232 255
215 232 255
215 232 255
215 232 255
215 232 255
215 232 255
215 232 255
215 232 255
215 232 255
215 232 255
215 232 255
215 232 255
215 232 255
215 232 255
215 232 255
215 232 255
215 232 255
215 232 255
215 232 255
215 232 255
215 232 255
215 232 255
215 232 255
215 232 255
215 232 255
215 232 255
215 232 255
215 232 255
215 232 255
215 232 255
215 232 255
215 232 255
215 232 255
215 232 255
215 232 255
215 232 255
215 232 255
215 232 255
215 232 255
215 232 255
215 232 255
215 232 255
215 232 255
215 232 255
215 232 255
215 232 255
215 232 255
215 232 255
215 232 255
215 232 255
215 232 255
215 232 255
215 232 255
215 232 255
215 232 255
215 232 255
215 232 255
215 232 255
215 232 255
215 232 255
215 232 255
215 232 255
215 232 255
215 232 255
215 232 255
215 232 255
215 232 255
215 232 255
215 232 255
215 232 255
215 232 255
215 232 255
215 232 255
215 232 255
215 232 255
215 232 255
215 232 255
215 232 255
215 232 255
215 232 255
215 232 255
215 232 255
215 232 255
215 232 255
215 232 255
215 232 255
215 232 255
215 232 255
215 232 255
215 232 255
215 232 255
215 232 255
215 232 255
215 232 255
215 232 255
215 232 255
215 232 255
215 232 255
215 232 255
215 232 255
215 232 255
215 232 255
215 232 255
215 232 255
215 232 255
215 232 255
215 232 255
215 232 255
215 232 255
215 232 255
215 232 255
215 232 255
215 232 255
215 232 255
215 232 255
215 232 255
215 232 255
215 232 255
215 232 255
215 232 255
215 232 255
215 232 255
215 232 255
215 232 255
215 232 255
215 232 255
215 232 255
215 232 255
215 232 255
215 232 255
215 232 255
215 232 255
215 232 255
215 232 255
215 232 255
215 232 255
215 232 255
215 232 255
215 232 255
215 232 255
215 232 255
215 232 255
215 232 255
215 232 255
215 232 255
215 232 255
215 232 255
215 232 255
215 232 255
215 232 255
215 232 255
215 232 255
215 232 255
215 232 255
215 232 255
215 232 255
215 232 255
215 232 255
215 232 255
215 232 255
215 232 255
215 232 255
215 232 255
215 232 255
215 232 255
215 232 255
215 232 255
215 232 255
215 232 255
215 232 255
215 232 255
215 232 255
215 232 255
215 232 255
215 232 255
215 232 255
215 232 255
215 232 255
215 232 255
215 232 255
215 232 255
215 232 255
215 232 255
215 232 255
215 232 255
215 232 255
215 232 255
215 232 255
215 232 255
215 232 255
215 232 255
215 232 255
215 232 255
215 232 255
215 232 255
215 232 255
215 232 255
215 232 255
215 232 255
215 232 255
215 232 255
215 232 255
215 232 255
215 232 255
215 232 255
215 232 255
215 232 255
215 232 255
215 232 255
215 232 255
215 232 255
215 232 255
215 232 255
215 232 255
215 232 255
215 232 255
215 232 255
215 232 255
215 232 255
215 232 255
215 232 255
215 232 255
215 232 255
215 232 255
215 232 255
215 232 255
215 232 255
215 232 255
215 232 255
215 232 255
215 232 255
215 232 255
215 232 255
215 232 255
215 232 255
215 232 255
215 232 255
215 232 255
215 232 255
215 232 255
215 232 255
215 232 255
215 232 255
215 232 255
215 232 255
215 232 255
215 232 255
215 232 255
215 232 255
215 232 255
215 232 255
215 232 255
215 232 255
215 232 255
215 232 255
215 232 255
215 232 255
215 232 255
215 232 255
215 232 255
215 232 255
215 232 255
215 232 255
215 232 255
215 232 255
215 232 255
215 232 255
215 232 255
215 232 255
215 232 255
215 232 255
215 232 255
215 232 255
215 232 255
215 232 255
215 232 255
215 232 255
215 232 255
215 232 255
215 232 255
215 232 255
215 232 255
215 232 255
215 232 255
215 232 255
215 232 255
215 232 255
215 232 255
215 232 255
215 232 255
215 232 255
215 232 255
215 232 255
215 232 255
215 232 255
215 232 255
215 232 255
215 232 255
215 232 255
215 232 255
215 232 255
215 232 255
215 232 255
215 232 255
215 232 255
215 232 255
215 232 255
215 232 255
215 232 255
215 232 255
215 232 255
215 232 255
215 232 255
215 232 255
215 232 255
215 232 255
215 232 255
215 232 255
215 232 255
215 232 255
215 232 255
215 232 255
215 232 255
215 232 255
215 232 255
215 232 255
215 232 255
215 232 255
215 232 255
215 232 255
215 232 255
215 232 255
215 232 255
215 232 255
215 232 255
215 232 255
215 232 255
215 232 255
215 232 255
215 232 255
215 232 255
215 232 255
215 232 255
215 232 255
215 232 255
215 232 255
215 232 255
215 232 255
215 232 255
215 232 255
215 232 255
215 232 255
215 232 255
215 232 255
215 232 255
215 232 255
215 232 255
215 232 255
215 232 255
215 232 255
215 232 255
215 232 255
215 232 255
215 232 255
215 232 255
215 232 255
215 232 255
215 232 255
215 232 255
215 232 255
215 232 255
215 232 255
215 232 255
215 232 255
215 232 255
215 232 255
215 232 255
215 232 255
215 232 255
215 232 255
215 232 255
215 232 255
215 232 255
215 232 255
215 232 255
215 232 255
215 232 255
215 232 255
215 232 255
215 232 255
215 232 255
215 232 255
215 232 255
215 232 255
215 232 255
215 232 255
215 232 255
215 232 255
215 232 255
215 232 255
215 232 255
215 232 255
215 232 255
215 232 255
215 232 255
215 232 255
215 232 255
215 232 255
215 232 255
215 232 255
215 232 255
215 232 255
215 232 255
215 232 255
215 232 255
215 232 255
215 232 255
215 232 255
215 232 255
215 232 255
215 232 255
215 232 255
215 232 255
215 232 255
215 232 255
215 232 255
215 232 255
215 232 255
215 232 255
215 232 255
215 232 255
215 232 255
215 232 255
215 232 255
215 232 255
215 232 255
215 232 255
215 232 255
215 232 255
215 232 255
215 232 255
215 232 255
215 232 255
215 232 255
215 232 255
215 232 255
215 232 255
215 232 255
215 232 255
215 232 255
215 232 255
215 232 255
215 232 255
215 232 255
215 232 255
215 232 255
215 232 255
215 232 255
215 232 255
215 232 255
215 232 255
215 232 255
215 232 255
215 232 255
215 232 255
215 232 255
215 232 255
215 232 255
215 232 255
215 232 255
215 232 255
215 232 255
215 232 255
215 232 255
215 232 255
215 232 255
215 232 255
215 232 255
215 232 255
215 232 255
215 232 255
215 232 255
215 232 255
215 232 255
215 232 255
215 232 255
215 232 255
215 232 255
215 232 255
215 232 255
215 232 255
215 232 255
215 232 255
215 232 255
215 232 255
215 232 255
215 232 255
215 232 255
215 232 255
215 232 255
215 232 255
215 232 255
215 232 255
215 232 255
215 232 255
215 232 255
215 232 255
215 232 255
215 232 255
215 232 255
215 232 255
215 232 255
215 232 255
215 232 255
215 232 255
215 232 255
215 232 255
215 232 255
215 232 255
215 232 255
215 232 255
215 232 255
215 232 255
215 232 255
215 232 255
215 232 255
215 232 255
215 232 255
215 232 255
215 232 255
215 232 255
215 232 255
215 232 255
215 232 255
215 232 255
215 232 255
215 232 255
215 232 255
215 232 255
215 232 255
215 232 255
215 232 255
215 232 255
215 232 255
215 232 255
215 232 255
215 232 255
215 232 255
215 232 255
215 232 255
215 232 255
215 232 255
215 232 255
215 232 255
215 232 255
215 232 255
215 232 255
215 232 255
215 232 255
215 232 255
215 232 255
215 232 255
215 232 255
215 232 255
215 232 255
215 232 255
215 232 255
215 232 255
215 232 255
215 232 255
215 232 255
215 232 255
215 232 255
215 232 255
215 232 255
215 232 255
215 232 255
215 232 255
215 232 255
215 232 255
215 232 255
215 232 255
215 232 255
215 232 255
215 232 255
215 232 255
215 232 255
215 232 255
215 232 255
215 232 255
215 232 255
215 232 255
215 232 255
215 232 255
215 232 255
215 232 255
215 232 255
215 232 255
215 232 255
215 232 255
215 232 255
215 232 255
215 232 255
215 232 255
215 232 255
215 232 255
215 232 255
215 232 255
215 232 255
215 232 255
215 232 255
215 232 255
215 232 255
215 232 255
215 232 255
215 232 255
215 232 255
215 232 255
215 232 255
215 232 255
215 232 255
215 232 255
215 232 255
215 232 255
215 232 255
215 232 255
215 232 255
215 232 255
215 232 255
215 232 255
215 232 255
215 232 255
215 232 255
215 232 255
215 232 255
215 232 255
215 232 255
215 232 255
215 232 255
215 232 255
215 232 255
215 232 255
215 232 255
215 232 255
215 232 255
215 232 255
215 232 255
215 232 255
215 232 255
215 232 255
215 232 255
215 232 255
215 232 255
215 232 255
215 232 255
215 232 255
215 232 255
215 232 255
215 232 255
215 232 255
215 232 255
215 232 255
215 232 255
215 232 255
215 232 255
215 232 255
215 232 255
215 232 255
215 232 255
215 232 255
215 232 255
215 232 255
215 232 255
215 232 255
215 232 255
215 232 255
215 232 255
215 232 255
215 232 255
215 232 255
215 232 255
215 232 255
215 232 255
215 232 255
215 232 255
215 232 255
215 232 255
215 232 255
215 232 255
215 232 255
215 232 255
215 232 255
215 232 255
215 232 255
215 232 255
215 232 255
215 232 255
215 232 255
215 232 255
215 232 255
215 232 255
215 232 255
215 232 255
215 232 255
215 232 255
215 232 255
215 232 255
215 232 255
215 232 255
215 232 255
215 232 255
215 232 255
215 232 255
215 232 255
215 232 255
215 232 255
215 232 255
215 232 255
215 232 255
215 232 255
215 232 255
215 232 255
215 232 255
215 232 255
215 232 255
215 232 255
215 232 255
215 232 255
215 232 255
215 232 255
215 232 255
215 232 255
215 232 255
215 232 255
215 232 255
215 232 255
215 232 255
215 232 255
215 232 255
215 232 255
215 232 255
215 232 255
215 232 255
215 232 255
215 232 255
215 232 255
215 232 255
215 232 255
215 232 255
215 232 255
215 232 255
215 232 255
215 232 255
215 232 255
215 232 255
215 232 255
215 232 255
215 232 255
215 232 255
215 232 255
215 232 255
215 232 255
215 232 255
215 232 255
215 232 255
215 232 255
215 232 255
215 232 255
215 232 255
215 232 255
215 232 255
215 232 255
215 232 255
215 232 255
215 232 255
215 232 255
215 232 255
215 232 255
215 232 255
215 232 255
215 232 255
215 232 255
215 232 255
215 232 255
215 232 255
215 232 255
215 232 255
215 232 255
215 232 255
215 232 255
215 232 255
215 232 255
215 232 255
215 232 255
215 232 255
215 232 255
215 232 255
215 232 255
215 232 255
215 232 255
215 232 255
215 232 255
215 232 255
215 232 255
215 232 255
215 232 255
215 232 255
215 232 255
215 232 255
215 232 255
215 232 255
215 232 255
215 232 255
215 232 255
215 232 255
215 232 255
215 232 255
215 232 255
215 232 255
215 232 255
215 232 255
215 232 255
215 232 255
215 232 255
215 232 255
215 232 255
215 232 255
215 232 255
215 232 255
215 232 255
215 232 255
215 232 255
215 232 255
215 232 255
215 232 255
215 232 255
215 232 255
215 232 255
215 232 255
215 232 255
215 232 255
215 232 255
215 232 255
215 232 255
215 232 255
215 232 255
215 232 255
215 232 255
215 232 255
215 232 255
215 232 255
215 232 255
215 232 255
215 232 255
215 232 255
215 232 255
215 232 255
215 232 255
215 232 255
215 232 255
215 232 255
215 232 255
215 232 255
215 232 255
215 232 255
215 232 255
215 232 255
215 232 255
215 232 255
215 232 255
215 232 255
215 232 255
215 232 255
215 232 255
215 232 255
215 232 255
215 232 255
215 232 255
215 232 255
215 232 255
215 232 255
215 232 255
215 232 255
215 232 255
215 232 255
215 232 255
215 232 255
215 232 255
215 232 255
215 232 255
215 232 255
215 232 255
215 232 255
215 232 255
215 232 255
215 232 255
215 232 255
215 232 255
215 232 255
215 232 255
215 232 255
215 232 255
215 232 255
215 232 255
215 232 255
215 232 255
215 232 255
215 232 255
215 232 255
215 232 255
215 232 255
215 232 255
215 232 255
215 232 255
215 232 255
215 232 255
215 232 255
215 232 255
215 232 255
215 232 255
215 232 255
215 232 255
215 232 255
215 232 255
215 232 255
215 232 255
215 232 255
215 232 255
215 232 255
215 232 255
215 232 255
215 232 255
215 232 255
215 232 255
215 232 255
215 232 255
215 232 255
215 232 255
215 232 255
215 232 255
215 232 255
215 232 255
215 232 255
215 232 255
215 232 255
215 232 255
215 232 255
215 232 255
215 232 255
215 232 255
215 232 255
215 232 255
215 232 255
215 232 255
215 232 255
215 232 255
215 232 255
215 232 255
215 232 255
215 232 255
215 232 255
215 232 255
215 232 255
215 232 255
215 232 255
215 232 255
215 232 255
215 232 255
215 232 255
215 232 255
215 232 255
215 232 255
215 232 255
215 232 255
215 232 255
215 232 255
215 232 255
215 232 255
215 232 255
215 232 255
215 232 255
215 232 255
215 232 255
215 232 255
215 232 255
215 232 255
215 232 255
215 232 255
215 232 255
215 232 255
215 232 255
215 232 255
215 232 255
215 232 255
215 232 255
215 232 255
215 232 255
215 232 255
215 232 255
215 232 255
215 232 255
215 232 255
215 232 255
215 232 255
215 232 255
215 232 255
215 232 255
215 232 255
215 232 255
215 232 255
215 232 255
215 232 255
215 232 255
215 232 255
215 232 255
215 232 255
215 232 255
215 232 255
215 232 255
215 232 255
215 232 255
215 232 255
215 232 255
215 232 255
215 232 255
215 232 255
215 232 255
215 232 255
215 232 255
215 232 255
215 232 255
215 232 255
215 232 255
215 232 255
215 232 255
215 232 255
215 232 255
215 232 255
215 232 255
215 232 255
215 232 255
215 232 255
215 232 255
215 232 255
215 232 255
215 232 255
215 232 255
215 232 255
215 232 255
215 232 255
215 232 255
215 232 255
215 232 255
215 232 255
215 232 255
215 232 255
215 232 255
215 232 255
215 232 255
215 232 255
215 232 255
215 232 255
215 232 255
215 232 255
215 232 255
215 232 255
215 232 255
215 232 255
215 232 255
215 232 255
215 232 255
215 232 255
215 232 255
215 232 255
215 232 255
215 232 255
215 232 255
215 232 255
215 232 255
215 232 255
215 232 255
215 232 255
215 232 255
215 232 255
215 232 255
215 232 255
215 232 255
215 232 255
215 232 255
215 232 255
215 232 255
215 232 255
215 232 255
215 232 255
215 232 255
215 232 255
215 232 255
215 232 255
215 232 255
215 232 255
215 232 255
215 232 255
215 232 255
215 232 255
215 232 255
215 232 255
215 232 255
215 232 255
215 232 255
215 232 255
215 232 255
215 232 255
215 232 255
215 232 255
215 232 255
215 232 255
215 232 255
215 232 255
215 232 255
215 232 255
215 232 255
215 232 255
215 232 255
215 232 255
215 232 255
215 232 255
215 232 255
215 232 255
215 232 255
215 232 255
215 232 255
215 232 255
215 232 255
215 232 255
215 232 255
215 232 255
215 232 255
215 232 255
215 232 255
215 232 255
215 232 255
215 232 255
215 232 255
215 232 255
215 232 255
215 232 255
215 232 255
215 232 255
215 232 255
215 232 255
215 232 255
215 232 255
215 232 255
215 232 255
215 232 255
215 232 255
215 232 255
215 232 255
215 232 255
215 232 255
215 232 255
215 232 255
215 232 255
215 232 255
215 232 255
215 232 255
215 232 255
215 232 255
215 232 255
215 232 255
215 232 255
215 232 255
215 232 255
215 232 255
215 232 255
215 232 255
215 232 255
215 232 255
215 232 255
215 232 255
215 232 255
215 232 255
215 232 255
215 232 255
215 232 255
215 232 255
215 232 255
215 232 255
215 232 255
215 232 255
215 232 255
215 232 255
215 232 255
215 232 255
215 232 255
215 232 255
215 232 255
215 232 255
215 232 255
215 232 255
215 232 255
215 232 255
215 232 255
215 232 255
215 232 255
215 232 255
215 232 255
215 232 255
215 232 255
215 232 255
215 232 255
215 232 255
215 232 255
215 232 255
215 232 255
215 232 255
215 232 255
215 232 255
215 232 255
215 232 255
215 232 255
215 232 255
215 232 255
215 232 255
215 232 255
215 232 255
215 232 255
215 232 255
215 232 255
215 232 255
215 232 255
215 232 255
215 232 255
215 232 255
215 232 255
215 232 255
215 232 255
215 232 255
215 232 255
215 232 255
215 232 255
215 232 255
215 232 255
215 232 255
215 232 255
215 232 255
215 232 255
215 232 255
215 232 255
215 232 255
215 232 255
215 232 255
215 232 255
215 232 255
215 232 255
215 232 255
215 232 255
215 232 255
215 232 255
215 232 255
215 232 255
215 232 255
215 232 255
215 232 255
215 232 255
215 232 255
215 232 255
215 232 255
215 232 255
215 232 255
215 232 255
215 232 255
215 232 255
215 232 255
215 232 255
215 232 255
215 232 255
215 232 255
215 232 255
215 232 255
215 232 255
215 232 255
215 232 255
215 232 255
215 232 255
215 232 255
215 232 255
215 232 255
215 232 255
215 232 255
215 232 255
215 232 255
215 232 255
215 232 255
215 232 255
215 232 255
215 232 255
215 232 255
215 232 255
215 232 255
215 232 255
215 232 255
215 232 255
215 232 255
215 232 255
215 232 255
215 232 255
215 232 255
215 232 255
215 232 255
215 232 255
215 232 255
215 232 255
215 232 255
215 232 255
215 232 255
215 232 255
215 232 255
215 232 255
215 232 255
215 232 255
215 232 255
215 232 255
215 232 255
215 232 255
215 232 255
215 232 255
215 232 255
215 232 255
215 232 255
215 232 255
215 232 255
215 232 255
215 232 255
215 232 255
215 232 255
215 232 255
215 232 255
215 232 255
215 232 255
215 232 255
215 232 255
215 232 255
215 232 255
215 232 255
215 232 255
215 232 255
215 232 255
215 232 255
215 232 255
215 232 255
215 232 255
215 232 255
215 232 255
215 232 255
215 232 255
215 232 255
215 232 255
215 232 255
215 232 255
215 232 255
215 232 255
215 232 255
215 232 255
215 232 255
215 232 255
215 232 255
215 232 255
215 232 255
215 232 255
215 232 255
215 232 255
215 232 255
215 232 255
215 232 255
215 232 255
215 232 255
215 232 255
215 232 255
215 232 255
215 232 255
215 232 255
215 232 255
215 232 255
215 232 255
215 232 255
215 232 255
215 232 255
215 232 255
215 232 255
215 232 255
215 232 255
215 232 255
215 232 255
215 232 255
215 232 255
215 232 255
215 232 255
215 232 255
213 231 255
210 228 253
209 228 253
201 219 244
204 223 248
198 216 239
202 220 245
194 213 237
196 214 238
193 210 233
192 209 229
202 219 241
201 221 247
206 224 248
208 225 249
208 225 248
215 232 255
215 232 255
215 232 255
215 232 255
215 232 255
215 232 255
215 232 255
215 232 255
215 232 255
215 232 255
215 232 255
215 232 255
215 232 255
215 232 255
215 232 255
215 232 255
215 232 255
215 232 255
215 232 255
215 232 255
215 232 255
215 232 255
215 232 255
215 232 255
215 232 255
215 232 255
215 232 255
215 232 255
215 232 255
215 232 255
215 232 255
215 232 255
215 232 255
215 232 255
215 232 255
215 232 255
215 232 255
215 232 255
215 232 255
215 232 255
215 232 255
215 232 255
215 232 255
215 232 255
215 232 255
215 232 255
215 232 255
215 232 255
215 232 255
215 232 255
215 232 255
215 232 255
215 232 255
215 232 255
215 232 255
215 232 255
215 232 255
215 232 255
215 232 255
215 232 255
215 232 255
215 232 255
215 232 255
215 232 255
215 232 255
215 232 255
215 232 255
215 232 255
215 232 255
215 232 255
215 232 255
215 232 255
215 232 255
215 232 255
215 232 255
215 232 255
215 232 255
215 232 255
215 232 255
215 232 255
215 232 255
215 232 255
215 232 255
215 232 255
215 232 255
215 232 255
215 232 255
215 232 255
215 232 255
215 232 255
215 232 255
215 232 255
215 232 255
215 232 255
215 232 255
215 232 255
215 232 255
215 232 255
215 232 255
215 232 255
215 232 255
215 232 255
215 232 255
215 232 255
215 232 255
215 232 255
215 232 255
215 232 255
215 232 255
215 232 255
215 232 255
215 232 255
215 232 255
215 232 255
215 232 255
215 232 255
215 232 255
215 232 255
215 232 255
215 232 255
215 232 255
215 232 255
215 232 255
215 232 255
215 232 255
215 232 255
215 232 255
215 232 255
215 232 255
215 232 255
215 232 255
215 232 255
215 232 255
215 232 255
215 232 255
215 232 255
215 232 255
215 232 255
215 232 255
215 232 255
215 232 255
215 232 255
215 232 255
215 232 255
215 232 255
215 232 255
215 232 255
215 232 255
215 232 255
215 232 255
215 232 255
215 232 255
215 232 255
215 232 255
215 232 255
215 232 255
215 232 255
215 232 255
215 232 255
215 232 255
215 232 255
215 232 255
215 232 255
215 232 255
215 232 255
215 232 255
215 232 255
215 232 255
215 232 255
215 232 255
215 232 255
215 232 255
215 232 255
215 232 255
215 232 255
215 232 255
215 232 255
215 232 255
215 232 255
215 232 255
215 232 255
215 232 255
215 232 255
215 232 255
215 232 255
215 232 255
215 232 255
215 232 255
215 232 255
215 232 255
215 232 255
215 232 255
215 232 255
215 232 255
215 232 255
215 232 255
215 232 255
215 232 255
215 232 255
215 232 255
215 232 255
215 232 255
215 232 255
215 232 255
215 232 255
215 232 255
215 232 255
215 232 255
215 232 255
215 232 255
215 232 255
215 232 255
215 232 255
215 232 255
215 232 255
215 232 255
215 232 255
215 232 255
215 232 255
215 232 255
215 232 255
215 232 255
215 232 255
215 232 255
215 232 255
215 232 255
215 232 255
215 232 255
215 232 255
215 232 255
215 232 255
215 232 255
215 232 255
215 232 255
215 232 255
215 232 255
215 232 255
215 232 255
215 232 255
215 232 255
215 232 255
215 232 255
215 232 255
215 232 255
215 232 255
215 232 255
215 232 255
215 232 255
215 232 255
215 232 255
215 232 255
215 232 255
215 232 255
215 232 255
215 232 255
215 232 255
215 232 255
215 232 255
215 232 255
215 232 255
215 232 255
215 232 255
215 232 255
215 232 255
215 232 255
215 232 255
215 232 255
215 232 255
215 232 255
215 232 255
215 232 255
215 232 255
215 232 255
215 232 255
215 232 255
215 232 255
215 232 255
215 232 255
215 232 255
215 232 255
215 232 255
215 232 255
215 232 255
215 232 255
215 232 255
215 232 255
215 232 255
215 232 255
215 232 255
215 232 255
215 232 255
215 232 255
215 232 255
215 232 255
215 232 255
215 232 255
215 232 255
215 232 255
215 232 255
215 232 255
215 232 255
215 232 255
215 232 255
215 232 255
215 232 255
215 232 255
215 232 255
215 232 255
215 232 255
215 232 255
215 232 255
215 232 255
215 232 255
215 232 255
215 232 255
215 232 255
215 232 255
215 232 255
215 232 255
215 232 255
215 232 255
215 232 255
215 232 255
215 232 255
215 232 255
215 232 255
215 232 255
215 232 255
215 232 255
215 232 255
215 232 255
215 232 255
215 232 255
215 232 255
215 232 255
215 232 255
215 232 255
215 232 255
215 232 255
215 232 255
215 232 255
215 232 255
215 232 255
215 232 255
215 232 255
215 232 255
215 232 255
215 232 255
215 232 255
215 232 255
215 232 255
215 232 255
215 232 255
215 232 255
215 232 255
215 232 255
215 232 255
215 232 255
215 232 255
215 232 255
215 232 255
215 232 255
215 232 255
215 232 255
215 232 255
215 232 255
215 232 255
215 232 255
215 232 255
215 232 255
215 232 255
215 232 255
215 232 255
215 232 255
215 232 255
214 232 255
211 228 253
200 218 243
188 206 231
181 200 226
176 193 215
171 190 213
166 185 207
157 175 198
178 202 233
164 185 211
139 155 169
133 148 164
131 150 178
144 163 181
136 153 174
129 147 173
154 173 190
155 168 168
110 120 135
124 137 151
132 148 170
91 104 126
77 87 111
74 87 116
67 78 108
86 96 123
113 125 152
127 139 164
140 153 178
161 175 199
186 202 226
204 223 248
214 232 255
215 232 255
215 232 255
215 232 255
215 232 255
215 232 255
215 232 255
215 232 255
215 232 255
215 232 255
215 232 255
215 232 255
215 232 255
215 232 255
215 232 255
215 232 255
215 232 255
215 232 255
215 232 255
215 232 255
215 232 255
215 232 255
215 232 255
215 232 255
215 232 255
215 232 255
215 232 255
215 232 255
215 232 255
215 232 255
215 232 255
215 232 255
215 232 255
215 232 255
215 232 255
215 232 255
215 232 255
215 232 255
215 232 255
215 232 255
215 232 255
215 232 255
215 232 255
215 232 255
215 232 255
215 232 255
215 232 255
215 232 255
215 232 255
215 232 255
215 232 255
215 232 255
215 232 255
215 232 255
215 232 255
215 232 255
215 232 255
215 232 255
215 232 255
215 232 255
215 232 255
215 232 255
215 232 255
215 232 255
215 232 255
215 232 255
215 232 255
215 232 255
215 232 255
215 232 255
215 232 255
215 232 255
215 232 255
215 232 255
215 232 255
215 232 255
215 232 255
215 232 255
215 232 255
215 232 255
215 232 255
215 232 255
215 232 255
215 232 255
215 232 255
215 232 255
215 232 255
215 232 255
215 232 255
215 232 255
215 232 255
215 232 255
215 232 255
215 232 255
215 232 255
215 232 255
215 232 255
215 232 255
215 232 255
215 232 255
215 232 255
215 232 255
215 232 255
215 232 255
215 232 255
215 232 255
215 232 255
215 232 255
215 232 255
215 232 255
215 232 255
215 232 255
215 232 255
215 232 255
215 232 255
215 232 255
215 232 255
215 232 255
215 232 255
215 232 255
215 232 255
215 232 255
215 232 255
215 232 255
215 232 255
215 232 255
215 232 255
215 232 255
215 232 255
215 232 255
215 232 255
215 232 255
215 232 255
215 232 255
215 232 255
215 232 255
215 232 255
215 232 255
215 232 255
215 232 255
215 232 255
215 232 255
215 232 255
215 232 255
215 232 255
215 232 255
215 232 255
215 232 255
215 232 255
215 232 255
215 232 255
215 232 255
215 232 255
215 232 255
215 232 255
215 232 255
215 232 255
215 232 255
215 232 255
215 232 255
215 232 255
215 232 255
215 232 255
215 232 255
215 232 255
215 232 255
215 232 255
215 232 255
215 232 255
215 232 255
215 232 255
215 232 255
215 232 255
215 232 255
215 232 255
215 232 255
215 232 255
215 232 255
215 232 255
215 232 255
215 232 255
215 232 255
215 232 255
215 232 255
215 232 255
215 232 255
215 232 255
215 232 255
215 232 255
215 232 255
215 232 255
215 232 255
215 232 255
215 232 255
215 232 255
215 232 255
215 232 255
215 232 255
215 232 255
215 232 255
215 232 255
215 232 255
215 232 255
215 232 255
215 232 255
215 232 255
215 232 255
215 232 255
215 232 255
215 232 255
215 232 255
215 232 255
215 232 255
215 232 255
215 232 255
215 232 255
215 232 255
215 232 255
215 232 255
215 232 255
215 232 255
215 232 255
215 232 255
215 232 255
215 232 255
215 232 255
215 232 255
215 232 255
215 232 255
215 232 255
215 232 255
215 232 255
215 232 255
215 232 255
215 232 255
215 232 255
215 232 255
215 232 255
215 232 255
215 232 255
215 232 255
215 232 255
215 232 255
215 232 255
215 232 255
215 232 255
215 232 255
215 232 255
215 232 255
215 232 255
215 232 255
215 232 255
215 232 255
215 232 255
215 232 255
215 232 255
215 232 255
215 232 255
215 232 255
215 232 255
215 232 255
215 232 255
215 232 255
215 232 255
215 232 255
215 232 255
215 232 255
215 232 255
215 232 255
215 232 255
215 232 255
215 232 255
215 232 255
215 232 255
215 232 255
215 232 255
215 232 255
215 232 255
215 232 255
215 232 255
215 232 255
215 232 255
215 232 255
215 232 255
215 232 255
215 232 255
215 232 255
215 232 255
215 232 255
215 232 255
215 232 255
215 232 255
215 232 255
215 232 255
215 232 255
215 232 255
215 232 255
215 232 255
215 232 255
215 232 255
215 232 255
215 232 255
215 232 255
215 232 255
215 232 255
215 232 255
215 232 255
215 232 255
215 232 255
215 232 255
215 232 255
215 232 255
215 232 255
215 232 255
215 232 255
215 232 255
215 232 255
215 232 255
215 232 255
215 232 255
215 232 255
215 232 255
215 232 255
215 232 255
215 232 255
215 232 255
215 232 255
215 232 255
215 232 255
215 232 255
215 232 255
215 232 255
215 232 255
215 232 255
215 232 255
215 232 255
215 232 255
215 232 255
215 232 255
215 232 255
215 232 255
215 232 255
215 232 255
215 232 255
215 232 255
215 232 255
215 232 255
215 232 255
215 232 255
215 232 255
215 232 255
215 232 255
215 232 255
215 232 255
215 232 255
215 232 255
215 232 255
215 232 255
215 232 255
215 232 255
215 232 255
215 232 255
212 230 255
201 221 248
182 200 224
165 183 202
119 131 145
98 106 112
73 74 59
82 83 61
88 90 70
85 86 62
83 88 72
85 92 76
69 74 41
111 128 148
160 184 213
154 178 210
129 145 167
83 95 121
61 64 57
64 70 52
61 67 76
111 127 159
129 146 171
86 93 107
117 131 147
70 73 70
79 80 68
77 80 70
72 78 80
73 79 87
95 105 119
79 86 91
108 123 142
94 109 133
65 75 106
58 69 100
7 8 66
3 6 68
61 71 106
104 117 147
155 171 199
187 206 231
205 225 251
210 229 255
215 232 255
215 232 255
215 232 255
215 232 255
215 232 255
215 232 255
215 232 255
215 232 255
215 232 255
215 232 255
215 232 255
215 232 255
215 232 255
215 232 255
215 232 255
215 232 255
215 232 255
215 232 255
215 232 255
215 232 255
215 232 255
215 232 255
215 232 255
215 232 255
215 232 255
215 232 255
215 232 255
215 232 255
215 232 255
215 232 255
215 232 255
215 232 255
215 232 255
215 232 255
215 232 255
215 232 255
215 232 255
215 232 255
215 232 255
215 232 255
215 232 255
215 232 255
215 232 255
215 232 255
215 232 255
215 232 255
215 232 255
215 232 255
215 232 255
215 232 255
215 232 255
215 232 255
215 232 255
215 232 255
215 232 255
215 232 255
215 232 255
215 232 255
215 232 255
215 232 255
215 232 255
215 232 255
215 232 255
215 232 255
215 232 255
215 232 255
215 232 255
215 232 255
215 232 255
215 232 255
215 232 255
215 232 255
215 232 255
215 232 255
215 232 255
215 232 255
215 232 255
215 232 255
215 232 255
215 232 255
215 232 255
215 232 255
215 232 255
215 232 255
215 232 255
215 232 255
215 232 255
215 232 255
215 232 255
215 232 255
215 232 255
215 232 255
215 232 255
215 232 255
215 232 255
215 232 255
215 232 255
215 232 255
215 232 255
215 232 255
215 232 255
215 232 255
215 232 255
215 232 255
215 232 255
215 232 255
215 232 255
215 232 255
215 232 255
215 232 255
215 232 255
215 232 255
215 232 255
215 232 255
215 232 255
215 232 255
215 232 255
215 232 255
215 232 255
215 232 255
215 232 255
215 232 255
215 232 255
215 232 255
215 232 255
215 232 255
215 232 255
215 232 255
215 232 255
215 232 255
215 232 255
215 232 255
215 232 255
215 232 255
215 232 255
215 232 255
215 232 255
215 232 255
215 232 255
215 232 255
215 232 255
215 232 255
215 232 255
215 232 255
215 232 255
215 232 255
215 232 255
215 232 255
215 232 255
215 232 255
215 232 255
215 232 255
215 232 255
215 232 255
215 232 255
215 232 255
215 232 255
215 232 255
215 232 255
215 232 255
215 232 255
215 232 255
215 232 255
215 232 255
215 232 255
215 232 255
215 232 255
215 232 255
215 232 255
215 232 255
215 232 255
215 232 255
215 232 255
215 232 255
215 232 255
215 232 255
215 232 255
215 232 255
215 232 255
215 232 255
215 232 255
215 232 255
215 232 255
215 232 255
215 232 255
215 232 255
215 232 255
215 232 255
215 232 255
215 232 255
215 232 255
215 232 255
215 232 255
215 232 255
215 232 255
215 232 255
215 232 255
215 232 255
215 232 255
215 232 255
215 232 255
215 232 255
215 232 255
215 232 255
215 232 255
215 232 255
215 232 255
215 232 255
215 232 255
215 232 255
215 232 255
215 232 255
215 232 255
215 232 255
215 232 255
215 232 255
215 232 255
215 232 255
215 232 255
215 232 255
215 232 255
215 232 255
215 232 255
215 232 255
215 232 255
215 232 255
215 232 255
215 232 255
215 232 255
215 232 255
215 232 255
215 232 255
215 232 255
215 232 255
215 232 255
215 232 255
215 232 255
215 232 255
215 232 255
215 232 255
215 232 255
215 232 255
215 232 255
215 232 255
215 232 255
215 232 255
215 232 255
215 232 255
215 232 255
215 232 255
215 232 255
215 232 255
215 232 255
215 232 255
215 232 255
215 232 255
215 232 255
215 232 255
215 232 255
215 232 255
215 232 255
215 232 255
215 232 255
215 232 255
215 232 255
215 232 255
215 232 255
215 232 255
215 232 255
215 232 255
215 232 255
215 232 255
215 232 255
215 232 255
215 232 255
215 232 255
215 232 255
215 232 255
215 232 255
215 232 255
215 232 255
215 232 255
215 232 255
215 232 255
215 232 255
215 232 255
215 232 255
215 232 255
215 232 255
215 232 255
215 232 255
215 232 255
215 232 255
215 232 255
215 232 255
215 232 255
215 232 255
215 232 255
215 232 255
215 232 255
215 232 255
215 232 255
215 232 255
215 232 255
215 232 255
215 232 255
215 232 255
215 232 255
215 232 255
215 232 255
215 232 255
215 232 255
215 232 255
215 232 255
215 232 255
215 232 255
215 232 255
215 232 255
215 232 255
215 232 255
215 232 255
215 232 255
215 232 255
215 232 255
215 232 255
215 232 255
215 232 255
215 232 255
215 232 255
215 232 255
215 232 255
215 232 255
215 232 255
215 232 255
215 232 255
215 232 255
215 232 255
215 232 255
215 232 255
215 232 255
215 232 255
215 232 255
215 232 255
215 232 255
215 232 255
215 232 255
215 232 255
215 232 255
215 232 255
215 232 255
215 232 255
212 230 254
208 225 249
174 191 217
148 163 185
132 148 174
122 139 164
74 79 96
44 47 65
38 38 60
50 53 57
58 59 55
56 58 46
52 55 43
48 55 55
41 49 42
42 52 49
44 55 51
39 51 68
39 52 71
44 54 71
41 54 73
55 62 47
42 51 50
50 52 45
62 62 43
63 64 46
69 73 64
65 67 49
71 77 87
79 88 106
63 68 67
63 67 55
57 59 50
25 30 60
43 51 89
39 51 95
39 46 68
48 52 49
41 45 57
48 52 55
76 82 78
87 96 99
81 89 98
69 80 109
9 16 75
0 16 79
4 21 82
42 50 89
92 108 139
141 160 185
179 199 226
206 227 255
209 229 255
214 231 255
215 232 255
215 232 255
215 232 255
215 232 255
215 232 255
215 232 255
215 232 255
215 232 255
215 232 255
215 232 255
215 232 255
215 232 255
215 232 255
215 232 255
215 232 255
215 232 255
215 232 255
215 232 255
215 232 255
215 232 255
215 232 255
215 232 255
215 232 255
215 232 255
215 232 255
215 232 255
215 232 255
215 232 255
215 232 255
215 232 255
215 232 255
215 232 255
215 232 255
215 232 255
215 232 255
215 232 255
215 232 255
215 232 255
215 232 255
215 232 255
215 232 255
215 232 255
215 232 255
215 232 255
215 232 255
215 232 255
215 232 255
215 232 255
215 232 255
215 232 255
215 232 255
215 232 255
215 232 255
215 232 255
215 232 255
215 232 255
215 232 255
215 232 255
215 232 255
215 232 255
215 232 255
215 232 255
215 232 255
215 232 255
215 232 255
215 232 255
215 232 255
215 232 255
215 232 255
215 232 255
215 232 255
215 232 255
215 232 255
215 232 255
215 232 255
215 232 255
215 232 255
215 232 255
215 232 255
215 232 255
215 232 255
215 232 255
215 232 255
215 232 255
215 232 255
215 232 255
215 232 255
215 232 255
215 232 255
215 232 255
215 232 255
215 232 255
215 232 255
215 232 255
215 232 255
215 232 255
215 232 255
215 232 255
215 232 255
215 232 255
215 232 255
215 232 255
215 232 255
215 232 255
215 232 255
215 232 255
215 232 255
215 232 255
215 232 255
215 232 255
215 232 255
215 232 255
215 232 255
215 232 255
215 232 255
215 232 255
215 232 255
215 232 255
215 232 255
215 232 255
215 232 255
215 232 255
215 232 255
215 232 255
215 232 255
215 232 255
215 232 255
215 232 255
215 232 255
215 232 255
215 232 255
215 232 255
215 232 255
215 232 255
215 232 255
215 232 255
215 232 255
215 232 255
215 232 255
215 232 255
215 232 255
215 232 255
215 232 255
215 232 255
215 232 255
215 232 255
215 232 255
215 232 255
215 232 255
215 232 255
215 232 255
215 232 255
215 232 255
215 232 255
215 232 255
215 232 255
215 232 255
215 232 255
215 232 255
215 232 255
215 232 255
215 232 255
215 232 255
215 232 255
215 232 255
215 232 255
215 232 255
215 232 255
215 232 255
215 232 255
215 232 255
215 232 255
215 232 255
215 232 255
215 232 255
215 232 255
215 232 255
215 232 255
215 232 255
215 232 255
215 232 255
215 232 255
215 232 255
215 232 255
215 232 255
215 232 255
215 232 255
215 232 255
215 232 255
215 232 255
215 232 255
215 232 255
215 232 255
215 232 255
215 232 255
215 232 255
215 232 255
215 232 255
215 232 255
215 232 255
215 232 255
215 232 255
215 232 255
215 232 255
215 232 255
215 232 255
215 232 255
215 232 255
215 232 255
215 232 255
215 232 255
215 232 255
215 232 255
215 232 255
215 232 255
215 232 255
215 232 255
215 232 255
215 232 255
215 232 255
215 232 255
215 232 255
215 232 255
215 232 255
215 232 255
215 232 255
215 232 255
215 232 255
215 232 255
215 232 255
215 232 255
215 232 255
215 232 255
215 232 255
215 232 255
215 232 255
215 232 255
215 232 255
215 232 255
215 232 255
215 232 255
215 232 255
215 232 255
215 232 255
215 232 255
215 232 255
215 232 255
215 232 255
215 232 255
215 232 255
215 232 255
215 232 255
215 232 255
215 232 255
215 232 255
215 232 255
215 232 255
215 232 255
215 232 255
215 232 255
215 232 255
215 232 255
215 232 255
215 232 255
215 232 255
215 232 255
215 232 255
215 232 255
215 232 255
215 232 255
215 232 255
215 232 255
215 232 255
215 232 255
215 232 255
215 232 255
215 232 255
215 232 255
215 232 255
215 232 255
215 232 255
215 232 255
215 232 255
215 232 255
215 232 255
215 232 255
215 232 255
215 232 255
215 232 255
215 232 255
215 232 255
215 232 255
215 232 255
215 232 255
215 232 255
215 232 255
215 232 255
215 232 255
215 232 255
215 232 255
215 232 255
215 232 255
215 232 255
215 232 255
215 232 255
215 232 255
215 232 255
215 232 255
215 232 255
215 232 255
215 232 255
215 232 255
215 232 255
215 232 255
215 232 255
215 232 255
215 232 255
215 232 255
215 232 255
215 232 255
215 232 255
215 232 255
215 232 255
215 232 255
215 232 255
215 232 255
215 232 255
215 232 255
215 232 255
215 232 255
215 232 255
215 232 255
215 232 255
215 232 255
215 232 255
215 232 255
215 232 255
215 232 255
215 232 255
215 232 255
215 232 255
215 232 255
215 232 255
190 205 228
164 178 199
114 125 142
45 52 62
33 38 31
37 43 22
48 53 29
53 57 37
60 62 42
51 57 33
49 56 30
49 56 30
43 49 33
49 54 36
52 57 37
55 60 39
46 53 38
51 54 31
53 54 30
51 53 28
54 55 29
53 54 29
54 56 30
53 59 31
52 56 33
57 57 36
60 59 39
58 59 43
58 60 43
58 60 45
53 55 45
51 52 43
41 44 48
75 80 84
90 99 109
87 99 128
33 44 92
8 17 70
12 19 72
7 12 69
22 25 61
13 14 64
27 29 55
68 67 44
67 70 47
62 65 49
83 88 83
101 114 129
113 128 145
75 87 101
75 87 112
24 34 83
0 22 85
17 30 88
54 64 101
130 146 167
181 203 232
202 225 255
207 228 255
211 230 255
215 232 255
215 232 255
215 232 255
215 232 255
215 232 255
215 232 255
215 232 255
215 232 255
215 232 255
215 232 255
215 232 255
215 232 255
215 232 255
215 232 255
215 232 255
215 232 255
215 232 255
215 232 255
215 232 255
215 232 255
215 232 255
215 232 255
215 232 255
215 232 255
215 232 255
215 232 255
215 232 255
215 232 255
215 232 255
215 232 255
215 232 255
215 232 255
215 232 255
215 232 255
215 232 255
215 232 255
215 232 255
215 232 255
215 232 255
215 232 255
215 232 255
215 232 255
215 232 255
215 232 255
215 232 255
215 232 255
215 232 255
215 232 255
215 232 255
215 232 255
215 232 255
215 232 255
215 232 255
215 232 255
215 232 255
215 232 255
215 232 255
215 232 255
215 232 255
215 232 255
215 232 255
215 232 255
215 232 255
215 232 255
215 232 255
215 232 255
215 232 255
215 232 255
215 232 255
215 232 255
215 232 255
215 232 255
215 232 255
215 232 255
215 232 255
215 232 255
215 232 255
215 232 255
215 232 255
215 232 255
215 232 255
215 232 255
215 232 255
215 232 255
215 232 255
215 232 255
215 232 255
215 232 255
215 232 255
215 232 255
215 232 255
215 232 255
215 232 255
215 232 255
215 232 255
215 232 255
215 232 255
215 232 255
215 232 255
215 232 255
215 232 255
215 232 255
215 232 255
215 232 255
215 232 255
215 232 255
215 232 255
215 232 255
215 232 255
215 232 255
215 232 255
215 232 255
215 232 255
215 232 255
215 232 255
215 232 255
215 232 255
215 232 255
215 232 255
215 232 255
215 232 255
215 232 255
215 232 255
215 232 255
215 232 255
215 232 255
215 232 255
215 232 255
215 232 255
215 232 255
215 232 255
215 232 255
215 232 255
215 232 255
215 232 255
215 232 255
215 232 255
215 232 255
215 232 255
215 232 255
215 232 255
215 232 255
215 232 255
215 232 255
215 232 255
215 232 255
215 232 255
215 232 255
215 232 255
215 232 255
215 232 255
215 232 255
215 232 255
215 232 255
215 232 255
215 232 255
215 232 255
215 232 255
215 232 255
215 232 255
215 232 255
215 232 255
215 232 255
215 232 255
215 232 255
215 232 255
215 232 255
215 232 255
215 232 255
215 232 255
216 232 255
215 232 255
215 232 255
215 232 255
215 232 255
215 232 255
215 232 255
215 232 255
215 232 255
215 232 255
215 232 255
215 232 255
215 232 255
215 232 255
215 232 255
215 232 255
215 232 255
215 232 255
215 232 255
215 232 255
215 232 255
215 232 255
215 232 255
215 232 255
215 232 255
215 232 255
215 232 255
215 232 255
215 232 255
215 232 255
215 232 255
215 232 255
215 232 255
215 232 255
215 232 255
215 232 255
215 232 255
215 232 255
215 232 255
215 232 255
215 232 255
215 232 255
215 232 255
215 232 255
215 232 255
215 232 255
215 232 255
215 232 255
215 232 255
215 232 255
215 232 255
215 232 255
215 232 255
215 232 255
215 232 255
215 232 255
215 232 255
215 232 255
215 232 255
215 232 255
215 232 255
215 232 255
215 232 255
215 232 255
215 232 255
215 232 255
215 232 255
215 232 255
215 232 255
215 232 255
215 232 255
215 232 255
215 232 255
215 232 255
215 232 255
215 232 255
215 232 255
215 232 255
215 232 255
215 232 255
215 232 255
215 232 255
215 232 255
215 232 255
215 232 255
215 232 255
215 232 255
215 232 255
215 232 255
215 232 255
215 232 255
215 232 255
215 232 255
215 232 255
215 232 255
215 232 255
215 232 255
215 232 255
215 232 255
215 232 255
215 232 255
215 232 255
215 232 255
215 232 255
215 232 255
215 232 255
215 232 255
215 232 255
215 232 255
215 232 255
215 232 255
215 232 255
215 232 255
215 232 255
215 232 255
215 232 255
215 232 255
215 232 255
215 232 255
215 232 255
215 232 255
215 232 255
215 232 255
215 232 255
215 232 255
215 232 255
215 232 255
215 232 255
215 232 255
215 232 255
215 232 255
215 232 255
215 232 255
215 232 255
215 232 255
215 232 255
215 232 255
215 232 255
215 232 255
215 232 255
215 232 255
215 232 255
215 232 255
215 232 255
215 232 255
215 232 255
215 232 255
215 232 255
215 232 255
215 232 255
215 232 255
215 232 255
215 232 255
215 232 255
215 232 255
215 232 255
215 232 255
215 232 255
215 232 255
215 232 255
215 232 255
215 232 255
215 232 255
215 232 255
215 232 255
215 232 255
209 226 248
174 188 204
133 144 152
80 89 84
37 47 20
34 43 12
38 44 14
37 47 22
27 41 47
24 33 49
23 29 41
22 29 32
30 39 30
39 45 18
38 44 16
40 45 21
40 43 25
37 43 23
39 43 25
45 52 28
49 52 26
55 56 27
53 52 28
51 52 24
48 49 26
44 45 22
41 42 24
43 44 21
43 44 23
44 46 26
47 50 29
46 49 29
49 53 36
42 46 49
36 39 63
28 31 63
15 19 61
50 53 53
83 87 60
55 57 55
45 48 68
64 71 90
59 67 103
12 19 69
35 37 58
40 42 54
29 30 54
43 45 54
67 69 57
49 53 42
69 70 48
63 64 47
57 57 48
56 59 64
83 93 109
29 34 64
0 7 63
0 13 70
0 19 79
15 24 76
30 37 66
97 111 128
174 195 223
191 217 249
199 223 255
203 225 255
209 229 255
214 231 255
215 232 255
215 232 255
215 232 255
215 232 255
215 232 255
215 232 255
215 232 255
215 232 255
215 232 255
215 232 255
215 232 255
215 232 255
215 232 255
215 232 255
215 232 255
215 232 255
215 232 255
215 232 255
215 232 255
215 232 255
215 232 255
215 232 255
215 232 255
215 232 255
215 232 255
215 232 255
215 232 255
215 232 255
215 232 255
215 232 255
215 232 255
215 232 255
215 232 255
215 232 255
215 232 255
215 232 255
215 232 255
215 232 255
215 232 255
215 232 255
215 232 255
215 232 255
215 232 255
215 232 255
215 232 255
215 232 255
215 232 255
215 232 255
215 232 255
215 232 255
215 232 255
215 232 255
215 232 255
215 232 255
215 232 255
215 232 255
215 232 255
215 232 255
215 232 255
215 232 255
215 232 255
215 232 255
215 232 255
215 232 255
215 232 255
215 232 255
215 232 255
215 232 255
215 232 255
215 232 255
215 232 255
215 232 255
215 232 255
215 232 255
215 232 255
215 232 255
215 232 255
215 232 255
215 232 255
215 232 255
215 232 255
215 232 255
215 232 255
215 232 255
215 232 255
215 232 255
215 232 255
215 232 255
215 232 255
215 232 255
215 232 255
215 232 255
215 232 255
215 232 255
215 232 255
215 232 255
215 232 255
215 232 255
215 232 255
215 232 255
215 232 255
215 232 255
215 232 255
215 232 255
215 232 255
215 232 255
215 232 255
215 232 255
215 232 255
215 232 255
215 232 255
215 232 255
215 232 255
215 232 255
215 232 255
215 232 255
215 232 255
215 232 255
215 232 255
215 232 255
215 232 255
215 232 255
215 232 255
215 232 255
215 232 255
215 232 255
215 232 255
215 232 255
215 232 255
215 232 255
215 232 255
215 232 255
215 232 255
215 232 255
215 232 255
215 232 255
215 232 255
215 232 255
215 232 255
215 232 255
215 232 255
215 232 255
215 232 255
215 232 255
215 232 255
215 232 255
215 232 255
215 232 255
215 232 255
215 232 255
215 232 255
215 232 255
215 232 255
215 232 255
215 232 255
215 232 255
215 232 255
215 232 255
215 232 255
215 232 255
215 232 255
215 232 255
215 232 255
215 232 255
216 232 255
216 232 255
216 232 255
216 232 255
216 232 255
216 232 255
216 232 255
216 232 255
216 232 255
216 232 255
216 232 255
216 232 255
216 232 255
216 232 255
216 232 255
216 232 255
216 232 255
216 232 255
216 232 255
216 232 255
216 232 255
216 232 255
216 232 255
216 232 255
216 232 255
216 232 255
215 232 255
215 232 255
215 232 255
215 232 255
215 232 255
215 232 255
215 232 255
215 232 255
215 232 255
215 232 255
215 232 255
215 232 255
215 232 255
215 232 255
215 232 255
215 232 255
215 232 255
215 232 255
215 232 255
215 232 255
215 232 255
215 232 255
215 232 255
215 232 255
215 232 255
215 232 255
215 232 255
215 232 255
215 232 255
215 232 255
215 232 255
215 232 255
215 232 255
215 232 255
215 232 255
215 232 255
215 232 255
215 232 255
215 232 255
215 232 255
215 232 255
215 232 255
215 232 255
215 232 255
215 232 255
215 232 255
215 232 255
215 232 255
215 232 255
215 232 255
215 232 255
215 232 255
215 232 255
215 232 255
215 232 255
215 232 255
215 232 255
215 232 255
215 232 255
215 232 255
215 232 255
215 232 255
215 232 255
215 232 255
215 232 255
215 232 255
215 232 255
215 232 255
215 232 255
215 232 255
215 232 255
215 232 255
215 232 255
215 232 255
215 232 255
215 232 255
215 232 255
215 232 255
215 232 255
215 232 255
215 232 255
215 232 255
215 232 255
215 232 255
215 232 255
215 232 255
215 232 255
215 232 255
215 232 255
215 232 255
215 232 255
215 232 255
215 232 255
215 232 255
215 232 255
215 232 255
215 232 255
215 232 255
215 232 255
215 232 255
215 232 255
215 232 255
215 232 255
215 232 255
215 232 255
215 232 255
215 232 255
215 232 255
215 232 255
215 232 255
215 232 255
215 232 255
215 232 255
215 232 255
215 232 255
215 232 255
215 232 255
215 232 255
215 232 255
215 232 255
215 232 255
215 232 255
215 232 255
215 232 255
215 232 255
215 232 255
215 232 255
215 232 255
215 232 255
215 232 255
215 232 255
215 232 255
215 232 255
215 232 255
215 232 255
215 232 255
215 232 255
215 232 255
215 232 255
212 229 252
183 198 215
135 147 156
50 59 39
47 56 23
55 63 33
54 59 31
54 61 34
37 46 11
37 47 10
38 44 12
32 37 13
29 36 11
33 41 9
34 43 11
36 44 12
36 42 17
34 40 17
29 36 21
35 41 18
41 45 19
45 48 20
47 48 20
49 49 20
44 45 20
43 45 21
34 37 23
37 41 18
38 41 18
35 39 19
42 46 21
40 43 15
42 45 21
39 44 33
24 26 51
15 18 63
1 9 71
0 9 74
0 2 64
0 6 68
3 5 67
7 9 65
16 18 57
53 58 59
12 14 62
9 13 65
41 45 67
11 19 66
39 41 58
40 41 60
29 31 62
27 29 59
32 34 60
32 33 54
56 56 51
58 59 53
65 66 57
88 97 102
57 63 73
12 14 58
0 7 63
0 0 63
0 1 63
0 0 61
1 4 64
34 39 73
97 110 129
153 175 202
189 214 247
197 222 255
195 221 254
199 222 252
196 213 237
210 226 249
215 232 255
215 232 255
215 232 255
215 232 255
215 232 255
215 232 255
215 232 255
215 232 255
215 232 255
215 232 255
215 232 255
215 232 255
215 232 255
215 232 255
215 232 255
215 232 255
215 232 255
215 232 255
215 232 255
215 232 255
215 232 255
215 232 255
215 232 255
215 232 255
215 232 255
215 232 255
215 232 255
215 232 255
215 232 255
215 232 255
215 232 255
215 232 255
215 232 255
215 232 255
215 232 255
215 232 255
215 232 255
215 232 255
215 232 255
215 232 255
215 232 255
215 232 255
215 232 255
215 232 255
215 232 255
215 232 255
215 232 255
215 232 255
215 232 255
215 232 255
215 232 255
215 232 255
215 232 255
215 232 255
215 232 255
215 232 255
215 232 255
215 232 255
215 232 255
215 232 255
215 232 255
215 232 255
215 232 255
215 232 255
215 232 255
215 232 255
215 232 255
215 232 255
215 232 255
215 232 255
215 232 255
215 232 255
215 232 255
215 232 255
215 232 255
215 232 255
215 232 255
215 232 255
215 232 255
215 232 255
215 232 255
215 232 255
215 232 255
215 232 255
215 232 255
215 232 255
215 232 255
215 232 255
215 232 255
215 232 255
215 232 255
215 232 255
215 232 255
215 232 255
215 232 255
215 232 255
215 232 255
215 232 255
215 232 255
215 232 255
215 232 255
215 232 255
215 232 255
215 232 255
215 232 255
215 232 255
215 232 255
215 232 255
215 232 255
215 232 255
215 232 255
215 232 255
215 232 255
215 232 255
215 232 255
215 232 255
215 232 255
215 232 255
215 232 255
215 232 255
215 232 255
215 232 255
215 232 255
215 232 255
215 232 255
215 232 255
215 232 255
215 232 255
215 232 255
215 232 255
215 232 255
215 232 255
215 232 255
215 232 255
215 232 255
215 232 255
215 232 255
215 232 255
215 232 255
216 232 255
216 232 255
216 232 255
216 232 255
216 232 255
216 232 255
216 232 255
216 232 255
216 232 255
216 232 255
216 232 255
216 232 255
216 232 255
216 232 255
216 232 255
216 232 255
216 232 255
216 232 255
216 232 255
216 232 255
216 232 255
216 232 255
216 232 255
216 232 255
216 232 255
216 232 255
216 232 255
216 232 255
216 232 255
216 232 255
216 232 255
216 232 255
216 232 255
216 232 255
216 232 255
216 232 255
216 232 255
216 232 255
216 232 255
216 232 255
216 232 255
216 232 255
216 232 255
216 232 255
216 232 255
216 232 255
216 232 255
216 232 255
216 232 255
216 232 255
216 232 255
216 232 255
216 232 255
216 232 255
216 232 255
216 232 255
216 232 255
216 232 255
216 232 255
216 232 255
216 232 255
216 232 255
216 232 255
216 232 255
216 232 255
216 232 255
216 232 255
216 232 255
216 232 255
216 232 255
216 232 255
216 232 255
216 232 255
216 232 255
216 232 255
215 232 255
215 232 255
215 232 255
215 232 255
215 232 255
215 232 255
215 232 255
215 232 255
215 232 255
215 232 255
215 232 255
215 232 255
215 232 255
215 232 255
215 232 255
215 232 255
215 232 255
215 232 255
215 232 255
215 232 255
215 232 255
215 232 255
215 232 255
215 232 255
215 232 255
215 232 255
215 232 255
215 232 255
215 232 255
215 232 255
215 232 255
215 232 255
215 232 255
215 232 255
215 232 255
215 232 255
215 232 255
215 232 255
215 232 255
215 232 255
215 232 255
215 232 255
215 232 255
215 232 255
215 232 255
215 232 255
215 232 255
215 232 255
215 232 255
215 232 255
215 232 255
215 232 255
215 232 255
215 232 255
215 232 255
215 232 255
215 232 255
215 232 255
215 232 255
215 232 255
215 232 255
215 232 255
215 232 255
215 232 255
215 232 255
215 232 255
215 232 255
215 232 255
215 232 255
215 232 255
215 232 255
215 232 255
215 232 255
215 232 255
215 232 255
215 232 255
215 232 255
215 232 255
215 232 255
215 232 255
215 232 255
215 232 255
215 232 255
215 232 255
215 232 255
215 232 255
215 232 255
215 232 255
215 232 255
215 232 255
215 232 255
215 232 255
215 232 255
215 232 255
215 232 255
215 232 255
215 232 255
215 232 255
215 232 255
215 232 255
215 232 255
215 232 255
215 232 255
215 232 255
215 232 255
215 232 255
215 232 255
215 232 255
215 232 255
214 231 254
191 207 226
122 133 140
43 54 28
42 52 19
44 54 22
45 56 24
55 66 32
67 73 42
65 68 41
46 53 22
32 45 6
35 45 9
39 45 15
39 46 15
33 40 5
28 37 20
27 43 18
27 44 17
30 40 16
26 37 10
28 37 12
36 43 17
35 40 12
37 40 19
34 37 13
34 38 12
36 40 16
39 43 18
43 46 16
38 42 20
42 46 17
42 45 16
43 46 13
46 47 17
29 35 33
7 10 67
0 2 68
0 4 69
0 0 69
0 0 71
0 0 70
0 0 68
0 0 64
0 0 65
0 0 64
0 0 63
0 0 64
0 5 70
10 15 70
0 8 69
22 27 61
56 56 31
58 58 29
60 61 38
61 62 42
56 58 47
38 40 59
29 31 54
17 21 56
39 41 59
38 43 62
12 15 54
15 16 61
2 8 68
0 6 67
0 0 59
0 0 59
0 0 61
0 0 65
5 10 68
60 70 90
158 178 203
194 218 250
196 222 255
168 192 225
93 105 134
124 133 155
194 209 231
215 232 255
215 232 255
215 232 255
215 232 255
215 232 255
215 232 255
215 232 255
215 232 255
215 232 255
215 232 255
215 232 255
215 232 255
215 232 255
215 232 255
215 232 255
215 232 255
215 232 255
215 232 255
215 232 255
215 232 255
215 232 255
215 232 255
215 232 255
215 232 255
215 232 255
215 232 255
215 232 255
215 232 255
215 232 255
215 232 255
215 232 255
215 232 255
215 232 255
215 232 255
215 232 255
215 232 255
215 232 255
215 232 255
215 232 255
215 232 255
215 232 255
215 232 255
215 232 255
215 232 255
215 232 255
215 232 255
215 232 255
215 232 255
215 232 255
215 232 255
215 232 255
215 232 255
215 232 255
215 232 255
215 232 255
215 232 255
215 232 255
215 232 255
215 232 255
215 232 255
215 232 255
215 232 255
215 232 255
215 232 255
215 232 255
215 232 255
215 232 255
215 232 255
215 232 255
215 232 255
215 232 255
215 232 255
215 232 255
215 232 255
215 232 255
215 232 255
215 232 255
215 232 255
215 232 255
215 232 255
215 232 255
215 232 255
215 232 255
215 232 255
215 232 255
215 232 255
215 232 255
215 232 255
215 232 255
215 232 255
215 232 255
215 232 255
215 232 255
215 232 255
215 232 255
215 232 255
215 232 255
215 232 255
215 232 255
215 232 255
215 232 255
215 232 255
215 232 255
215 232 255
215 232 255
215 232 255
215 232 255
215 232 255
215 232 255
215 232 255
216 232 255
216 232 255
216 232 255
216 232 255
216 232 255
216 232 255
216 232 255
216 232 255
216 232 255
216 232 255
216 232 255
216 232 255
216 232 255
216 232 255
216 232 255
216 232 255
216 232 255
216 232 255
216 232 255
216 232 255
216 232 255
216 232 255
216 232 255
216 232 255
216 232 255
216 232 255
216 232 255
216 232 255
216 232 255
216 232 255
216 232 255
216 232 255
216 232 255
216 232 255
216 232 255
216 232 255
216 232 255
216 232 255
216 232 255
216 232 255
216 232 255
216 232 255
216 232 255
216 232 255
216 232 255
216 232 255
216 232 255
216 232 255
216 232 255
216 232 255
216 232 255
216 232 255
216 232 255
216 232 255
216 232 255
216 232 255
216 232 255
216 232 255
216 232 255
216 232 255
216 232 255
216 232 255
216 232 255
216 232 255
216 232 255
216 232 255
216 232 255
216 232 255
216 232 255
216 232 255
216 232 255
216 232 255
216 232 255
216 232 255
216 232 255
216 232 255
216 232 255
216 232 255
216 232 255
216 232 255
216 232 255
216 232 255
216 232 255
216 232 255
216 232 255
216 232 255
216 232 255
216 232 255
216 232 255
216 232 255
216 232 255
216 232 255
216 232 255
216 232 255
216 232 255
216 232 255
216 232 255
216 232 255
216 232 255
216 232 255
216 232 255
216 232 255
216 232 255
216 232 255
216 232 255
216 232 255
216 232 255
216 232 255
216 232 255
216 232 255
216 232 255
216 232 255
216 232 255
216 232 255
216 232 255
216 232 255
216 232 255
216 232 255
216 232 255
216 232 255
216 232 255
216 232 255
216 232 255
216 232 255
216 232 255
216 232 255
216 232 255
216 232 255
216 232 255
216 232 255
216 232 255
216 232 255
216 232 255
216 232 255
215 232 255
215 232 255
215 232 255
215 232 255
215 232 255
215 232 255
215 232 255
215 232 255
215 232 255
215 232 255
215 232 255
215 232 255
215 232 255
215 232 255
215 232 255
215 232 255
215 232 255
215 232 255
215 232 255
215 232 255
215 232 255
215 232 255
215 232 255
215 232 255
215 232 255
215 232 255
215 232 255
215 232 255
215 232 255
215 232 255
215 232 255
215 232 255
215 232 255
215 232 255
215 232 255
215 232 255
215 232 255
215 232 255
215 232 255
215 232 255
215 232 255
215 232 255
215 232 255
215 232 255
215 232 255
215 232 255
215 232 255
215 232 255
215 232 255
215 232 255
215 232 255
215 232 255
215 232 255
215 232 255
215 232 255
215 232 255
215 232 255
215 232 255
215 232 255
215 232 255
215 232 255
215 232 255
215 232 255
215 232 255
215 232 255
215 232 255
215 232 255
215 232 255
215 232 255
215 232 255
215 232 255
215 232 255
215 232 255
215 232 255
215 232 255
207 223 245
167 181 196
98 108 111
36 48 13
31 44 5
32 46 8
32 44 6
33 45 8
47 58 23
52 62 31
50 57 28
42 54 22
26 42 0
26 40 0
29 43 3
31 44 4
32 45 9
31 44 9
27 42 13
33 46 8
31 44 5
32 43 9
28 37 14
30 37 13
32 38 9
28 36 4
26 34 5
29 38 10
37 44 13
35 41 19
40 46 21
35 40 15
33 38 15
40 44 14
44 47 13
47 50 16
43 45 12
10 14 66
0 9 69
0 5 70
0 3 69
0 0 65
0 0 64
0 0 69
0 0 69
0 0 68
0 0 68
0 0 67
0 0 64
0 0 64
0 1 63
0 5 65
0 5 67
2 5 66
33 39 49
50 54 22
47 49 21
48 49 26
51 53 29
60 60 37
59 60 34
49 50 39
15 17 59
16 22 62
0 0 65
2 4 63
21 27 55
0 5 66
0 0 65
0 0 65
0 0 66
0 0 62
0 7 68
0 11 75
0 8 71
65 77 99
136 154 179
189 213 244
195 220 253
132 151 182
14 21 71
91 98 120
151 162 183
205 222 244
215 232 255
215 232 255
215 232 255
215 232 255
215 232 255
215 232 255
215 232 255
215 232 255
215 232 255
215 232 255
215 232 255
215 232 255
215 232 255
215 232 255
215 232 255
215 232 255
215 232 255
215 232 255
215 232 255
215 232 255
215 232 255
215 232 255
215 232 255
215 232 255
215 232 255
215 232 255
215 232 255
215 232 255
215 232 255
215 232 255
215 232 255
215 232 255
215 232 255
215 232 255
215 232 255
215 232 255
215 232 255
215 232 255
215 232 255
215 232 255
215 232 255
215 232 255
215 232 255
215 232 255
215 232 255
215 232 255
215 232 255
215 232 255
215 232 255
215 232 255
215 232 255
215 232 255
215 232 255
215 232 255
215 232 255
215 232 255
215 232 255
215 232 255
215 232 255
215 232 255
215 232 255
215 232 255
215 232 255
215 232 255
215 232 255
215 232 255
215 232 255
215 232 255
215 232 255
215 232 255
215 232 255
215 232 255
215 232 255
215 232 255
215 232 255
215 232 255
216 232 255
216 232 255
216 232 255
216 232 255
216 232 255
216 232 255
216 232 255
216 232 255
216 232 255
216 232 255
216 232 255
216 232 255
216 232 255
216 232 255
216 232 255
216 232 255
216 232 255
216 232 255
216 232 255
216 232 255
216 232 255
216 232 255
216 232 255
216 232 255
216 232 255
216 232 255
216 232 255
216 232 255
216 232 255
216 232 255
216 232 255
216 232 255
216 232 255
216 232 255
216 232 255
216 232 255
216 232 255
216 232 255
216 232 255
216 232 255
216 232 255
216 232 255
216 232 255
216 232 255
216 232 255
216 232 255
216 232 255
216 232 255
216 232 255
216 232 255
216 232 255
216 232 255
216 232 255
216 232 255
216 232 255
216 232 255
216 232 255
216 232 255
216 232 255
216 232 255
216 232 255
216 232 255
216 232 255
216 232 255
216 232 255
216 232 255
216 232 255
216 232 255
216 232 255
216 232 255
216 232 255
216 232 255
216 232 255
216 232 255
216 232 255
216 232 255
216 232 255
216 232 255
216 232 255
216 232 255
216 232 255
216 232 255
216 232 255
216 232 255
216 232 255
216 232 255
216 232 255
216 232 255
216 232 255
216 232 255
216 232 255
216 232 255
216 232 255
216 232 255
216 232 255
216 232 255
216 232 255
216 232 255
216 232 255
216 232 255
216 232 255
216 232 255
216 232 255
216 232 255
216 232 255
216 232 255
216 232 255
216 232 255
216 232 255
216 232 255
216 232 255
216 232 255
216 232 255
216 232 255
216 232 255
216 232 255
216 232 255
216 232 255
216 232 255
216 232 255
216 232 255
216 232 255
216 232 255
216 232 255
216 232 255
216 232 255
216 232 255
216 232 255
216 232 255
216 232 255
216 232 255
216 232 255
216 232 255
216 232 255
216 232 255
216 232 255
216 232 255
216 232 255
216 232 255
216 232 255
216 232 255
216 232 255
216 232 255
216 232 255
216 232 255
216 232 255
216 232 255
216 232 255
216 232 255
216 232 255
216 232 255
216 232 255
216 232 255
216 232 255
216 232 255
216 232 255
216 232 255
216 232 255
216 232 255
216 232 255
216 232 255
216 232 255
216 232 255
216 232 255
216 232 255
216 232 255
216 232 255
216 232 255
216 232 255
216 232 255
216 232 255
216 232 255
216 232 255
216 232 255
216 232 255
216 232 255
216 232 255
216 232 255
216 232 255
216 232 255
216 232 255
216 232 255
216 232 255
216 232 255
216 232 255
216 232 255
216 232 255
216 232 255
216 232 255
216 232 255
216 232 255
216 232 255
216 232 255
216 232 255
216 232 255
216 232 255
216 232 255
216 232 255
216 232 255
216 232 255
216 232 255
216 232 255
216 232 255
216 232 255
216 232 255
215 232 255
216 232 255
215 232 255
215 232 255
215 232 255
216 232 255
215 232 255
215 232 255
215 232 255
215 232 255
215 232 255
215 232 255
215 232 255
215 232 255
215 232 255
215 232 255
215 232 255
215 232 255
215 232 255
215 232 255
215 232 255
215 232 255
215 232 255
215 232 255
215 232 255
215 232 255
215 232 255
215 232 255
215 232 255
215 232 255
215 232 255
215 232 255
215 232 255
194 209 229
136 149 156
88 99 89
45 55 28
38 47 14
35 47 8
33 47 11
37 51 14
32 45 11
28 42 6
25 40 3
24 39 0
25 43 3
25 43 0
25 41 0
27 41 0
26 42 0
27 44 0
30 45 0
29 44 0
29 47 2
39 54 10
35 48 9
32 41 13
38 43 30
38 43 23
39 47 17
39 47 18
35 43 14
28 36 16
27 35 12
32 39 18
37 42 13
35 42 13
33 40 8
33 38 9
33 37 3
39 44 9
38 45 10
37 42 13
31 36 30
6 30 87
0 25 82
0 17 78
0 7 70
0 6 66
0 4 66
0 0 67
0 0 69
0 0 69
0 0 65
0 0 64
0 0 62
0 0 64
0 0 64
3 3 59
27 31 48
41 46 30
44 49 16
43 48 15
46 50 19
52 56 22
53 56 25
55 57 28
45 52 35
31 39 51
19 35 78
6 26 82
46 53 48
68 69 54
42 43 55
6 7 62
0 0 63
0 0 64
0 6 65
0 5 66
0 6 66
0 4 64
0 5 66
30 34 73
122 136 162
150 168 192
149 169 194
81 95 126
0 0 57
52 57 82
131 141 161
197 213 235
215 232 255
215 232 255
215 232 255
215 232 255
215 232 255
215 232 255
215 232 255
215 232 255
215 232 255
215 232 255
215 232 255
215 232 255
215 232 255
215 232 255
215 232 255
215 232 255
215 232 255
215 232 255
215 232 255
215 232 255
215 232 255
215 232 255
215 232 255
215 232 255
215 232 255
215 232 255
215 232 255
215 232 255
215 232 255
215 232 255
216 232 255
216 232 255
216 232 255
216 232 255
216 232 255
216 232 255
216 232 255
216 232 255
216 232 255
216 232 255
216 232 255
216 232 255
216 232 255
216 232 255
216 232 255
216 232 255
216 232 255
216 232 255
216 232 255
216 232 255
216 232 255
216 232 255
216 232 255
216 232 255
216 232 255
216 232 255
216 232 255
216 232 255
216 232 255
216 232 255
216 232 255
216 232 255
216 232 255
216 232 255
216 232 255
216 232 255
216 232 255
216 232 255
216 232 255
216 232 255
216 232 255
216 232 255
216 232 255
216 232 255
216 232 255
216 232 255
216 232 255
216 232 255
216 232 255
216 232 255
216 232 255
216 232 255
216 232 255
216 232 255
216 232 255
216 232 255
216 232 255
216 232 255
216 232 255
216 232 255
216 232 255
216 232 255
216 232 255
216 232 255
216 232 255
216 232 255
216 232 255
216 232 255
216 232 255
216 232 255
216 232 255
216 232 255
216 232 255
216 232 255
216 232 255
216 232 255
216 232 255
216 232 255
216 232 255
216 232 255
216 232 255
216 232 255
216 232 255
216 232 255
216 232 255
216 232 255
216 232 255
216 232 255
216 232 255
216 232 255
216 232 255
216 232 255
216 232 255
216 232 255
216 232 255
216 232 255
216 232 255
216 232 255
216 232 255
216 232 255
216 232 255
216 232 255
216 232 255
216 232 255
216 232 255
216 232 255
216 232 255
216 232 255
216 232 255
216 232 255
216 232 255
216 232 255
216 232 255
216 232 255
216 232 255
216 232 255
216 232 255
216 232 255
216 232 255
216 232 255
216 232 255
216 232 255
216 232 255
216 232 255
216 232 255
216 232 255
216 232 255
216 232 255
216 232 255
216 232 255
216 232 255
216 232 255
216 232 255
216 232 255
216 232 255
216 232 255
216 232 255
216 232 255
216 232 255
216 232 255
216 232 255
216 232 255
216 232 255
216 232 255
216 232 255
216 232 255
216 232 255
216 232 255
216 232 255
216 232 255
216 232 255
216 232 255
216 232 255
216 232 255
216 232 255
216 232 255
216 232 255
216 232 255
216 232 255
216 232 255
216 232 255
216 232 255
216 232 255
216 232 255
216 232 255
216 232 255
216 232 255
216 232 255
216 232 255
216 232 255
216 232 255
216 232 255
216 232 255
216 232 255
216 232 255
216 232 255
216 232 255
216 232 255
216 232 255
216 232 255
216 232 255
216 232 255
216 232 255
216 232 255
216 232 255
216 232 255
216 232 255
216 232 255
216 232 255
216 232 255
216 232 255
216 232 255
216 232 255
216 232 255
216 232 255
216 232 255
216 232 255
216 232 255
216 232 255
216 232 255
216 232 255
216 232 255
216 232 255
216 232 255
216 232 255
216 232 255
216 232 255
216 232 255
216 232 255
216 232 255
216 232 255
216 232 255
216 232 255
216 232 255
216 232 255
216 232 255
216 232 255
216 232 255
216 232 255
216 232 255
216 232 255
216 232 255
216 232 255
216 232 255
216 232 255
216 232 255
216 232 255
216 232 255
216 232 255
216 232 255
216 232 255
216 232 255
216 232 255
216 232 255
216 232 255
216 232 255
216 232 255
216 232 255
216 232 255
216 232 255
216 232 255
216 232 255
216 232 255
216 232 255
216 232 255
216 232 255
216 232 255
216 232 255
216 232 255
216 232 255
216 232 255
216 232 255
216 232 255
216 232 255
216 232 255
216 232 255
216 232 255
216 232 255
216 232 255
216 232 255
216 232 255
216 232 255
216 232 255
216 232 255
216 232 255
216 232 255
216 232 255
216 232 255
216 232 255
216 232 255
216 232 255
216 232 255
216 232 255
216 232 255
216 232 255
216 232 255
216 232 255
216 232 255
216 232 255
216 232 255
178 194 210
127 143 147
90 104 96
133 151 162
133 151 159
74 86 70
36 49 15
28 42 8
38 52 16
31 44 7
27 41 8
45 58 28
25 41 8
21 40 0
25 44 0
24 44 0
24 45 0
26 46 0
28 48 4
31 50 8
27 46 0
25 44 0
27 46 0
30 46 6
35 47 7
37 47 12
41 47 14
36 44 19
30 37 15
29 40 8
28 41 2
24 37 12
16 24 23
28 37 11
28 38 6
30 42 10
32 45 10
30 42 7
34 43 10
36 45 0
36 48 8
38 47 10
39 46 10
28 48 58
30 48 54
27 41 50
24 34 58
18 31 60
6 22 71
0 3 68
0 0 66
0 2 69
0 7 71
0 0 69
0 0 66
0 6 68
0 2 70
2 6 64
2 4 57
0 2 60
27 33 52
44 50 17
44 49 20
48 52 22
52 57 25
53 58 23
52 57 20
45 54 17
41 50 17
39 52 28
45 52 21
56 61 27
67 67 42
52 56 50
28 33 58
0 3 63
0 0 63
0 0 59
0 0 53
0 0 54
0 3 61
0 0 63
0 4 65
0 9 71
7 16 73
74 86 116
64 76 102
8 11 61
0 0 54
0 0 52
110 118 137
180 194 216
216 232 255
216 232 255
216 232 255
216 232 255
216 232 255
216 232 255
216 232 255
216 232 255
216 232 255
216 232 255
216 232 255
216 232 255
216 232 255
216 232 255
216 232 255
216 232 255
216 232 255
216 232 255
216 232 255
216 232 255
216 232 255
216 232 255
216 232 255
216 232 255
216 232 255
216 232 255
216 232 255
216 232 255
216 232 255
216 232 255
216 232 255
216 232 255
216 232 255
216 232 255
216 232 255
216 232 255
216 232 255
216 232 255
216 232 255
216 232 255
216 232 255
216 232 255
216 232 255
216 232 255
216 232 255
216 232 255
216 232 255
216 232 255
216 232 255
216 232 255
216 232 255
216 232 255
216 232 255
216 232 255
216 232 255
216 232 255
216 232 255
216 232 255
216 232 255
216 232 255
216 232 255
216 232 255
216 232 255
216 232 255
216 232 255
216 232 255
216 232 255
216 232 255
216 232 255
216 232 255
216 232 255
216 232 255
216 232 255
216 232 255
216 232 255
216 232 255
216 232 255
216 232 255
216 232 255
216 232 255
216 232 255
216 232 255
216 232 255
216 232 255
216 232 255
216 232 255
216 232 255
216 232 255
216 232 255
216 232 255
216 232 255
216 232 255
216 232 255
216 232 255
216 232 255
216 232 255
216 232 255
216 232 255
216 232 255
216 232 255
216 232 255
216 232 255
216 232 255
216 232 255
216 232 255
216 232 255
216 232 255
216 232 255
216 232 255
216 232 255
216 232 255
216 232 255
216 232 255
216 232 255
216 232 255
216 232 255
216 232 255
216 232 255
216 232 255
216 232 255
216 232 255
216 232 255
216 232 255
216 232 255
216 232 255
216 232 255
216 232 255
216 232 255
216 232 255
216 232 255
216 232 255
216 232 255
216 232 255
216 232 255
216 232 255
216 232 255
216 232 255
216 232 255
216 232 255
216 232 255
216 232 255
216 232 255
216 232 255
216 232 255
216 232 255
216 232 255
216 232 255
216 232 255
216 232 255
216 232 255
216 232 255
216 232 255
216 232 255
216 232 255
216 233 255
216 233 255
216 233 255
216 233 255
216 233 255
216 233 255
216 233 255
216 232 255
216 233 255
216 232 255
216 232 255
216 232 255
216 232 255
216 232 255
216 232 255
216 232 255
216 232 255
216 232 255
216 232 255
216 232 255
216 232 255
216 232 255
216 232 255
216 232 255
216 232 255
216 232 255
216 232 255
216 232 255
216 232 255
216 232 255
216 232 255
216 232 255
216 232 255
216 232 255
216 232 255
216 232 255
216 232 255
216 232 255
216 232 255
216 232 255
216 232 255
216 232 255
216 232 255
216 232 255
216 232 255
216 232 255
216 232 255
216 232 255
216 232 255
216 232 255
216 232 255
216 232 255
216 232 255
216 232 255
216 232 255
216 232 255
216 232 255
216 232 255
216 232 255
216 232 255
216 232 255
216 232 255
216 232 255
216 232 255
216 232 255
216 232 255
216 232 255
216 232 255
216 232 255
216 232 255
216 232 255
216 232 255
216 232 255
216 232 255
216 232 255
216 232 255
216 232 255
216 232 255
216 232 255
216 232 255
216 232 255
216 232 255
216 232 255
216 232 255
216 232 255
216 232 255
216 232 255
216 232 255
216 232 255
216 232 255
216 232 255
216 232 255
216 232 255
216 232 255
216 232 255
216 232 255
216 232 255
216 232 255
216 232 255
216 232 255
216 232 255
216 232 255
216 232 255
216 232 255
216 232 255
216 232 255
216 232 255
216 232 255
216 232 255
216 232 255
216 232 255
216 232 255
216 232 255
216 232 255
216 232 255
216 232 255
216 232 255
216 232 255
216 232 255
216 232 255
216 232 255
216 232 255
216 232 255
216 232 255
216 232 255
216 232 255
216 232 255
216 232 255
216 232 255
216 232 255
216 232 255
216 232 255
216 232 255
216 232 255
216 232 255
216 232 255
216 232 255
216 232 255
216 232 255
216 232 255
216 232 255
216 232 255
216 232 255
216 232 255
216 232 255
216 232 255
216 232 255
216 232 255
216 232 255
216 232 255
216 232 255
216 232 255
189 205 225
119 133 143
49 64 81
95 113 122
111 131 150
145 168 180
117 140 146
109 128 128
31 46 8
32 47 10
39 53 15
43 56 20
41 54 24
63 75 46
23 39 2
23 41 0
22 42 0
22 42 1
27 47 5
26 46 2
23 44 0
22 42 0
23 43 0
25 45 0
24 45 0
24 42 2
28 42 7
20 34 6
26 39 6
27 39 3
22 36 0
20 35 0
25 39 2
21 36 9
25 39 0
27 41 5
29 45 0
26 43 0
23 40 0
24 44 4
27 44 0
24 40 0
29 45 0
29 43 6
28 41 0
31 43 0
32 43 3
30 40 2
31 41 5
37 42 8
30 43 24
25 41 55
19 30 56
10 19 69
3 14 71
3 13 74
0 15 75
0 10 72
0 6 74
7 16 64
5 11 61
0 2 60
14 21 63
34 43 18
40 45 10
35 42 12
37 43 12
43 49 12
45 52 13
44 51 13
42 51 16
33 43 6
35 44 11
37 42 8
50 55 25
59 61 33
56 60 32
36 45 36
11 18 60
0 0 65
0 0 60
0 0 57
0 0 56
0 0 57
0 0 59
0 0 60
0 3 64
0 14 73
0 20 78
0 14 75
0 10 69
0 0 53
0 0 51
0 0 52
91 98 119
184 198 220
216 232 255
216 232 255
216 232 255
216 232 255
216 232 255
216 232 255
216 232 255
216 232 255
216 232 255
216 232 255
216 232 255
216 232 255
216 232 255
216 232 255
216 232 255
216 232 255
216 232 255
216 232 255
216 232 255
216 232 255
216 232 255
216 232 255
216 232 255
216 232 255
216 232 255
216 232 255
216 232 255
216 232 255
216 232 255
216 232 255
216 232 255
216 232 255
216 232 255
216 232 255
216 232 255
216 232 255
216 232 255
216 232 255
216 232 255
216 232 255
216 232 255
216 232 255
216 232 255
216 232 255
216 232 255
216 232 255
216 232 255
216 232 255
216 232 255
216 232 255
216 232 255
216 232 255
216 232 255
216 232 255
216 232 255
216 232 255
216 232 255
216 232 255
216 232 255
216 232 255
216 232 255
216 232 255
216 232 255
216 232 255
216 232 255
216 232 255
216 232 255
216 232 255
216 232 255
216 232 255
216 232 255
216 232 255
216 232 255
216 232 255
216 232 255
216 232 255
216 232 255
216 232 255
216 232 255
216 232 255
216 232 255
216 232 255
216 232 255
216 232 255
216 232 255
216 232 255
216 232 255
216 232 255
216 232 255
216 232 255
216 232 255
216 232 255
216 232 255
216 232 255
216 232 255
216 232 255
216 232 255
216 232 255
216 232 255
216 232 255
216 232 255
216 232 255
216 232 255
216 232 255
216 232 255
216 232 255
216 232 255
216 232 255
216 232 255
216 232 255
216 232 255
216 232 255
216 232 255
216 232 255
216 232 255
216 232 255
216 232 255
216 232 255
216 232 255
216 232 255
216 232 255
216 232 255
216 232 255
216 232 255
216 232 255
216 232 255
216 232 255
216 232 255
216 232 255
216 232 255
216 232 255
216 232 255
216 232 255
216 232 255
216 232 255
216 232 255
216 232 255
216 232 255
216 232 255
216 232 255
216 232 255
216 232 255
216 232 255
216 233 255
216 233 255
216 233 255
216 233 255
216 233 255
216 233 255
216 233 255
216 233 255
216 233 255
216 233 255
216 233 255
216 233 255
216 233 255
216 233 255
216 233 255
216 233 255
216 233 255
216 233 255
216 233 255
216 233 255
216 233 255
216 233 255
216 233 255
216 233 255
216 233 255
216 233 255
216 233 255
216 233 255
216 233 255
216 233 255
216 233 255
216 233 255
216 233 255
216 233 255
216 233 255
216 233 255
216 233 255
216 233 255
216 233 255
216 233 255
216 233 255
216 233 255
216 233 255
216 232 255
216 232 255
216 232 255
216 232 255
216 232 255
216 232 255
216 232 255
216 232 255
216 232 255
216 232 255
216 232 255
216 232 255
216 232 255
216 232 255
216 232 255
216 232 255
216 232 255
216 232 255
216 232 255
216 232 255
216 232 255
216 232 255
216 232 255
216 232 255
216 232 255
216 232 255
216 232 255
216 232 255
216 232 255
216 232 255
216 232 255
216 232 255
216 232 255
216 232 255
216 232 255
216 232 255
216 232 255
216 232 255
216 232 255
216 232 255
216 232 255
216 232 255
216 232 255
216 232 255
216 232 255
216 232 255
216 232 255
216 232 255
216 232 255
216 232 255
216 232 255
216 232 255
216 232 255
216 232 255
216 232 255
216 232 255
216 232 255
216 232 255
216 232 255
216 232 255
216 232 255
216 232 255
216 232 255
216 232 255
216 232 255
216 232 255
216 232 255
216 232 255
216 232 255
216 232 255
216 232 255
216 232 255
216 232 255
216 232 255
216 232 255
216 232 255
216 232 255
216 232 255
216 232 255
216 232 255
216 232 255
216 232 255
216 232 255
216 232 255
216 232 255
216 232 255
216 232 255
216 232 255
216 232 255
216 232 255
216 232 255
216 232 255
216 232 255
216 232 255
216 232 255
216 232 255
216 232 255
216 232 255
216 232 255
216 232 255
216 232 255
216 232 255
216 232 255
216 232 255
216 232 255
216 232 255
216 232 255
216 232 255
216 232 255
216 232 255
216 232 255
216 232 255
216 232 255
216 232 255
216 232 255
216 232 255
185 200 220
113 126 137
44 56 76
1 5 57
0 0 55
0 0 60
40 53 64
21 34 41
127 149 155
98 117 108
56 73 40
48 65 28
43 56 20
32 45 12
28 43 10
22 39 4
26 47 3
37 60 10
38 59 8
39 62 12
40 62 17
21 42 0
25 44 3
23 43 0
25 46 0
24 43 0
23 42 0
25 44 3
24 42 3
20 36 0
20 36 4
22 40 2
15 29 10
20 36 4
16 30 0
17 34 0
20 35 0
24 39 1
28 44 5
25 42 0
24 44 0
25 40 0
23 40 0
18 34 0
16 31 6
20 35 0
21 37 0
21 39 0
26 41 0
26 40 0
28 39 9
29 38 0
32 39 0
32 37 0
34 41 0
33 41 10
33 42 22
36 43 24
33 44 37
11 33 90
0 18 85
0 27 85
14 25 63
26 33 40
34 43 22
40 48 12
37 43 5
37 44 7
36 44 7
33 39 8
33 40 7
34 41 0
37 44 6
40 47 7
40 48 13
34 41 6
34 43 4
42 50 11
43 49 15
50 54 21
38 46 28
21 30 51
7 17 64
0 0 61
0 0 57
0 0 55
0 0 58
0 0 59
0 0 59
0 0 63
0 0 61
0 1 61
0 10 67
0 2 60
0 0 51
0 0 51
0 0 51
0 0 52
94 101 122
176 190 212
213 230 253
216 232 255
216 232 255
216 232 255
216 232 255
216 232 255
216 232 255
216 232 255
216 232 255
216 232 255
216 232 255
216 232 255
216 232 255
216 232 255
216 232 255
216 232 255
216 232 255
216 232 255
216 232 255
216 232 255
216 232 255
216 232 255
216 232 255
216 232 255
216 232 255
216 232 255
216 232 255
216 232 255
216 232 255
216 232 255
216 232 255
216 232 255
216 232 255
216 232 255
216 232 255
216 232 255
216 232 255
216 232 255
216 232 255
216 232 255
216 232 255
216 232 255
216 232 255
216 232 255
216 232 255
216 232 255
216 232 255
216 232 255
216 232 255
216 232 255
216 232 255
216 232 255
216 232 255
216 232 255
216 232 255
216 232 255
216 232 255
216 232 255
216 232 255
216 232 255
216 232 255
216 232 255
216 232 255
216 232 255
216 232 255
216 232 255
216 232 255
216 232 255
216 232 255
216 232 255
216 232 255
216 232 255
216 232 255
216 232 255
216 232 255
216 232 255
216 232 255
216 232 255
216 232 255
216 232 255
216 232 255
216 232 255
216 232 255
216 232 255
216 232 255
216 232 255
216 232 255
216 232 255
216 232 255
216 232 255
216 232 255
216 232 255
216 232 255
216 232 255
216 232 255
216 232 255
216 232 255
216 232 255
216 232 255
216 232 255
216 232 255
216 232 255
216 232 255
216 232 255
216 232 255
216 232 255
216 232 255
216 232 255
216 232 255
216 232 255
216 232 255
216 232 255
216 232 255
216 232 255
216 232 255
216 232 255
216 233 255
216 233 255
216 233 255
216 233 255
216 233 255
216 233 255
216 233 255
216 233 255
216 233 255
216 233 255
216 233 255
216 233 255
216 233 255
216 233 255
216 233 255
216 233 255
216 233 255
216 233 255
216 233 255
216 233 255
216 233 255
216 233 255
216 233 255
216 233 255
216 233 255
216 233 255
216 233 255
216 233 255
216 233 255
216 233 255
216 233 255
216 233 255
216 233 255
216 233 255
216 233 255
216 233 255
216 233 255
216 233 255
216 233 255
216 233 255
216 233 255
216 233 255
216 233 255
216 233 255
216 233 255
216 233 255
216 233 255
216 233 255
216 233 255
216 233 255
216 233 255
216 233 255
216 233 255
216 233 255
216 233 255
216 233 255
216 233 255
216 233 255
216 233 255
216 233 255
216 233 255
216 233 255
216 233 255
216 233 255
216 233 255
216 233 255
216 233 255
216 233 255
216 233 255
216 233 255
216 233 255
216 233 255
216 233 255
216 233 255
216 233 255
216 233 255
216 233 255
216 233 255
216 233 255
216 233 255
216 233 255
216 233 255
216 233 255
216 233 255
216 233 255
216 233 255
216 233 255
216 233 255
216 233 255
216 233 255
216 233 255
216 233 255
216 233 255
216 233 255
216 233 255
216 233 255
216 233 255
216 232 255
216 232 255
216 232 255
216 232 255
216 232 255
216 232 255
216 232 255
216 232 255
216 232 255
216 232 255
216 232 255
216 232 255
216 232 255
216 232 255
216 232 255
216 232 255
216 232 255
216 232 255
216 232 255
216 232 255
216 232 255
216 232 255
216 232 255
216 232 255
216 232 255
216 232 255
216 232 255
216 232 255
216 232 255
216 232 255
216 232 255
216 232 255
216 232 255
216 232 255
216 232 255
216 232 255
216 232 255
216 232 255
216 232 255
216 232 255
216 232 255
216 232 255
216 232 255
216 232 255
216 232 255
216 232 255
216 232 255
216 232 255
216 232 255
216 232 255
216 232 255
216 232 255
216 232 255
216 232 255
216 232 255
216 232 255
216 232 255
216 232 255
216 232 255
216 232 255
216 232 255
216 232 255
216 232 255
216 232 255
216 232 255
216 232 255
216 232 255
216 232 255
216 232 255
216 232 255
216 232 255
216 232 255
216 232 255
216 232 255
216 232 255
216 232 255
216 232 255
216 232 255
216 232 255
216 232 255
216 232 255
216 232 255
216 232 255
216 232 255
216 232 255
184 199 219
102 112 132
19 26 63
0 1 56
0 0 54
0 0 55
0 0 59
10 16 54
17 34 35
38 59 47
108 134 129
77 99 86
37 56 24
33 49 23
24 38 8
17 34 0
20 38 2
21 38 5
23 41 2
31 52 6
30 52 4
30 51 4
27 46 1
28 46 5
38 59 14
37 58 15
38 59 13
36 56 17
34 52 12
34 53 13
31 50 8
26 46 0
20 38 1
25 42 5
30 47 2
30 47 8
32 49 0
30 48 2
31 50 6
29 51 9
26 50 9
21 46 9
23 46 9
28 42 5
28 40 5
22 36 0
15 31 0
22 40 2
23 40 4
23 40 0
24 39 0
22 37 0
20 36 5
26 39 0
27 40 0
30 39 0
30 38 0
31 38 0
32 43 7
32 40 6
27 39 4
15 50 71
3 38 98
0 44 104
7 44 101
32 48 39
36 45 17
27 35 13
26 36 5
26 35 9
33 43 8
33 42 6
28 36 4
26 36 0
29 38 6
30 36 10
29 36 4
31 38 0
37 44 12
28 36 4
30 39 4
36 40 9
46 53 18
42 51 20
32 39 26
22 37 47
15 24 63
11 16 61
1 1 55
0 0 54
0 0 58
0 0 59
0 0 60
0 0 58
0 0 55
0 0 57
0 0 51
0 0 52
0 0 52
0 0 53
0 0 52
0 0 55
99 106 127
180 194 216
216 232 255
216 232 255
216 232 255
216 232 255
216 232 255
216 232 255
216 232 255
216 232 255
216 232 255
216 232 255
216 232 255
216 232 255
216 232 255
216 232 255
216 232 255
216 232 255
216 232 255
216 232 255
216 232 255
216 232 255
216 232 255
216 232 255
216 232 255
216 232 255
216 232 255
216 232 255
216 232 255
216 232 255
216 232 255
216 232 255
216 232 255
216 232 255
216 232 255
216 232 255
216 232 255
216 232 255
216 232 255
216 232 255
216 232 255
216 232 255
216 232 255
216 232 255
216 232 255
216 232 255
216 232 255
216 232 255
216 232 255
216 232 255
216 232 255
216 232 255
216 232 255
216 232 255
216 232 255
216 232 255
216 232 255
216 232 255
216 232 255
216 232 255
216 232 255
216 232 255
216 232 255
216 232 255
216 232 255
216 232 255
216 232 255
216 232 255
216 232 255
216 232 255
216 232 255
216 232 255
216 232 255
216 232 255
216 232 255
216 232 255
216 232 255
216 232 255
216 232 255
216 232 255
216 232 255
216 232 255
216 232 255
216 232 255
216 232 255
216 232 255
216 233 255
216 233 255
216 233 255
216 233 255
216 233 255
216 233 255
216 233 255
216 233 255
216 233 255
216 233 255
216 233 255
216 233 255
216 233 255
216 233 255
216 233 255
216 233 255
216 233 255
216 233 255
216 233 255
216 233 255
216 233 255
216 233 255
216 233 255
216 233 255
216 233 255
216 233 255
216 233 255
216 233 255
216 233 255
216 233 255
216 233 255
216 233 255
216 233 255
216 233 255
216 233 255
216 233 255
216 233 255
216 233 255
216 233 255
216 233 255
216 233 255
216 233 255
216 233 255
216 233 255
216 233 255
216 233 255
216 233 255
216 233 255
216 233 255
216 233 255
216 233 255
216 233 255
216 233 255
216 233 255
216 233 255
216 233 255
216 233 255
216 233 255
216 233 255
216 233 255
216 233 255
216 233 255
216 233 255
216 233 255
216 233 255
216 233 255
216 233 255
216 233 255
216 233 255
216 233 255
216 233 255
216 233 255
216 233 255
216 233 255
216 233 255
216 233 255
216 233 255
216 233 255
216 233 255
216 233 255
216 233 255
216 233 255
216 233 255
216 233 255
216 233 255
216 233 255
216 233 255
216 233 255
216 233 255
216 233 255
216 233 255
216 233 255
216 233 255
216 233 255
216 233 255
216 233 255
216 233 255
216 233 255
216 233 255
216 233 255
216 233 255
216 233 255
216 233 255
216 233 255
216 233 255
216 233 255
216 233 255
216 233 255
216 233 255
216 233 255
216 233 255
216 233 255
216 233 255
216 233 255
216 233 255
216 233 255
216 233 255
216 233 255
216 233 255
216 233 255
216 233 255
216 233 255
216 233 255
216 233 255
216 233 255
216 233 255
216 233 255
216 233 255
216 233 255
216 233 255
216 233 255
216 233 255
216 233 255
216 233 255
216 233 255
216 233 255
216 233 255
216 233 255
216 233 255
216 233 255
216 233 255
216 233 255
216 233 255
216 233 255
216 233 255
216 233 255
216 233 255
216 233 255
216 233 255
216 233 255
216 233 255
216 233 255
216 233 255
216 233 255
216 233 255
216 233 255
216 233 255
216 233 255
216 233 255
216 233 255
216 233 255
216 233 255
216 233 255
216 233 255
216 233 255
216 233 255
216 233 255
216 232 255
216 232 255
216 232 255
216 232 255
216 232 255
216 232 255
216 232 255
216 232 255
216 232 255
216 232 255
216 232 255
216 232 255
216 232 255
216 232 255
216 232 255
216 232 255
216 232 255
216 232 255
216 232 255
216 232 255
216 232 255
216 232 255
216 232 255
216 232 255
216 232 255
216 232 255
216 232 255
216 232 255
216 232 255
216 232 255
216 232 255
216 232 255
216 232 255
216 232 255
216 232 255
216 232 255
216 232 255
216 232 255
216 232 255
216 232 255
216 232 255
216 232 255
216 232 255
196 212 233
128 141 155
15 21 55
0 0 53
0 0 52
0 0 52
0 0 54
0 0 56
0 0 58
7 21 37
7 23 34
48 70 51
54 76 49
30 49 13
17 35 0
16 31 0
17 34 0
17 37 0
20 38 5
38 55 23
30 44 14
24 39 0
21 38 0
23 43 0
36 56 13
42 64 19
47 70 23
47 72 24
50 72 28
57 77 33
59 76 34
55 73 33
51 68 29
58 73 33
58 73 31
56 73 33
54 73 30
45 64 21
30 50 0
30 49 2
29 47 7
18 45 12
26 44 6
13 45 0
25 43 9
28 43 2
29 44 0
27 40 0
27 40 0
24 38 0
23 40 0
21 38 0
18 33 0
21 37 0
19 35 0
21 36 0
18 33 0
22 36 0
26 37 0
26 36 0
29 40 0
30 41 0
29 40 0
26 49 32
20 76 86
12 68 111
3 65 116
10 58 102
33 53 27
39 47 10
28 40 5
30 42 0
30 41 3
33 43 0
29 40 5
29 41 0
28 38 0
27 36 0
32 42 0
28 36 0
29 37 0
32 41 5
26 36 6
22 31 11
22 31 7
27 39 0
27 39 5
29 42 6
26 49 38
23 43 31
10 28 52
1 11 65
0 1 56
0 0 52
0 0 54
0 0 57
0 0 57
0 0 58
0 0 58
0 0 57
0 0 54
0 0 52
0 0 53
0 0 53
0 0 54
0 0 54
124 133 153
200 216 238
216 232 255
216 232 255
216 232 255
216 232 255
216 232 255
216 232 255
216 232 255
216 232 255
216 232 255
216 232 255
216 232 255
216 232 255
216 232 255
216 232 255
216 232 255
216 232 255
216 232 255
216 232 255
216 232 255
216 232 255
216 232 255
216 232 255
216 232 255
216 232 255
216 232 255
216 232 255
216 232 255
216 232 255
216 232 255
216 232 255
216 232 255
216 232 255
216 232 255
216 232 255
216 232 255
216 232 255
216 232 255
216 232 255
216 232 255
216 232 255
216 232 255
216 232 255
216 232 255
216 232 255
216 232 255
216 232 255
216 233 255
216 233 255
216 233 255
216 233 255
216 233 255
216 233 255
216 233 255
216 233 255
216 233 255
216 233 255
216 233 255
216 233 255
216 233 255
216 233 255
216 233 255
216 233 255
216 233 255
216 233 255
216 233 255
216 233 255
216 233 255
216 233 255
216 233 255
216 233 255
216 233 255
216 233 255
216 233 255
216 233 255
216 233 255
216 233 255
216 233 255
216 233 255
216 233 255
216 233 255
216 233 255
216 233 255
216 233 255
216 233 255
216 233 255
216 233 255
216 233 255
216 233 255
216 233 255
216 233 255
216 233 255
216 233 255
216 233 255
216 233 255
216 233 255
216 233 255
216 233 255
216 233 255
216 233 255
216 233 255
216 233 255
216 233 255
216 233 255
216 233 255
216 233 255
216 233 255
216 233 255
216 233 255
216 233 255
216 233 255
216 233 255
216 233 255
216 233 255
216 233 255
216 233 255
216 233 255
216 233 255
216 233 255
216 233 255
216 233 255
216 233 255
216 233 255
216 233 255
216 233 255
216 233 255
216 233 255
216 233 255
216 233 255
216 233 255
216 233 255
216 233 255
216 233 255
216 233 255
216 233 255
216 233 255
216 233 255
216 233 255
216 233 255
216 233 255
216 233 255
216 233 255
216 233 255
216 233 255
216 233 255
216 233 255
216 233 255
216 233 255
216 233 255
216 233 255
216 233 255
216 233 255
216 233 255
216 233 255
216 233 255
216 233 255
216 233 255
216 233 255
216 233 255
216 233 255
216 233 255
216 233 255
216 233 255
216 233 255
216 233 255
216 233 255
216 233 255
216 233 255
216 233 255
216 233 255
216 233 255
216 233 255
216 233 255
216 233 255
216 233 255
216 233 255
216 233 255
216 233 255
216 233 255
216 233 255
216 233 255
216 233 255
216 233 255
216 233 255
216 233 255
216 233 255
216 233 255
216 233 255
216 233 255
216 233 255
216 233 255
216 233 255
216 233 255
216 233 255
216 233 255
216 233 255
216 233 255
216 233 255
216 233 255
216 233 255
216 233 255
216 233 255
216 233 255
216 233 255
216 233 255
216 233 255
216 233 255
216 233 255
216 233 255
216 233 255
216 233 255
216 233 255
216 233 255
216 233 255
216 233 255
216 233 255
216 233 255
216 233 255
216 233 255
216 233 255
216 233 255
216 233 255
216 233 255
216 233 255
216 233 255
216 233 255
216 233 255
216 233 255
216 233 255
216 233 255
216 233 255
216 233 255
216 233 255
216 233 255
216 233 255
216 233 255
216 233 255
216 233 255
216 233 255
216 233 255
216 233 255
216 233 255
216 233 255
216 233 255
216 233 255
216 233 255
216 233 255
216 233 255
216 233 255
216 233 255
216 233 255
216 233 255
216 233 255
216 233 255
216 233 255
216 233 255
216 233 255
216 233 255
216 233 255
216 233 255
216 233 255
216 233 255
216 233 255
216 233 255
216 233 255
216 233 255
216 233 255
216 233 255
216 233 255
216 233 255
216 233 255
216 233 255
216 233 255
216 233 255
216 233 255
216 233 255
216 233 255
216 233 255
216 233 255
216 233 255
216 233 255
216 233 255
216 233 255
216 233 255
216 233 255
216 233 255
216 233 255
216 233 255
216 233 255
216 233 255
216 233 255
209 226 248
150 163 183
35 44 64
0 1 52
0 0 50
0 0 49
0 0 51
0 0 53
0 0 56
0 3 53
6 19 51
0 12 66
25 42 41
61 84 64
49 65 46
19 31 0
20 33 0
20 36 0
20 38 0
18 36 3
51 68 40
47 61 31
66 77 50
58 67 42
28 39 9
25 45 0
40 64 13
43 69 17
54 73 29
67 81 42
67 79 42
80 87 53
82 90 53
77 85 48
76 83 49
81 88 51
76 86 46
65 81 40
59 77 35
49 67 25
44 65 22
36 57 9
32 55 11
30 56 9
25 48 1
27 50 1
33 50 3
27 40 0
29 45 0
21 35 0
17 33 0
18 34 0
17 33 0
15 30 0
16 32 0
16 32 0
18 35 0
16 33 0
17 33 0
19 37 0
23 39 0
24 38 0
28 40 0
31 43 0
29 39 0
31 42 0
33 49 24
29 51 66
5 91 133
13 72 98
24 55 53
35 43 10
29 43 1
33 44 6
27 39 0
26 39 0
28 41 0
29 41 3
31 42 0
32 43 0
35 46 0
31 43 0
30 41 0
29 40 0
24 34 0
23 33 0
24 34 0
26 39 0
27 40 0
21 36 0
15 35 9
22 38 16
21 36 0
22 38 13
17 32 49
3 8 61
0 0 53
0 0 54
0 0 57
0 0 54
0 0 56
0 0 57
0 0 55
0 0 53
0 0 55
0 0 55
0 0 55
0 0 55
0 0 55
37 40 71
122 131 153
207 223 246
216 233 255
216 233 255
216 233 255
216 233 255
216 233 255
216 233 255
216 233 255
216 233 255
216 233 255
216 233 255
216 233 255
216 233 255
216 233 255
216 233 255
216 233 255
216 233 255
216 233 255
216 233 255
216 233 255
216 233 255
216 233 255
216 233 255
216 233 255
216 233 255
216 233 255
216 233 255
216 233 255
216 233 255
216 233 255
216 233 255
216 233 255
216 233 255
216 233 255
216 233 255
216 233 255
216 233 255
216 233 255
216 233 255
216 233 255
216 233 255
216 233 255
216 233 255
216 233 255
216 233 255
216 233 255
216 233 255
216 233 255
216 233 255
216 233 255
216 233 255
216 233 255
216 233 255
216 233 255
216 233 255
216 233 255
216 233 255
216 233 255
216 233 255
216 233 255
216 233 255
216 233 255
216 233 255
216 233 255
216 233 255
216 233 255
216 233 255
216 233 255
216 233 255
216 233 255
216 233 255
216 233 255
216 233 255
216 233 255
216 233 255
216 233 255
216 233 255
216 233 255
216 233 255
216 233 255
216 233 255
216 233 255
216 233 255
216 233 255
216 233 255
216 233 255
216 233 255
216 233 255
216 233 255
216 233 255
216 233 255
216 233 255
216 233 255
216 233 255
216 233 255
216 233 255
216 233 255
216 233 255
216 233 255
216 233 255
216 233 255
216 233 255
216 233 255
216 233 255
216 233 255
216 233 255
216 233 255
216 233 255
216 233 255
216 233 255
216 233 255
216 233 255
216 233 255
216 233 255
216 233 255
216 233 255
216 233 255
216 233 255
216 233 255
216 233 255
216 233 255
216 233 255
216 233 255
216 233 255
216 233 255
216 233 255
216 233 255
216 233 255
216 233 255
216 233 255
216 233 255
216 233 255
216 233 255
216 233 255
216 233 255
216 233 255
216 233 255
216 233 255
216 233 255
216 233 255
216 233 255
216 233 255
216 233 255
216 233 255
216 233 255
216 233 255
216 233 255
216 233 255
216 233 255
216 233 255
216 233 255
216 233 255
216 233 255
216 233 255
216 233 255
216 233 255
216 233 255
216 233 255
216 233 255
216 233 255
216 233 255
216 233 255
216 233 255
216 233 255
216 233 255
216 233 255
216 233 255
216 233 255
216 233 255
216 233 255
216 233 255
216 233 255
216 233 255
216 233 255
216 233 255
216 233 255
216 233 255
216 233 255
216 233 255
216 233 255
216 233 255
216 233 255
216 233 255
216 233 255
216 233 255
216 233 255
216 233 255
216 233 255
216 233 255
216 233 255
216 233 255
216 233 255
216 233 255
216 233 255
216 233 255
216 233 255
216 233 255
216 233 255
216 233 255
216 233 255
216 233 255
216 233 255
216 233 255
216 233 255
216 233 255
216 233 255
216 233 255
216 233 255
216 233 255
216 233 255
216 233 255
216 233 255
216 233 255
216 233 255
216 233 255
216 233 255
216 233 255
216 233 255
216 233 255
216 233 255
216 233 255
216 233 255
216 233 255
216 233 255
216 233 255
216 233 255
216 233 255
216 233 255
216 233 255
216 233 255
216 233 255
216 233 255
216 233 255
216 233 255
216 233 255
216 233 255
216 233 255
216 233 255
216 233 255
216 233 255
216 233 255
216 233 255
216 233 255
216 233 255
216 233 255
216 233 255
216 233 255
216 233 255
216 233 255
216 233 255
216 233 255
216 233 255
216 233 255
216 233 255
216 233 255
216 233 255
216 233 255
216 233 255
216 233 255
216 233 255
216 233 255
216 233 255
216 233 255
216 233 255
216 233 255
216 233 255
216 233 255
216 233 255
216 233 255
216 233 255
216 233 255
216 233 255
216 233 255
216 233 255
216 233 255
216 233 255
216 233 255
216 233 255
216 233 255
216 233 255
216 233 255
216 233 255
216 233 255
216 233 255
216 233 255
216 233 255
216 233 255
215 231 254
185 199 221
58 63 89
0 0 53
0 0 51
0 0 49
0 0 49
0 0 52
0 0 54
0 0 54
0 0 56
7 24 45
5 19 58
1 8 51
21 38 24
73 97 77
45 58 35
32 42 5
36 46 6
28 42 0
21 38 0
18 35 0
32 49 18
49 66 33
71 85 61
80 87 62
51 58 30
38 56 14
55 75 29
76 86 47
85 88 56
92 92 64
101 98 70
105 102 71
102 101 66
93 97 63
81 89 59
80 88 53
73 83 48
66 80 42
59 76 34
54 74 31
49 72 27
42 70 21
40 61 12
37 62 12
34 61 13
35 58 11
40 63 9
33 49 6
32 47 0
25 39 0
24 38 0
22 36 0
20 35 0
18 33 0
16 31 0
13 26 0
15 31 0
18 35 3
20 36 0
20 37 0
23 41 0
23 40 0
24 41 0
25 41 0
29 42 0
31 46 0
30 45 2
25 42 6
31 47 15
33 44 10
33 45 9
27 43 7
26 38 0
22 37 8
26 39 0
25 38 0
22 34 7
17 27 9
23 36 0
27 42 0
23 37 0
30 41 0
20 31 0
20 32 0
22 35 0
22 37 0
26 40 0
29 43 0
23 36 0
24 38 0
18 35 0
21 35 0
23 39 0
21 37 0
27 45 3
19 35 35
1 6 58
0 0 55
0 0 57
0 0 53
0 0 53
0 0 59
0 0 61
0 0 56
0 0 54
0 0 56
0 0 56
0 0 57
0 0 59
0 0 55
0 0 58
30 32 70
173 186 208
216 233 255
216 233 255
216 233 255
216 233 255
216 233 255
216 233 255
216 233 255
216 233 255
216 233 255
216 233 255
216 233 255
216 233 255
216 233 255
216 233 255
216 233 255
216 233 255
216 233 255
216 233 255
216 233 255
216 233 255
216 233 255
216 233 255
216 233 255
216 233 255
216 233 255
216 233 255
216 233 255
216 233 255
216 233 255
216 233 255
216 233 255
216 233 255
216 233 255
216 233 255
216 233 255
216 233 255
216 233 255
216 233 255
216 233 255
216 233 255
216 233 255
216 233 255
216 233 255
216 233 255
216 233 255
216 233 255
216 233 255
216 233 255
216 233 255
216 233 255
216 233 255
216 233 255
216 233 255
216 233 255
216 233 255
216 233 255
216 233 255
216 233 255
216 233 255
216 233 255
216 233 255
216 233 255
216 233 255
216 233 255
216 233 255
216 233 255
216 233 255
216 233 255
216 233 255
216 233 255
216 233 255
216 233 255
216 233 255
216 233 255
216 233 255
216 233 255
216 233 255
216 233 255
216 233 255
216 233 255
216 233 255
216 233 255
216 233 255
216 233 255
216 233 255
216 233 255
216 233 255
216 233 255
216 233 255
216 233 255
216 233 255
216 233 255
216 233 255
216 233 255
216 233 255
216 233 255
216 233 255
216 233 255
216 233 255
216 233 255
216 233 255
216 233 255
216 233 255
216 233 255
216 233 255
216 233 255
216 233 255
216 233 255
216 233 255
216 233 255
216 233 255
216 233 255
216 233 255
216 233 255
216 233 255
216 233 255
216 233 255
216 233 255
216 233 255
216 233 255
216 233 255
216 233 255
216 233 255
216 233 255
216 233 255
216 233 255
216 233 255
216 233 255
216 233 255
216 233 255
216 233 255
216 233 255
216 233 255
216 233 255
216 233 255
216 233 255
216 233 255
216 233 255
216 233 255
216 233 255
216 233 255
216 233 255
216 233 255
216 233 255
216 233 255
216 233 255
216 233 255
216 233 255
216 233 255
216 233 255
216 233 255
216 233 255
216 233 255
216 233 255
216 233 255
216 233 255
216 233 255
216 233 255
216 233 255
216 233 255
216 233 255
216 233 255
216 233 255
216 233 255
216 233 255
216 233 255
216 233 255
216 233 255
216 233 255
216 233 255
216 233 255
216 233 255
216 233 255
216 233 255
216 233 255
216 233 255
216 233 255
216 233 255
216 233 255
216 233 255
216 233 255
216 233 255
216 233 255
216 233 255
216 233 255
216 233 255
216 233 255
216 233 255
216 233 255
216 233 255
216 233 255
216 233 255
216 233 255
216 233 255
216 233 255
216 233 255
216 233 255
216 233 255
216 233 255
216 233 255
216 233 255
216 233 255
216 233 255
216 233 255
216 233 255
216 233 255
216 233 255
216 233 255
216 233 255
216 233 255
216 233 255
216 233 255
216 233 255
216 233 255
216 233 255
216 233 255
216 233 255
216 233 255
216 233 255
216 233 255
216 233 255
216 233 255
216 233 255
216 233 255
216 233 255
216 233 255
216 233 255
216 233 255
216 233 255
216 233 255
216 233 255
216 233 255
216 233 255
216 233 255
216 233 255
216 233 255
216 233 255
216 233 255
216 233 255
216 233 255
216 233 255
216 233 255
216 233 255
216 233 255
216 233 255
216 233 255
216 233 255
216 233 255
216 233 255
216 233 255
216 233 255
216 233 255
216 233 255
216 233 255
216 233 255
216 233 255
216 233 255
216 233 255
216 233 255
216 233 255
216 233 255
216 233 255
216 233 255
216 233 255
216 233 255
216 233 255
216 233 255
216 233 255
216 233 255
216 233 255
216 233 255
216 233 255
216 233 255
216 233 255
216 233 255
216 233 255
216 233 255
216 233 255
216 233 255
216 233 255
216 233 255
216 233 255
216 233 255
216 233 255
200 216 238
117 126 146
0 3 55
0 0 52
0 0 50
0 0 50
0 0 52
0 0 53
0 0 53
0 0 52
0 0 53
0 0 59
0 9 49
0 0 55
4 12 48
35 53 35
106 129 119
87 104 89
49 60 37
35 44 11
34 46 8
27 42 9
19 38 2
25 44 11
39 57 23
49 64 34
39 50 16
46 57 25
58 72 34
82 87 51
92 93 60
97 96 67
101 98 71
105 102 74
97 96 66
97 99 68
86 92 59
85 90 55
75 86 47
63 80 35
55 74 26
55 75 30
47 69 20
46 70 19
46 71 20
48 75 22
44 69 17
43 68 18
40 67 16
47 72 15
39 59 4
32 49 0
24 38 5
24 38 4
22 39 4
24 38 4
21 37 0
22 39 0
20 34 0
23 40 2
16 28 23
15 27 21
23 40 0
25 43 0
23 41 0
22 41 0
24 43 0
21 42 0
25 44 0
24 42 0
24 43 0
23 40 0
27 42 0
29 46 0
27 44 0
26 45 0
26 43 0
26 43 0
23 40 0
23 39 0
27 40 0
26 43 0
24 41 0
22 38 0
20 34 0
24 39 5
18 30 0
18 32 0
16 35 6
17 34 25
19 35 13
19 35 0
21 37 0
17 32 0
19 36 0
20 34 0
22 36 9
13 26 39
17 29 45
16 30 38
0 7 59
0 3 64
0 0 63
0 0 56
0 0 53
0 0 60
0 0 62
0 0 58
0 0 59
0 0 59
0 0 56
0 0 60
0 3 66
0 0 57
0 0 58
0 1 62
114 123 146
201 217 239
216 233 255
216 233 255
216 233 255
216 233 255
216 233 255
216 233 255
216 233 255
216 233 255
216 233 255
216 233 255
216 233 255
216 233 255
216 233 255
216 233 255
216 233 255
216 233 255
216 233 255
216 233 255
216 233 255
216 233 255
216 233 255
216 233 255
216 233 255
216 233 255
216 233 255
216 233 255
216 233 255
216 233 255
216 233 255
216 233 255
216 233 255
216 233 255
216 233 255
216 233 255
216 233 255
216 233 255
216 233 255
216 233 255
216 233 255
216 233 255
216 233 255
216 233 255
216 233 255
216 233 255
216 233 255
216 233 255
216 233 255
216 233 255
216 233 255
216 233 255
216 233 255
216 233 255
216 233 255
216 233 255
216 233 255
216 233 255
216 233 255
216 233 255
216 233 255
216 233 255
216 233 255
216 233 255
216 233 255
216 233 255
216 233 255
216 233 255
216 233 255
216 233 255
216 233 255
216 233 255
216 233 255
216 233 255
216 233 255
216 233 255
216 233 255
216 233 255
216 233 255
216 233 255
216 233 255
216 233 255
216 233 255
216 233 255
216 233 255
216 233 255
216 233 255
216 233 255
216 233 255
216 233 255
216 233 255
216 233 255
216 233 255
216 233 255
216 233 255
216 233 255
216 233 255
216 233 255
216 233 255
216 233 255
216 233 255
216 233 255
216 233 255
216 233 255
216 233 255
216 233 255
216 233 255
216 233 255
216 233 255
216 233 255
216 233 255
216 233 255
216 233 255
216 233 255
216 233 255
216 233 255
216 233 255
216 233 255
216 233 255
216 233 255
216 233 255
216 233 255
216 233 255
216 233 255
216 233 255
216 233 255
216 233 255
216 233 255
216 233 255
216 233 255
216 233 255
216 233 255
216 233 255
216 233 255
216 233 255
216 233 255
216 233 255
216 233 255
216 233 255
216 233 255
216 233 255
216 233 255
216 233 255
216 233 255
216 233 255
216 233 255
216 233 255
216 233 255
216 233 255
216 233 255
216 233 255
216 233 255
216 233 255
216 233 255
216 233 255
216 233 255
216 233 255
216 233 255
216 233 255
216 233 255
216 233 255
216 233 255
216 233 255
216 233 255
216 233 255
216 233 255
216 233 255
216 233 255
216 233 255
216 233 255
216 233 255
216 233 255
216 233 255
216 233 255
216 233 255
216 233 255
216 233 255
216 233 255
216 233 255
216 233 255
216 233 255
216 233 255
216 233 255
216 233 255
216 233 255
216 233 255
216 233 255
216 233 255
216 233 255
216 233 255
216 233 255
216 233 255
216 233 255
216 233 255
216 233 255
216 233 255
216 233 255
216 233 255
216 233 255
216 233 255
216 233 255
216 233 255
216 233 255
216 233 255
216 233 255
216 233 255
216 233 255
216 233 255
216 233 255
216 233 255
216 233 255
216 233 255
216 233 255
216 233 255
216 233 255
216 233 255
216 233 255
216 233 255
216 233 255
216 233 255
216 233 255
216 233 255
216 233 255
216 233 255
216 233 255
216 233 255
216 233 255
216 233 255
216 233 255
216 233 255
216 233 255
216 233 255
216 233 255
216 233 255
216 233 255
216 233 255
216 233 255
216 233 255
216 233 255
216 233 255
216 233 255
216 233 255
216 233 255
216 233 255
216 233 255
216 233 255
216 233 255
216 233 255
216 233 255
216 233 255
216 233 255
216 233 255
216 233 255
216 233 255
216 233 255
216 233 255
216 233 255
216 233 255
216 233 255
216 233 255
216 233 255
216 233 255
216 233 255
216 233 255
216 233 255
216 233 255
216 233 255
216 233 255
216 233 255
216 233 255
216 233 255
216 233 255
216 233 255
216 233 255
216 233 255
216 233 255
216 233 255
216 233 255
216 233 255
216 233 255
216 233 255
216 233 255
215 232 254
157 169 190
43 46 73
0 0 51
0 0 50
0 0 50
0 0 50
0 0 52
0 0 53
0 0 53
0 0 52
0 0 50
0 0 52
0 0 52
0 0 53
9 19 46
8 24 32
27 44 29
48 64 52
95 117 109
84 100 85
38 50 19
33 44 7
33 46 12
22 40 4
23 40 5
29 44 6
41 52 22
39 50 12
45 54 18
78 86 50
89 95 60
102 102 70
105 102 73
93 92 62
97 95 65
100 99 69
92 94 64
86 91 60
78 84 52
73 83 46
69 81 42
63 79 34
55 73 29
48 71 23
51 76 27
49 74 25
46 70 18
48 73 24
46 72 24
45 71 23
46 67 22
40 60 14
33 52 13
23 38 16
29 48 6
21 38 7
24 41 0
22 37 0
24 38 0
21 38 0
23 43 0
24 47 19
18 38 20
18 34 29
20 37 32
23 43 10
23 42 0
24 42 0
26 46 0
27 49 0
25 45 0
26 47 0
29 49 0
29 47 0
32 51 0
27 48 0
28 50 0
26 46 0
27 45 0
25 42 0
22 37 0
25 43 0
23 43 0
24 46 0
22 43 0
19 37 0
24 41 4
26 45 8
16 37 18
10 37 40
0 22 89
0 17 80
4 19 75
10 25 54
10 20 45
11 24 46
12 22 42
11 20 46
5 7 59
4 8 55
22 41 15
5 14 50
0 5 68
0 0 62
0 0 62
0 0 59
0 0 54
0 0 59
0 0 64
0 0 59
0 0 61
0 0 57
0 0 61
0 0 65
0 0 66
0 0 60
0 0 62
0 0 65
57 61 92
154 166 188
216 233 255
216 233 255
216 233 255
216 233 255
216 233 255
216 233 255
216 233 255
216 233 255
216 233 255
216 233 255
216 233 255
216 233 255
216 233 255
216 233 255
216 233 255
216 233 255
216 233 255
216 233 255
216 233 255
216 233 255
216 233 255
216 233 255
216 233 255
216 233 255
216 233 255
216 233 255
216 233 255
216 233 255
216 233 255
216 233 255
216 233 255
216 233 255
216 233 255
216 233 255
216 233 255
216 233 255
216 233 255
216 233 255
216 233 255
216 233 255
216 233 255
216 233 255
216 233 255
216 233 255
216 233 255
216 233 255
216 233 255
216 233 255
216 233 255
216 233 255
216 233 255
216 233 255
216 233 255
216 233 255
216 233 255
216 233 255
216 233 255
216 233 255
216 233 255
216 233 255
216 233 255
216 233 255
216 233 255
216 233 255
216 233 255
216 233 255
216 233 255
216 233 255
216 233 255
216 233 255
216 233 255
216 233 255
216 233 255
216 233 255
216 233 255
216 233 255
216 233 255
216 233 255
216 233 255
216 233 255
216 233 255
216 233 255
216 233 255
216 233 255
216 233 255
216 233 255
216 233 255
216 233 255
216 233 255
216 233 255
216 233 255
216 233 255
216 233 255
216 233 255
216 233 255
216 233 255
216 233 255
216 233 255
216 233 255
216 233 255
216 233 255
216 233 255
216 233 255
216 233 255
216 233 255
216 233 255
216 233 255
216 233 255
216 233 255
216 233 255
216 233 255
216 233 255
216 233 255
216 233 255
216 233 255
216 233 255
216 233 255
216 233 255
216 233 255
216 233 255
216 233 255
216 233 255
216 233 255
216 233 255
216 233 255
216 233 255
216 233 255
216 233 255
216 233 255
216 233 255
216 233 255
216 233 255
216 233 255
216 233 255
216 233 255
216 233 255
216 233 255
216 233 255
216 233 255
216 233 255
216 233 255
216 233 255
216 233 255
216 233 255
216 233 255
216 233 255
216 233 255
216 233 255
216 233 255
216 233 255
216 233 255
216 233 255
216 233 255
216 233 255
216 233 255
216 233 255
216 233 255
216 233 255
216 233 255
216 233 255
216 233 255
216 233 255
216 233 255
216 233 255
216 233 255
216 233 255
216 233 255
216 233 255
216 233 255
216 233 255
216 233 255
216 233 255
216 233 255
216 233 255
216 233 255
216 233 255
216 233 255
216 233 255
216 233 255
216 233 255
216 233 255
216 233 255
216 233 255
216 233 255
216 233 255
216 233 255
216 233 255
216 233 255
216 233 255
216 233 255
216 233 255
216 233 255
216 233 255
216 233 255
216 233 255
216 233 255
216 233 255
216 233 255
216 233 255
216 233 255
216 233 255
216 233 255
216 233 255
216 233 255
216 233 255
216 233 255
216 233 255
216 233 255
216 233 255
216 233 255
216 233 255
216 233 255
216 233 255
216 233 255
216 233 255
216 233 255
216 233 255
216 233 255
216 233 255
216 233 255
216 233 255
216 233 255
216 233 255
216 233 255
216 233 255
216 233 255
216 233 255
216 233 255
216 233 255
216 233 255
216 233 255
216 233 255
216 233 255
216 233 255
216 233 255
216 233 255
216 233 255
216 233 255
216 233 255
216 233 255
216 233 255
216 233 255
216 233 255
216 233 255
216 233 255
216 233 255
216 233 255
216 233 255
216 233 255
216 233 255
216 233 255
216 233 255
216 233 255
216 233 255
216 233 255
216 233 255
216 233 255
216 233 255
216 233 255
216 233 255
216 233 255
216 233 255
216 233 255
216 233 255
216 233 255
216 233 255
216 233 255
216 233 255
216 233 255
216 233 255
216 233 255
216 233 255
216 233 255
216 233 255
216 233 255
216 233 255
216 233 255
216 233 255
199 214 237
96 104 124
0 0 50
0 0 49
0 0 49
0 0 50
0 0 50
0 0 52
0 0 53
0 0 52
0 0 50
0 0 52
0 0 51
0 0 50
0 0 51
0 0 52
7 19 35
14 34 13
12 34 22
6 27 51
29 52 41
38 56 28
21 40 1
30 41 6
38 49 13
26 43 1
24 41 0
27 45 5
30 44 5
32 47 7
42 57 20
85 87 56
109 107 75
117 114 82
116 114 84
102 103 72
96 96 64
95 95 65
88 90 61
79 85 55
76 84 50
69 79 42
68 79 40
65 79 39
57 74 31
50 74 23
48 74 19
49 73 22
50 72 24
44 67 21
45 71 23
48 72 29
48 70 27
46 68 17
37 58 11
26 45 12
28 50 0
29 52 0
27 46 5
21 40 0
22 40 0
22 40 14
22 39 35
8 15 57
0 0 61
0 0 60
0 2 64
9 23 46
19 36 32
22 41 12
22 41 0
23 43 0
24 44 0
25 45 0
28 48 0
30 50 0
30 51 0
29 49 0
29 50 0
23 44 0
23 42 0
21 39 0
20 37 0
21 39 0
23 43 0
25 45 6
23 42 11
26 46 0
22 43 0
22 49 33
11 61 89
13 43 71
18 45 43
23 43 24
18 42 32
10 33 54
11 21 60
13 24 48
5 13 53
0 0 57
0 0 57
1 5 60
21 38 27
20 38 14
15 29 42
3 11 53
4 12 53
0 1 57
0 0 57
0 0 56
0 0 59
0 0 64
0 0 65
0 1 64
0 2 61
0 0 59
0 3 65
0 0 69
0 4 69
0 3 67
0 5 69
0 0 62
112 121 142
200 216 238
216 233 255
216 233 255
216 233 255
216 233 255
216 233 255
216 233 255
216 233 255
216 233 255
216 233 255
216 233 255
216 233 255
216 233 255
216 233 255
216 233 255
216 233 255
216 233 255
216 233 255
216 233 255
216 233 255
216 233 255
216 233 255
216 233 255
216 233 255
216 233 255
216 233 255
216 233 255
216 233 255
216 233 255
216 233 255
216 233 255
216 233 255
216 233 255
216 233 255
216 233 255
216 233 255
216 233 255
216 233 255
216 233 255
216 233 255
216 233 255
216 233 255
216 233 255
216 233 255
216 233 255
216 233 255
216 233 255
216 233 255
216 233 255
216 233 255
216 233 255
216 233 255
216 233 255
216 233 255
216 233 255
216 233 255
216 233 255
216 233 255
216 233 255
216 233 255
216 233 255
216 233 255
216 233 255
216 233 255
216 233 255
216 233 255
216 233 255
216 233 255
216 233 255
216 233 255
216 233 255
216 233 255
216 233 255
216 233 255
216 233 255
216 233 255
216 233 255
216 233 255
216 233 255
216 233 255
216 233 255
216 233 255
216 233 255
216 233 255
216 233 255
216 233 255
216 233 255
216 233 255
216 233 255
216 233 255
216 233 255
216 233 255
216 233 255
216 233 255
216 233 255
216 233 255
216 233 255
216 233 255
216 233 255
216 233 255
216 233 255
216 233 255
216 233 255
216 233 255
216 233 255
216 233 255
216 233 255
216 233 255
216 233 255
216 233 255
216 233 255
216 233 255
216 233 255
216 233 255
216 233 255
216 233 255
216 233 255
216 233 255
216 233 255
216 233 255
216 233 255
216 233 255
216 233 255
216 233 255
216 233 255
216 233 255
216 233 255
216 233 255
216 233 255
216 233 255
216 233 255
216 233 255
216 233 255
216 233 255
216 233 255
216 233 255
216 233 255
216 233 255
216 233 255
216 233 255
216 233 255
216 233 255
216 233 255
216 233 255
216 233 255
216 233 255
216 233 255
216 233 255
216 233 255
216 233 255
216 233 255
216 233 255
216 233 255
216 233 255
216 233 255
216 233 255
216 233 255
216 233 255
216 233 255
216 233 255
216 233 255
216 233 255
216 233 255
216 233 255
216 233 255
216 233 255
216 233 255
216 233 255
216 233 255
216 233 255
216 233 255
216 233 255
216 233 255
216 233 255
216 233 255
216 233 255
216 233 255
216 233 255
216 233 255
216 233 255
216 233 255
216 233 255
216 233 255
216 233 255
216 233 255
216 233 255
216 233 255
216 233 255
216 233 255
216 233 255
216 233 255
216 233 255
216 233 255
216 233 255
216 233 255
216 233 255
216 233 255
216 233 255
216 233 255
216 233 255
216 233 255
216 233 255
216 233 255
216 233 255
216 233 255
216 233 255
216 233 255
216 233 255
216 233 255
216 233 255
216 233 255
216 233 255
216 233 255
216 233 255
216 233 255
216 233 255
216 233 255
216 233 255
216 233 255
216 233 255
216 233 255
216 233 255
216 233 255
216 233 255
216 233 255
216 233 255
216 233 255
216 233 255
216 233 255
216 233 255
216 233 255
216 233 255
216 233 255
216 233 255
216 233 255
216 233 255
216 233 255
216 233 255
216 233 255
216 233 255
216 233 255
216 233 255
216 233 255
216 233 255
216 233 255
216 233 255
216 233 255
216 233 255
216 233 255
216 233 255
216 233 255
216 233 255
216 233 255
216 233 255
216 233 255
216 233 255
216 233 255
216 233 255
216 233 255
216 233 255
216 233 255
216 233 255
216 233 255
216 233 255
216 233 255
216 233 255
216 233 255
216 233 255
216 233 255
216 233 255
216 233 255
216 233 255
216 233 255
216 233 255
216 233 255
216 233 255
163 176 197
43 46 73
0 0 50
0 0 48
0 0 48
0 0 49
0 0 51
0 0 51
0 0 52
0 0 53
0 0 51
0 0 51
0 0 52
0 0 52
0 0 51
0 0 55
0 0 54
0 10 66
7 26 56
7 33 24
8 40 69
23 57 42
31 52 16
44 53 26
66 69 41
45 53 20
39 53 14
24 41 6
25 43 3
36 49 7
39 52 16
36 46 9
78 84 49
110 107 74
109 107 72
106 104 71
88 88 53
84 84 53
91 94 64
91 95 65
88 93 62
82 89 55
74 84 47
72 84 45
66 78 39
55 70 30
52 71 30
51 72 26
50 71 21
48 72 19
46 70 18
46 72 20
45 70 27
45 71 21
40 65 12
34 56 3
25 47 4
27 49 0
31 53 0
31 54 5
23 46 32
9 28 59
0 9 64
5 11 65
12 35 62
7 31 44
0 6 67
0 0 64
0 0 63
1 6 67
11 31 49
23 47 7
22 43 0
20 40 0
22 41 0
23 43 0
21 42 0
27 52 0
24 46 5
21 43 0
19 41 0
19 39 0
19 40 0
22 45 0
19 41 0
23 44 0
22 42 0
19 44 0
19 39 0
21 47 21
17 69 61
24 56 36
21 50 0
25 48 0
23 53 12
18 55 50
13 40 45
0 15 78
0 5 66
0 6 72
0 5 69
0 4 61
0 2 61
22 39 31
28 46 3
28 43 7
28 46 5
26 43 5
9 21 40
0 0 58
0 0 58
0 0 57
0 9 67
0 13 76
0 8 73
0 10 71
0 2 65
0 0 61
0 4 60
0 5 66
0 2 67
0 2 67
0 0 62
0 0 59
43 46 76
160 172 193
216 233 255
216 233 255
216 233 255
216 233 255
216 233 255
216 233 255
216 233 255
216 233 255
216 233 255
216 233 255
216 233 255
216 233 255
216 233 255
216 233 255
216 233 255
216 233 255
216 233 255
216 233 255
216 233 255
216 233 255
216 233 255
216 233 255
216 233 255
216 233 255
216 233 255
216 233 255
216 233 255
216 233 255
216 233 255
216 233 255
216 233 255
216 233 255
216 233 255
216 233 255
216 233 255
216 233 255
216 233 255
216 233 255
216 233 255
216 233 255
216 233 255
216 233 255
216 233 255
216 233 255
216 233 255
216 233 255
216 233 255
216 233 255
216 233 255
216 233 255
216 233 255
216 233 255
216 233 255
216 233 255
216 233 255
216 233 255
216 233 255
216 233 255
216 233 255
216 233 255
216 233 255
216 233 255
216 233 255
216 233 255
216 233 255
216 233 255
216 233 255
216 233 255
216 233 255
216 233 255
216 233 255
216 233 255
216 233 255
216 233 255
216 233 255
216 233 255
216 233 255
216 233 255
216 233 255
216 233 255
216 233 255
216 233 255
216 233 255
216 233 255
216 233 255
216 233 255
216 233 255
216 233 255
216 233 255
216 233 255
216 233 255
216 233 255
216 233 255
216 233 255
216 233 255
216 233 255
216 233 255
216 233 255
216 233 255
216 233 255
216 233 255
216 233 255
216 233 255
216 233 255
216 233 255
216 233 255
216 233 255
216 233 255
216 233 255
216 233 255
216 233 255
216 233 255
216 233 255
216 233 255
216 233 255
216 233 255
216 233 255
216 233 255
216 233 255
216 233 255
216 233 255
216 233 255
216 233 255
216 233 255
216 233 255
216 233 255
216 233 255
216 233 255
216 233 255
216 233 255
216 233 255
216 233 255
216 233 255
216 233 255
216 233 255
216 233 255
216 233 255
216 233 255
216 233 255
216 233 255
216 233 255
216 233 255
216 233 255
216 233 255
216 233 255
216 233 255
216 233 255
216 233 255
216 233 255
216 233 255
216 233 255
216 233 255
216 233 255
216 233 255
216 233 255
216 233 255
216 233 255
216 233 255
216 233 255
216 233 255
216 233 255
216 233 255
216 233 255
216 233 255
216 233 255
216 233 255
216 233 255
216 233 255
216 233 255
216 233 255
216 233 255
216 233 255
216 233 255
216 233 255
216 233 255
216 233 255
216 233 255
216 233 255
216 233 255
216 233 255
216 233 255
216 233 255
216 233 255
216 233 255
216 233 255
216 233 255
216 233 255
216 233 255
216 233 255
216 233 255
216 233 255
216 233 255
216 233 255
216 233 255
216 233 255
216 233 255
216 233 255
216 233 255
216 233 255
216 233 255
216 233 255
216 233 255
216 233 255
216 233 255
216 233 255
216 233 255
216 233 255
216 233 255
216 233 255
216 233 255
216 233 255
216 233 255
216 233 255
216 233 255
216 233 255
216 233 255
216 233 255
216 233 255
216 233 255
216 233 255
216 233 255
216 233 255
216 233 255
216 233 255
216 233 255
216 233 255
216 233 255
216 233 255
216 233 255
216 233 255
216 233 255
216 233 255
216 233 255
216 233 255
216 233 255
216 233 255
216 233 255
216 233 255
216 233 255
216 233 255
216 233 255
216 233 255
216 233 255
216 233 255
216 233 255
216 233 255
216 233 255
216 233 255
216 233 255
216 233 255
216 233 255
216 233 255
216 233 255
216 233 255
216 233 255
216 233 255
216 233 255
216 233 255
216 233 255
216 233 255
216 233 255
216 233 255
216 233 255
216 233 255
216 233 255
216 233 255
216 233 255
216 233 255
216 233 255
216 233 255
216 233 255
216 233 255
211 227 249
128 137 157
0 0 50
0 0 49
0 0 48
0 0 49
0 0 51
0 0 52
0 0 53
0 0 53
0 0 51
0 0 53
0 0 52
0 0 53
0 0 51
0 0 48
0 0 58
0 0 56
0 0 58
0 8 61
3 28 57
11 35 19
20 43 39
21 45 14
43 52 21
88 88 61
95 95 67
81 84 53
53 65 29
24 42 3
26 42 0
43 54 16
42 55 18
43 53 17
71 77 44
71 75 43
64 68 35
88 93 61
82 87 55
98 100 70
103 104 75
113 113 83
108 108 79
93 96 65
84 91 59
76 83 47
61 74 35
56 72 30
64 77 34
60 77 34
56 74 28
50 72 22
49 73 25
46 70 17
47 70 22
44 68 20
38 61 13
44 66 20
37 57 12
28 49 1
34 57 4
30 54 9
28 56 31
24 54 19
24 50 33
24 49 23
24 54 10
26 49 14
23 48 23
21 38 36
25 43 29
21 42 26
21 48 48
25 58 27
18 45 31
18 42 21
21 42 10
26 49 0
24 48 0
20 39 10
23 46 0
20 45 0
20 45 0
21 45 0
22 47 0
25 50 0
24 48 0
23 47 0
24 47 0
26 50 0
27 51 2
27 62 33
23 61 32
25 49 2
25 54 0
30 56 3
24 50 2
22 46 3
22 50 25
8 35 80
0 11 59
0 0 66
0 0 61
0 2 63
0 0 64
14 30 46
26 41 40
31 42 25
28 41 25
31 45 10
28 45 13
9 22 41
1 5 59
0 0 64
0 0 63
0 10 67
0 11 72
0 3 69
0 4 70
0 9 70
0 0 60
0 0 56
0 0 61
0 0 62
0 0 59
0 0 59
0 0 57
0 0 57
126 135 156
205 221 243
216 233 255
216 233 255
216 233 255
216 233 255
216 233 255
216 233 255
216 233 255
216 233 255
216 233 255
216 233 255
216 233 255
216 233 255
216 233 255
216 233 255
216 233 255
216 233 255
216 233 255
216 233 255
216 233 255
216 233 255
216 233 255
216 233 255
216 233 255
216 233 255
216 233 255
216 233 255
216 233 255
216 233 255
216 233 255
216 233 255
216 233 255
216 233 255
216 233 255
216 233 255
216 233 255
216 233 255
216 233 255
216 233 255
216 233 255
216 233 255
216 233 255
216 233 255
216 233 255
216 233 255
216 233 255
216 233 255
216 233 255
216 233 255
216 233 255
216 233 255
216 233 255
216 233 255
216 233 255
216 233 255
216 233 255
216 233 255
216 233 255
216 233 255
216 233 255
216 233 255
216 233 255
216 233 255
216 233 255
216 233 255
216 233 255
216 233 255
216 233 255
216 233 255
216 233 255
216 233 255
216 233 255
216 233 255
216 233 255
216 233 255
216 233 255
216 233 255
216 233 255
216 233 255
216 233 255
216 233 255
216 233 255
216 233 255
216 233 255
216 233 255
216 233 255
216 233 255
216 233 255
216 233 255
216 233 255
216 233 255
216 233 255
216 233 255
216 233 255
216 233 255
216 233 255
216 233 255
216 233 255
216 233 255
216 233 255
216 233 255
216 233 255
216 233 255
216 233 255
216 233 255
216 233 255
216 233 255
216 233 255
216 233 255
216 233 255
216 233 255
216 233 255
216 233 255
216 233 255
216 233 255
216 233 255
216 233 255
216 233 255
216 233 255
216 233 255
216 233 255
216 233 255
216 233 255
216 233 255
216 233 255
216 233 255
216 233 255
216 233 255
216 233 255
216 233 255
216 233 255
216 233 255
216 233 255
216 233 255
216 233 255
216 233 255
216 233 255
216 233 255
216 233 255
216 233 255
216 233 255
216 233 255
216 233 255
216 233 255
216 233 255
216 233 255
216 233 255
216 233 255
216 233 255
216 233 255
216 233 255
216 233 255
216 233 255
216 233 255
216 233 255
216 233 255
216 233 255
216 233 255
216 233 255
216 233 255
216 233 255
216 233 255
216 233 255
216 233 255
216 233 255
216 233 255
216 233 255
216 233 255
216 233 255
216 233 255
216 233 255
216 233 255
216 233 255
216 233 255
216 233 255
216 233 255
216 233 255
216 233 255
216 233 255
216 233 255
216 233 255
216 233 255
216 233 255
216 233 255
216 233 255
216 233 255
216 233 255
216 233 255
216 233 255
216 233 255
216 233 255
216 233 255
216 233 255
216 233 255
216 233 255
216 233 255
216 233 255
216 233 255
216 233 255
216 233 255
216 233 255
216 233 255
216 233 255
216 233 255
216 233 255
216 233 255
216 233 255
216 233 255
216 233 255
216 233 255
216 233 255
216 233 255
216 233 255
216 233 255
216 233 255
216 233 255
216 233 255
216 233 255
216 233 255
216 233 255
216 233 255
216 233 255
216 233 255
216 233 255
216 233 255
216 233 255
216 233 255
216 233 255
216 233 255
216 233 255
216 233 255
216 233 255
216 233 255
216 233 255
216 233 255
216 233 255
216 233 255
216 233 255
216 233 255
216 233 255
216 233 255
216 233 255
216 233 255
216 233 255
216 233 255
216 233 255
216 233 255
216 233 255
216 233 255
216 233 255
216 233 255
216 233 255
216 233 255
216 233 255
216 233 255
216 233 255
216 233 255
216 233 255
216 233 255
216 233 255
216 233 255
216 233 255
216 233 255
216 233 255
216 233 255
216 233 255
216 233 255
216 233 255
216 233 255
216 233 255
191 205 227
83 90 109
0 0 51
0 0 51
0 0 50
0 0 50
0 0 51
0 0 53
0 0 53
0 0 52
0 0 51
0 0 53
0 0 53
0 0 52
0 0 52
0 0 51
0 0 50
0 0 54
0 0 52
0 0 52
1 14 63
14 42 32
22 45 4
25 44 10
51 55 28
82 85 55
76 84 48
87 88 56
72 80 42
54 68 27
26 47 3
29 48 7
48 57 23
47 58 21
59 66 30
70 76 44
66 75 40
75 80 47
103 102 75
104 103 73
98 100 68
92 96 63
92 93 62
94 96 64
89 93 58
79 87 50
70 81 46
68 79 44
69 80 42
69 80 43
60 73 34
56 72 28
52 72 25
50 72 26
47 68 21
48 70 24
44 67 24
42 65 16
43 66 20
48 68 26
44 64 20
41 61 15
35 58 6
32 58 6
30 56 0
33 57 0
32 51 3
27 52 0
31 51 10
26 54 25
16 45 59
8 28 66
1 12 65
15 38 44
16 40 51
6 20 60
5 25 58
8 32 50
8 24 65
15 32 57
24 48 13
26 49 0
22 46 0
22 46 0
28 53 0
32 56 0
29 53 0
31 55 3
32 54 8
39 63 9
36 62 13
36 60 8
32 55 3
30 53 6
26 51 0
23 51 0
26 55 2
29 53 3
28 51 0
25 48 3
25 57 47
18 60 67
19 39 62
17 26 49
2 2 60
14 34 42
4 11 59
0 0 58
0 0 65
0 0 61
7 13 60
15 28 38
10 22 51
21 37 27
2 6 62
0 0 65
0 10 69
0 11 71
0 1 62
0 7 70
0 16 79
0 14 75
0 1 62
0 0 59
0 0 59
0 0 60
0 0 62
0 0 64
0 0 60
0 0 58
75 80 107
188 203 225
216 233 255
216 233 255
216 233 255
216 233 255
216 233 255
216 233 255
216 233 255
216 233 255
216 233 255
216 233 255
216 233 255
216 233 255
216 233 255
216 233 255
216 233 255
216 233 255
216 233 255
216 233 255
216 233 255
216 233 255
216 233 255
216 233 255
216 233 255
216 233 255
216 233 255
216 233 255
216 233 255
216 233 255
216 233 255
216 233 255
216 233 255
216 233 255
216 233 255
216 233 255
216 233 255
216 233 255
216 233 255
216 233 255
216 233 255
216 233 255
216 233 255
216 233 255
216 233 255
216 233 255
216 233 255
216 233 255
216 233 255
216 233 255
216 233 255
216 233 255
216 233 255
216 233 255
216 233 255
216 233 255
216 233 255
216 233 255
216 233 255
216 233 255
216 233 255
216 233 255
216 233 255
216 233 255
216 233 255
216 233 255
216 233 255
216 233 255
216 233 255
216 233 255
216 233 255
216 233 255
216 233 255
216 233 255
216 233 255
216 233 255
216 233 255
216 233 255
216 233 255
216 233 255
216 233 255
216 233 255
216 233 255
216 233 255
216 233 255
216 233 255
216 233 255
216 233 255
216 233 255
216 233 255
216 233 255
216 233 255
216 233 255
216 233 255
216 233 255
216 233 255
216 233 255
216 233 255
216 233 255
216 233 255
216 233 255
216 233 255
216 233 255
216 233 255
216 233 255
216 233 255
216 233 255
216 233 255
216 233 255
216 233 255
216 233 255
216 233 255
216 233 255
216 233 255
216 233 255
216 233 255
216 233 255
216 233 255
216 233 255
216 233 255
216 233 255
216 233 255
216 233 255
216 233 255
216 233 255
216 233 255
216 233 255
216 233 255
216 233 255
216 233 255
216 233 255
216 233 255
216 233 255
216 233 255
216 233 255
216 233 255
216 233 255
216 233 255
216 233 255
216 233 255
216 233 255
216 233 255
216 233 255
216 233 255
216 233 255
216 233 255
216 233 255
216 233 255
216 233 255
216 233 255
216 233 255
216 233 255
216 233 255
216 233 255
216 233 255
216 233 255
216 233 255
216 233 255
216 233 255
216 233 255
216 233 255
216 233 255
216 233 255
216 233 255
216 233 255
216 233 255
216 233 255
216 233 255
216 233 255
216 233 255
216 233 255
216 233 255
216 233 255
216 233 255
216 233 255
216 233 255
216 233 255
216 233 255
216 233 255
216 233 255
216 233 255
216 233 255
216 233 255
216 233 255
216 233 255
216 233 255
216 233 255
216 233 255
216 233 255
216 233 255
216 233 255
216 233 255
216 233 255
216 233 255
216 233 255
216 233 255
216 233 255
216 233 255
216 233 255
216 233 255
216 233 255
216 233 255
216 233 255
216 233 255
216 233 255
216 233 255
216 233 255
216 233 255
216 233 255
216 233 255
216 233 255
216 233 255
216 233 255
216 233 255
216 233 255
216 233 255
216 233 255
216 233 255
216 233 255
216 233 255
216 233 255
216 233 255
216 233 255
216 233 255
216 233 255
216 233 255
216 233 255
216 233 255
216 233 255
216 233 255
216 233 255
216 233 255
216 233 255
216 233 255
216 233 255
216 233 255
216 233 255
216 233 255
216 233 255
216 233 255
216 233 255
216 233 255
216 233 255
216 233 255
216 233 255
216 233 255
216 233 255
216 233 255
216 233 255
216 233 255
216 233 255
216 233 255
216 233 255
216 233 255
216 233 255
216 233 255
216 233 255
216 233 255
216 233 255
216 233 255
216 233 255
216 233 255
216 233 255
216 233 255
216 233 255
216 233 255
216 233 255
216 233 255
216 233 255
174 188 208
21 23 56
0 0 51
0 0 52
0 0 52
0 0 50
0 0 50
0 0 52
0 0 53
0 0 52
0 0 50
0 0 51
0 0 54
0 0 53
0 0 52
0 0 52
0 0 53
0 0 52
0 0 52
0 0 49
0 3 58
7 35 65
22 49 10
18 42 0
44 51 23
86 83 56
88 87 57
70 77 42
51 61 26
59 65 28
42 53 15
30 44 10
41 49 14
50 57 24
69 73 40
71 77 41
62 68 35
52 60 27
65 67 36
102 103 71
96 96 62
84 88 54
85 90 61
91 91 61
95 97 64
85 89 50
81 90 50
82 90 51
80 85 49
78 84 49
70 78 44
62 74 38
62 78 39
57 75 30
55 75 32
49 70 26
49 71 27
45 69 26
40 66 18
38 64 16
40 62 16
44 64 21
44 65 20
41 65 13
39 65 11
37 62 5
40 66 10
39 61 13
34 60 5
41 63 20
27 69 56
6 24 68
11 24 72
25 43 40
34 57 18
34 57 0
30 51 28
0 9 70
0 0 63
5 18 57
19 34 50
12 26 61
26 51 16
26 48 2
25 49 0
28 51 0
31 55 0
39 64 11
42 66 12
39 62 11
40 63 13
36 60 6
31 56 0
27 53 0
24 50 4
30 52 0
28 53 0
27 51 0
21 47 0
24 51 8
24 50 17
26 52 38
25 59 45
23 53 42
27 49 46
16 34 52
20 44 27
15 38 27
1 10 54
0 0 62
0 0 63
0 0 64
0 0 63
0 5 70
8 19 60
4 12 59
0 0 66
0 0 61
0 5 65
0 10 70
0 7 68
0 17 79
0 14 77
0 10 72
0 1 62
0 0 59
0 0 57
0 0 59
0 0 61
0 0 65
0 1 60
0 0 57
37 40 76
166 179 200
216 233 255
216 233 255
216 233 255
216 233 255
216 233 255
216 233 255
216 233 255
216 233 255
216 233 255
216 233 255
216 233 255
216 233 255
216 233 255
216 233 255
216 233 255
216 233 255
216 233 255
216 233 255
216 233 255
216 233 255
216 233 255
216 233 255
216 233 255
216 233 255
216 233 255
216 233 255
216 233 255
216 233 255
216 233 255
216 233 255
216 233 255
216 233 255
216 233 255
216 233 255
216 233 255
216 233 255
216 233 255
216 233 255
216 233 255
216 233 255
216 233 255
216 233 255
216 233 255
216 233 255
216 233 255
216 233 255
216 233 255
216 233 255
216 233 255
216 233 255
216 233 255
216 233 255
216 233 255
216 233 255
216 233 255
216 233 255
216 233 255
216 233 255
216 233 255
216 233 255
216 233 255
216 233 255
216 233 255
216 233 255
216 233 255
216 233 255
216 233 255
216 233 255
216 233 255
216 233 255
216 233 255
216 233 255
216 233 255
216 233 255
216 233 255
216 233 255
216 233 255
216 233 255
216 233 255
216 233 255
216 233 255
216 233 255
216 233 255
216 233 255
216 233 255
216 233 255
216 233 255
216 233 255
216 233 255
216 233 255
216 233 255
216 233 255
216 233 255
216 233 255
216 233 255
216 233 255
216 233 255
216 233 255
216 233 255
216 233 255
216 233 255
216 233 255
216 233 255
216 233 255
216 233 255
216 233 255
216 233 255
216 233 255
216 233 255
216 233 255
216 233 255
216 233 255
216 233 255
216 233 255
216 233 255
216 233 255
216 233 255
216 233 255
216 233 255
216 233 255
216 233 255
216 233 255
216 233 255
216 233 255
216 233 255
216 233 255
216 233 255
216 233 255
216 233 255
216 233 255
216 233 255
216 233 255
216 233 255
217 233 255
217 233 255
217 233 255
217 233 255
217 233 255
217 233 255
217 233 255
217 233 255
217 233 255
217 233 255
217 233 255
217 233 255
217 233 255
217 233 255
217 233 255
217 233 255
217 233 255
217 233 255
217 233 255
217 233 255
217 233 255
217 233 255
217 233 255
217 233 255
216 233 255
217 233 255
216 233 255
216 233 255
216 233 255
216 233 255
216 233 255
216 233 255
216 233 255
216 233 255
216 233 255
216 233 255
216 233 255
216 233 255
216 233 255
216 233 255
216 233 255
216 233 255
216 233 255
216 233 255
216 233 255
216 233 255
216 233 255
216 233 255
216 233 255
216 233 255
216 233 255
216 233 255
216 233 255
216 233 255
216 233 255
216 233 255
216 233 255
216 233 255
216 233 255
216 233 255
216 233 255
216 233 255
216 233 255
216 233 255
216 233 255
216 233 255
216 233 255
216 233 255
216 233 255
216 233 255
216 233 255
216 233 255
216 233 255
216 233 255
216 233 255
216 233 255
216 233 255
216 233 255
216 233 255
216 233 255
216 233 255
216 233 255
216 233 255
216 233 255
216 233 255
216 233 255
216 233 255
216 233 255
216 233 255
216 233 255
216 233 255
216 233 255
216 233 255
216 233 255
216 233 255
216 233 255
216 233 255
216 233 255
216 233 255
216 233 255
216 233 255
216 233 255
216 233 255
216 233 255
216 233 255
216 233 255
216 233 255
216 233 255
216 233 255
216 233 255
216 233 255
216 233 255
216 233 255
216 233 255
216 233 255
216 233 255
216 233 255
216 233 255
216 233 255
216 233 255
216 233 255
216 233 255
216 233 255
216 233 255
216 233 255
216 233 255
216 233 255
216 233 255
216 233 255
216 233 255
216 233 255
215 232 254
128 138 156
0 0 51
0 0 50
0 0 50
0 0 50
0 0 48
0 0 48
0 0 49
0 0 53
0 0 52
0 0 51
0 0 52
0 0 54
0 0 53
0 0 53
0 0 51
0 0 52
0 0 53
0 0 51
0 0 51
0 0 48
6 16 56
30 51 19
33 51 9
48 54 28
86 83 60
86 83 57
62 66 34
55 61 31
53 62 27
50 58 22
46 53 19
54 56 26
69 69 40
75 76 44
79 81 51
57 63 29
49 55 24
50 52 28
75 76 47
132 129 95
144 141 109
77 76 46
98 100 67
107 106 72
94 94 61
68 73 35
52 60 25
75 82 46
78 85 49
75 82 46
69 79 41
65 78 38
63 79 37
60 76 35
57 75 33
52 72 31
47 69 28
43 69 23
38 63 16
38 62 16
36 60 16
39 62 16
42 65 17
42 65 16
39 62 12
39 62 12
37 61 6
38 60 11
41 62 17
45 66 16
30 58 48
0 18 80
21 47 54
35 55 0
38 59 10
40 58 0
25 67 63
29 45 71
7 12 66
18 33 56
42 66 22
40 60 24
43 65 17
41 63 19
38 60 23
36 57 25
35 57 26
31 52 32
37 60 8
27 50 0
26 50 5
27 50 6
28 53 0
26 52 0
27 50 6
27 55 8
30 55 0
26 55 10
22 51 17
19 43 49
10 42 86
8 35 75
21 50 56
24 53 31
26 50 23
26 44 18
15 31 36
5 12 54
0 0 58
0 0 57
0 0 60
0 0 66
0 0 67
0 0 65
0 0 62
0 0 56
0 0 54
0 0 58
0 0 61
0 0 62
0 0 68
0 10 71
0 13 79
0 13 77
0 7 69
0 0 58
0 0 54
0 0 52
0 0 54
0 0 58
0 3 63
0 0 60
0 0 56
0 1 64
131 142 165
214 230 253
216 233 255
216 233 255
216 233 255
216 233 255
216 233 255
216 233 255
216 233 255
216 233 255
216 233 255
216 233 255
216 233 255
216 233 255
216 233 255
216 233 255
216 233 255
216 233 255
216 233 255
216 233 255
216 233 255
216 233 255
216 233 255
216 233 255
216 233 255
216 233 255
216 233 255
216 233 255
216 233 255
216 233 255
216 233 255
216 233 255
216 233 255
216 233 255
216 233 255
216 233 255
216 233 255
216 233 255
216 233 255
216 233 255
216 233 255
216 233 255
216 233 255
216 233 255
216 233 255
216 233 255
216 233 255
216 233 255
216 233 255
216 233 255
216 233 255
216 233 255
216 233 255
216 233 255
216 233 255
216 233 255
216 233 255
216 233 255
216 233 255
216 233 255
216 233 255
216 233 255
216 233 255
216 233 255
216 233 255
216 233 255
216 233 255
216 233 255
216 233 255
216 233 255
216 233 255
216 233 255
216 233 255
216 233 255
216 233 255
216 233 255
216 233 255
216 233 255
216 233 255
216 233 255
216 233 255
216 233 255
216 233 255
216 233 255
216 233 255
216 233 255
216 233 255
216 233 255
216 233 255
216 233 255
216 233 255
216 233 255
216 233 255
216 233 255
216 233 255
216 233 255
216 233 255
216 233 255
216 233 255
216 233 255
216 233 255
216 233 255
216 233 255
216 233 255
216 233 255
216 233 255
216 233 255
216 233 255
217 233 255
217 233 255
217 233 255
217 233 255
217 233 255
217 233 255
217 233 255
217 233 255
217 233 255
217 233 255
217 233 255
217 233 255
217 233 255
217 233 255
217 233 255
217 233 255
217 233 255
217 233 255
217 233 255
217 233 255
217 233 255
217 233 255
217 233 255
217 233 255
217 233 255
217 233 255
217 233 255
217 233 255
217 233 255
217 233 255
217 233 255
217 233 255
217 233 255
217 233 255
217 233 255
217 233 255
217 233 255
217 233 255
217 233 255
217 233 255
217 233 255
217 233 255
217 233 255
217 233 255
217 233 255
217 233 255
217 233 255
217 233 255
217 233 255
217 233 255
217 233 255
217 233 255
217 233 255
217 233 255
217 233 255
217 233 255
217 233 255
217 233 255
217 233 255
217 233 255
217 233 255
217 233 255
217 233 255
217 233 255
217 233 255
217 233 255
217 233 255
217 233 255
217 233 255
217 233 255
217 233 255
217 233 255
217 233 255
217 233 255
217 233 255
217 233 255
217 233 255
217 233 255
217 233 255
217 233 255
217 233 255
217 233 255
216 233 255
216 233 255
216 233 255
216 233 255
216 233 255
216 233 255
216 233 255
216 233 255
216 233 255
216 233 255
216 233 255
216 233 255
216 233 255
216 233 255
216 233 255
216 233 255
216 233 255
216 233 255
216 233 255
216 233 255
216 233 255
216 233 255
216 233 255
216 233 255
216 233 255
216 233 255
216 233 255
216 233 255
216 233 255
216 233 255
216 233 255
216 233 255
216 233 255
216 233 255
216 233 255
216 233 255
216 233 255
216 233 255
216 233 255
216 233 255
216 233 255
216 233 255
216 233 255
216 233 255
216 233 255
216 233 255
216 233 255
216 233 255
216 233 255
216 233 255
216 233 255
216 233 255
216 233 255
216 233 255
216 233 255
216 233 255
216 233 255
216 233 255
216 233 255
216 233 255
216 233 255
216 233 255
216 233 255
216 233 255
216 233 255
216 233 255
216 233 255
216 233 255
216 233 255
216 233 255
216 233 255
216 233 255
216 233 255
209 225 247
128 138 157
0 0 52
0 0 50
0 0 51
0 0 49
0 0 48
0 0 48
0 0 51
0 0 52
0 0 53
0 0 53
0 0 53
0 0 53
0 0 54
0 0 54
0 0 51
0 0 49
0 0 53
0 0 50
0 0 49
0 0 48
2 9 54
25 45 23
31 54 13
35 44 17
79 77 52
70 68 43
60 61 34
59 61 34
87 85 59
84 87 54
55 63 30
56 62 30
65 67 40
88 85 60
95 93 63
82 88 53
59 68 34
52 60 30
62 64 39
95 91 66
124 118 86
121 120 87
93 94 60
116 113 76
106 104 69
99 101 64
90 95 56
67 75 37
81 91 52
81 90 49
75 87 44
66 81 37
62 79 35
57 77 34
52 73 30
53 71 32
49 68 29
44 67 25
38 63 17
39 63 16
39 62 16
36 60 16
39 63 16
40 65 17
43 67 20
41 63 14
38 60 5
39 61 8
39 59 8
43 66 18
44 65 15
23 43 70
0 24 89
21 49 61
41 61 6
41 66 10
45 66 23
51 71 43
51 69 30
34 50 51
30 47 58
50 69 22
52 72 27
46 69 34
22 36 77
22 41 59
21 38 59
10 22 67
19 42 58
29 56 9
26 49 0
25 48 0
27 53 3
29 53 2
25 53 0
26 51 0
29 55 3
22 46 35
14 34 53
0 23 77
0 17 79
0 5 64
12 26 59
27 47 13
17 39 27
0 11 62
0 3 62
0 2 63
0 0 58
0 0 59
0 0 58
0 0 57
0 0 59
0 0 64
0 0 70
0 0 59
0 0 54
0 0 57
0 0 54
0 0 56
0 0 62
0 0 69
0 0 64
0 8 68
0 10 72
0 10 68
0 0 54
0 0 52
0 0 50
0 0 53
0 0 52
0 0 60
0 0 60
0 0 57
0 0 57
0 16 76
96 105 134
205 221 243
216 233 255
216 233 255
216 233 255
216 233 255
216 233 255
216 233 255
216 233 255
216 233 255
216 233 255
216 233 255
216 233 255
216 233 255
216 233 255
216 233 255
216 233 255
216 233 255
216 233 255
216 233 255
216 233 255
216 233 255
216 233 255
216 233 255
216 233 255
216 233 255
216 233 255
216 233 255
216 233 255
216 233 255
216 233 255
216 233 255
216 233 255
216 233 255
216 233 255
216 233 255
216 233 255
216 233 255
216 233 255
216 233 255
216 233 255
216 233 255
216 233 255
216 233 255
216 233 255
216 233 255
216 233 255
216 233 255
216 233 255
216 233 255
216 233 255
216 233 255
216 233 255
216 233 255
216 233 255
216 233 255
216 233 255
216 233 255
216 233 255
216 233 255
216 233 255
216 233 255
216 233 255
216 233 255
216 233 255
216 233 255
216 233 255
216 233 255
216 233 255
216 233 255
216 233 255
216 233 255
216 233 255
216 233 255
216 233 255
217 233 255
217 233 255
217 233 255
217 233 255
217 233 255
217 233 255
217 233 255
217 233 255
217 233 255
217 233 255
217 233 255
217 233 255
217 233 255
217 233 255
217 233 255
217 233 255
217 233 255
217 233 255
217 233 255
217 233 255
217 233 255
217 233 255
217 233 255
217 233 255
217 233 255
217 233 255
217 233 255
217 233 255
217 233 255
217 233 255
217 233 255
217 233 255
217 233 255
217 233 255
217 233 255
217 233 255
217 233 255
217 233 255
217 233 255
217 233 255
217 233 255
217 233 255
217 233 255
217 233 255
217 233 255
217 233 255
217 233 255
217 233 255
217 233 255
217 233 255
217 233 255
217 233 255
217 233 255
217 233 255
217 233 255
217 233 255
217 233 255
217 233 255
217 233 255
217 233 255
217 233 255
217 233 255
217 233 255
217 233 255
217 233 255
217 233 255
217 233 255
217 233 255
217 233 255
217 233 255
217 233 255
217 233 255
217 233 255
217 233 255
217 233 255
217 233 255
217 233 255
217 233 255
217 233 255
217 233 255
217 233 255
217 233 255
217 233 255
217 233 255
217 233 255
217 233 255
217 233 255
217 233 255
217 233 255
217 233 255
217 233 255
217 233 255
217 233 255
217 233 255
217 233 255
217 233 255
217 233 255
217 233 255
217 233 255
217 233 255
217 233 255
217 233 255
217 233 255
217 233 255
217 233 255
217 233 255
217 233 255
217 233 255
217 233 255
217 233 255
217 233 255
217 233 255
217 233 255
217 233 255
217 233 255
217 233 255
217 233 255
217 233 255
217 233 255
217 233 255
217 233 255
217 233 255
217 233 255
217 233 255
217 233 255
217 233 255
217 233 255
217 233 255
217 233 255
217 233 255
217 233 255
217 233 255
217 233 255
217 233 255
217 233 255
217 233 255
217 233 255
217 233 255
217 233 255
217 233 255
217 233 255
217 233 255
217 233 255
217 233 255
217 233 255
217 233 255
217 233 255
217 233 255
217 233 255
217 233 255
217 233 255
217 233 255
217 233 255
217 233 255
217 233 255
217 233 255
216 233 255
216 233 255
216 233 255
216 233 255
216 233 255
216 233 255
216 233 255
216 233 255
216 233 255
216 233 255
216 233 255
216 233 255
216 233 255
216 233 255
216 233 255
216 233 255
216 233 255
216 233 255
216 233 255
216 233 255
216 233 255
216 233 255
216 233 255
216 233 255
216 233 255
216 233 255
216 233 255
216 233 255
216 233 255
216 233 255
200 215 236
86 93 113
0 0 51
0 0 50
0 0 50
0 0 48
0 0 48
0 0 50
0 0 50
0 0 53
0 0 53
0 0 54
0 0 55
0 0 53
0 0 53
0 0 52
0 0 51
0 0 48
0 0 51
0 0 51
0 0 52
0 0 49
0 5 55
8 32 45
24 47 6
23 36 9
61 61 38
93 90 68
86 82 60
83 81 59
89 86 61
93 88 60
99 97 68
85 83 55
83 84 53
85 86 60
86 86 57
88 88 56
66 77 42
49 59 25
68 72 42
79 80 52
105 104 78
128 124 94
130 123 93
115 111 77
97 96 61
99 100 68
97 99 64
89 92 55
78 86 47
74 82 43
80 89 54
80 90 56
76 88 51
69 81 45
61 77 37
56 76 33
52 72 31
46 67 25
44 66 21
41 66 16
39 65 16
38 63 16
36 60 16
38 63 16
38 64 16
38 64 15
39 64 14
41 66 15
42 68 16
42 66 17
44 66 13
41 64 16
23 36 66
0 26 90
6 31 77
42 66 7
40 63 7
44 64 14
44 65 12
53 68 24
36 62 52
46 67 34
33 54 64
33 55 71
30 48 67
28 50 58
35 63 14
40 67 8
39 64 13
37 61 13
32 57 0
34 60 0
35 60 0
34 60 0
30 56 0
24 51 0
31 54 0
29 55 12
9 20 63
0 0 60
0 0 59
0 0 62
0 0 64
0 6 68
6 17 64
4 10 63
0 0 60
0 0 59
0 0 60
0 0 58
0 0 57
0 0 57
0 0 57
0 0 61
0 0 59
0 0 65
0 0 66
0 0 61
0 0 62
0 0 61
0 0 57
0 0 55
0 0 61
0 0 68
0 0 64
0 10 72
0 4 69
0 0 63
0 0 58
0 0 51
0 0 51
0 0 55
0 0 55
0 0 61
0 0 62
0 0 60
0 3 61
0 19 79
92 100 131
194 208 231
216 233 255
216 233 255
216 233 255
216 233 255
216 233 255
216 233 255
216 233 255
216 233 255
216 233 255
216 233 255
216 233 255
216 233 255
216 233 255
216 233 255
216 233 255
216 233 255
216 233 255
216 233 255
216 233 255
216 233 255
216 233 255
216 233 255
216 233 255
216 233 255
216 233 255
216 233 255
216 233 255
216 233 255
216 233 255
216 233 255
216 233 255
217 233 255
217 233 255
217 233 255
217 233 255
217 233 255
217 233 255
217 233 255
217 233 255
217 233 255
217 233 255
217 233 255
217 233 255
217 233 255
217 233 255
217 233 255
217 233 255
217 233 255
217 233 255
217 233 255
217 233 255
217 233 255
217 233 255
217 233 255
217 233 255
217 233 255
217 233 255
217 233 255
217 233 255
217 233 255
217 233 255
217 233 255
217 233 255
217 233 255
217 233 255
217 233 255
217 233 255
217 233 255
217 233 255
217 233 255
217 233 255
217 233 255
217 233 255
217 233 255
217 233 255
217 233 255
217 233 255
217 233 255
217 233 255
217 233 255
217 233 255
217 233 255
217 233 255
217 233 255
217 233 255
217 233 255
217 233 255
217 233 255
217 233 255
217 233 255
217 233 255
217 233 255
217 233 255
217 233 255
217 233 255
217 233 255
217 233 255
217 233 255
217 233 255
217 233 255
217 233 255
217 233 255
217 233 255
217 233 255
217 233 255
217 233 255
217 233 255
217 233 255
217 233 255
217 233 255
217 233 255
217 233 255
217 233 255
217 233 255
217 233 255
217 233 255
217 233 255
217 233 255
217 233 255
217 233 255
217 233 255
217 233 255
217 233 255
217 233 255
217 233 255
217 233 255
217 233 255
217 233 255
217 233 255
217 233 255
217 233 255
217 233 255
217 233 255
217 233 255
217 233 255
217 233 255
217 233 255
217 233 255
217 233 255
217 233 255
217 233 255
217 233 255
217 233 255
217 233 255
217 233 255
217 233 255
217 233 255
217 233 255
217 233 255
217 233 255
217 233 255
217 233 255
217 233 255
217 233 255
217 233 255
217 233 255
217 233 255
217 233 255
217 233 255
217 233 255
217 233 255
217 233 255
217 233 255
217 233 255
217 233 255
217 233 255
217 233 255
217 233 255
217 233 255
217 233 255
217 233 255
217 233 255
217 233 255
217 233 255
217 233 255
217 233 255
217 233 255
217 233 255
217 233 255
217 233 255
217 233 255
217 233 255
217 233 255
217 233 255
217 233 255
217 233 255
217 233 255
217 233 255
217 233 255
217 233 255
217 233 255
217 233 255
217 233 255
217 233 255
217 233 255
217 233 255
217 233 255
217 233 255
217 233 255
217 233 255
217 233 255
217 233 255
217 233 255
217 233 255
217 233 255
217 233 255
217 233 255
217 233 255
217 233 255
217 233 255
217 233 255
217 233 255
217 233 255
217 233 255
217 233 255
217 233 255
217 233 255
217 233 255
217 233 255
217 233 255
217 233 255
217 233 255
217 233 255
217 233 255
217 233 255
217 233 255
217 233 255
217 233 255
217 233 255
217 233 255
217 233 255
217 233 255
217 233 255
217 233 255
217 233 255
217 233 255
217 233 255
217 233 255
217 233 255
217 233 255
217 233 255
217 233 255
217 233 255
217 233 255
217 233 255
217 233 255
217 233 255
217 233 255
217 233 255
217 233 255
217 233 255
217 233 255
217 233 255
217 233 255
217 233 255
217 233 255
217 233 255
180 193 214
43 46 72
0 0 50
0 0 49
0 0 49
0 0 48
0 0 48
0 0 50
0 0 52
0 0 52
0 0 53
0 0 51
0 0 51
0 0 53
0 0 53
0 0 53
0 0 52
0 0 52
0 0 52
0 0 52
0 0 52
0 0 53
0 3 55
12 32 42
22 44 0
22 35 2
53 56 31
84 81 58
97 91 69
99 92 67
94 88 65
99 94 68
89 84 59
108 100 76
105 101 74
90 91 55
92 95 58
87 90 60
78 84 53
67 74 45
69 71 44
126 121 95
122 116 93
125 120 89
132 129 95
123 125 87
109 108 73
98 98 61
85 86 52
93 100 64
88 96 58
85 92 56
87 93 60
89 95 64
84 90 59
81 86 55
77 85 54
72 82 48
65 78 40
49 69 28
44 66 24
42 65 19
42 64 16
43 64 21
43 64 20
42 64 19
43 66 17
42 65 16
42 65 16
42 64 16
42 65 15
39 63 0
39 60 11
36 62 10
45 65 11
48 65 40
11 30 76
29 53 42
41 66 11
41 64 14
42 63 14
46 65 22
42 71 56
16 55 91
15 41 95
9 43 91
19 52 69
24 52 44
28 53 17
27 52 6
28 54 0
31 58 0
34 60 0
33 61 0
32 58 0
29 54 0
30 54 1
30 57 0
28 55 6
30 51 1
34 54 13
15 31 58
0 5 60
0 0 60
0 0 66
0 4 61
0 3 64
0 0 61
0 0 59
0 0 57
0 0 62
0 0 55
0 0 60
0 0 58
0 0 58
0 0 58
0 0 58
0 0 57
0 0 58
0 0 64
0 0 65
0 0 63
0 0 63
0 0 61
0 0 57
0 0 56
0 0 61
0 0 65
0 4 69
0 10 71
0 0 62
0 0 58
0 0 54
0 0 52
0 0 54
0 0 60
0 0 60
0 0 61
0 0 63
0 0 64
0 2 63
0 13 74
65 71 107
189 203 225
217 233 255
217 233 255
217 233 255
217 233 255
217 233 255
217 233 255
217 233 255
217 233 255
217 233 255
217 233 255
217 233 255
217 233 255
217 233 255
217 233 255
217 233 255
217 233 255
217 233 255
217 233 255
217 233 255
217 233 255
217 233 255
217 233 255
217 233 255
217 233 255
217 233 255
217 233 255
217 233 255
217 233 255
217 233 255
217 233 255
217 233 255
217 233 255
217 233 255
217 233 255
217 233 255
217 233 255
217 233 255
217 233 255
217 233 255
217 233 255
217 233 255
217 233 255
217 233 255
217 233 255
217 233 255
217 233 255
217 233 255
217 233 255
217 233 255
217 233 255
217 233 255
217 233 255
217 233 255
217 233 255
217 233 255
217 233 255
217 233 255
217 233 255
217 233 255
217 233 255
217 233 255
217 233 255
217 233 255
217 233 255
217 233 255
217 233 255
217 233 255
217 233 255
217 233 255
217 233 255
217 233 255
217 233 255
217 233 255
217 233 255
217 233 255
217 233 255
217 233 255
217 233 255
217 233 255
217 233 255
217 233 255
217 233 255
217 233 255
217 233 255
217 233 255
217 233 255
217 233 255
217 233 255
217 233 255
217 233 255
217 233 255
217 233 255
217 233 255
217 233 255
217 233 255
217 233 255
217 233 255
217 233 255
217 233 255
217 233 255
217 233 255
217 233 255
217 233 255
217 233 255
217 233 255
217 233 255
217 233 255
217 233 255
217 233 255
217 233 255
217 233 255
217 233 255
217 233 255
217 233 255
217 233 255
217 233 255
217 233 255
217 233 255
217 233 255
217 233 255
217 233 255
217 233 255
217 233 255
217 233 255
217 233 255
217 233 255
217 233 255
217 233 255
217 233 255
217 233 255
217 233 255
217 233 255
217 233 255
217 233 255
217 233 255
217 233 255
217 233 255
217 233 255
217 233 255
217 233 255
217 233 255
217 233 255
217 233 255
217 233 255
217 233 255
217 233 255
217 233 255
217 233 255
217 233 255
217 233 255
217 233 255
217 233 255
217 233 255
217 233 255
217 233 255
217 233 255
217 233 255
217 233 255
217 233 255
217 233 255
217 233 255
217 233 255
217 233 255
217 233 255
217 233 255
217 233 255
217 233 255
217 233 255
217 233 255
217 233 255
217 233 255
217 233 255
217 233 255
217 233 255
217 233 255
217 233 255
217 233 255
217 233 255
217 233 255
217 233 255
217 233 255
217 233 255
217 233 255
217 233 255
217 233 255
217 233 255
217 233 255
217 233 255
217 233 255
217 233 255
217 233 255
217 233 255
217 233 255
217 233 255
217 233 255
217 233 255
217 233 255
217 233 255
217 233 255
217 233 255
217 233 255
217 233 255
217 233 255
217 233 255
217 233 255
217 233 255
217 233 255
217 233 255
217 233 255
217 233 255
217 233 255
217 233 255
217 233 255
217 233 255
217 233 255
217 233 255
217 233 255
217 233 255
217 233 255
217 233 255
217 233 255
217 233 255
217 233 255
217 233 255
217 233 255
217 233 255
217 233 255
217 233 255
217 233 255
217 233 255
217 233 255
217 233 255
217 233 255
217 233 255
217 233 255
217 233 255
217 233 255
217 233 255
217 233 255
217 233 255
217 233 255
217 233 255
217 233 255
217 233 255
217 233 255
217 233 255
217 233 255
217 233 255
217 233 255
217 233 255
217 233 255
217 233 255
217 233 255
217 233 255
217 233 255
170 183 204
43 46 72
0 0 48
0 0 48
0 0 49
0 0 48
0 0 48
0 0 49
0 0 52
0 0 53
0 0 53
0 0 52
0 0 51
0 0 51
0 0 51
0 0 52
0 0 51
0 0 52
0 0 54
0 0 53
0 0 52
0 0 51
0 0 58
7 17 56
17 37 0
38 50 18
47 53 28
66 65 42
71 69 45
97 91 65
101 95 69
104 95 68
105 97 71
97 92 65
89 86 59
103 93 65
96 94 68
114 112 84
108 104 72
73 81 47
81 84 55
127 119 89
142 141 107
134 130 95
141 140 101
124 121 87
103 101 73
82 80 49
96 99 66
92 95 67
93 99 67
88 96 67
86 92 65
87 93 66
83 91 62
79 87 54
70 79 43
62 75 39
60 77 38
55 74 32
48 67 27
46 66 26
49 68 29
50 68 24
42 62 18
46 68 22
45 68 21
44 67 20
42 65 16
44 66 16
42 65 16
40 62 13
38 61 0
37 60 12
32 59 0
37 59 2
42 65 5
38 65 9
41 63 3
39 62 6
40 66 14
45 69 15
49 70 23
48 67 26
38 60 44
37 63 46
38 66 26
37 62 10
36 60 6
30 53 0
29 52 8
29 53 0
28 54 0
35 56 0
32 57 0
31 56 2
31 52 3
32 52 6
33 54 6
29 58 26
27 54 31
24 45 41
15 40 44
4 28 71
0 13 69
0 2 71
0 15 79
0 14 77
0 0 68
0 0 63
0 0 58
0 0 56
0 0 58
0 0 62
0 0 64
0 0 59
0 0 59
0 0 61
0 0 56
0 0 52
0 0 53
0 0 61
0 0 63
0 0 61
0 0 61
0 0 60
0 0 56
0 0 60
0 0 63
0 0 66
0 2 68
0 0 59
0 0 50
0 0 49
0 0 50
0 0 52
0 0 54
0 0 58
0 0 61
0 0 57
0 0 60
0 0 63
0 0 60
0 8 70
48 53 92
175 188 210
217 233 255
217 233 255
217 233 255
217 233 255
217 233 255
217 233 255
217 233 255
217 233 255
217 233 255
217 233 255
217 233 255
217 233 255
217 233 255
217 233 255
217 233 255
217 233 255
217 233 255
217 233 255
217 233 255
217 233 255
217 233 255
217 233 255
217 233 255
217 233 255
217 233 255
217 233 255
217 233 255
217 233 255
217 233 255
217 233 255
217 233 255
217 233 255
217 233 255
217 233 255
217 233 255
217 233 255
217 233 255
217 233 255
217 233 255
217 233 255
217 233 255
217 233 255
217 233 255
217 233 255
217 233 255
217 233 255
217 233 255
217 233 255
217 233 255
217 233 255
217 233 255
217 233 255
217 233 255
217 233 255
217 233 255
217 233 255
217 233 255
217 233 255
217 233 255
217 233 255
217 233 255
217 233 255
217 233 255
217 233 255
217 233 255
217 233 255
217 233 255
217 233 255
217 233 255
217 233 255
217 233 255
217 233 255
217 233 255
217 233 255
217 233 255
217 233 255
217 233 255
217 233 255
217 233 255
217 233 255
217 233 255
217 233 255
217 233 255
217 233 255
217 233 255
217 233 255
217 233 255
217 233 255
217 233 255
217 233 255
217 233 255
217 233 255
217 233 255
217 233 255
217 233 255
217 233 255
217 233 255
217 233 255
217 233 255
217 233 255
217 233 255
217 233 255
217 233 255
217 233 255
217 233 255
217 233 255
217 233 255
217 233 255
217 233 255
217 233 255
217 233 255
217 233 255
217 233 255
217 233 255
217 233 255
217 233 255
217 233 255
217 233 255
217 233 255
217 233 255
217 233 255
217 233 255
217 233 255
217 233 255
217 233 255
217 233 255
217 233 255
217 233 255
217 233 255
217 233 255
217 233 255
217 233 255
217 233 255
217 233 255
217 233 255
217 233 255
217 233 255
217 233 255
217 233 255
217 233 255
217 233 255
217 233 255
217 233 255
217 233 255
217 233 255
217 233 255
217 233 255
217 233 255
217 233 255
217 233 255
217 233 255
217 233 255
217 233 255
217 233 255
217 233 255
217 233 255
217 233 255
217 233 255
217 233 255
217 233 255
217 233 255
217 233 255
217 233 255
217 233 255
217 233 255
217 233 255
217 233 255
217 233 255
217 233 255
217 233 255
217 233 255
217 233 255
217 233 255
217 233 255
217 233 255
217 233 255
217 233 255
217 233 255
217 233 255
217 233 255
217 233 255
217 233 255
217 233 255
217 233 255
217 233 255
217 233 255
217 233 255
217 233 255
217 233 255
217 233 255
217 233 255
217 233 255
217 233 255
217 233 255
217 233 255
217 233 255
217 233 255
217 233 255
217 233 255
217 233 255
217 233 255
217 233 255
217 233 255
217 233 255
217 233 255
217 233 255
217 233 255
217 233 255
217 233 255
217 233 255
217 233 255
217 233 255
217 233 255
217 233 255
217 233 255
217 233 255
217 233 255
217 233 255
217 233 255
217 233 255
217 233 255
217 233 255
217 233 255
217 233 255
217 233 255
217 233 255
217 233 255
217 233 255
217 233 255
217 233 255
217 233 255
217 233 255
217 233 255
217 233 255
217 233 255
217 233 255
217 233 255
217 233 255
217 233 255
217 233 255
217 233 255
217 233 255
217 233 255
217 233 255
217 233 255
217 233 255
217 233 255
217 233 255
217 233 255
217 233 255
217 233 255
217 233 255
217 233 255
166 179 199
30 33 62
0 0 49
0 0 49
0 0 49
0 0 48
0 0 48
0 0 51
0 0 52
0 0 53
0 0 53
0 0 53
0 0 51
0 0 51
0 0 50
0 0 51
0 0 49
0 0 49
0 0 50
0 0 51
0 0 50
0 0 51
0 0 54
0 6 62
12 32 42
32 42 11
61 63 36
63 64 39
79 75 51
104 95 74
116 110 86
124 118 93
111 102 73
104 96 67
95 91 65
98 98 71
111 107 78
157 160 157
153 158 147
67 82 49
67 75 41
68 72 41
85 85 55
98 95 68
111 106 77
124 119 89
76 83 45
50 58 23
62 68 37
59 64 33
88 94 65
89 96 68
85 92 63
88 93 65
81 89 58
76 86 52
75 87 49
66 79 39
55 71 28
48 67 24
51 71 29
46 64 23
49 69 29
50 70 28
45 66 21
42 64 17
45 69 22
43 67 16
44 69 16
42 66 16
44 66 16
42 65 16
40 63 8
40 63 0
39 64 10
36 61 8
38 64 6
37 63 15
37 64 14
37 65 9
35 61 0
36 64 4
44 65 11
46 63 17
42 64 16
42 65 9
37 64 3
41 64 12
37 60 6
37 59 5
37 59 0
33 56 0
31 54 0
31 55 0
36 56 0
36 57 4
33 57 6
32 60 10
32 57 10
38 75 53
16 63 76
3 42 76
2 20 72
0 8 77
0 15 76
0 14 75
0 8 74
0 13 76
0 11 73
0 0 68
0 0 66
0 0 64
0 0 66
0 0 64
0 0 65
0 0 64
0 0 59
0 0 55
0 0 55
0 0 55
0 0 53
0 0 50
0 0 55
0 0 58
0 0 60
0 0 55
0 0 58
0 0 58
0 0 59
0 0 62
0 0 62
0 0 65
0 0 59
0 0 51
0 0 45
0 0 46
0 0 52
0 0 53
0 0 53
0 0 57
0 0 58
0 0 57
0 0 61
0 0 62
0 0 61
0 1 67
0 6 67
165 177 199
217 233 255
217 233 255
217 233 255
217 233 255
217 233 255
217 233 255
217 233 255
217 233 255
217 233 255
217 233 255
217 233 255
217 233 255
217 233 255
217 233 255
217 233 255
217 233 255
217 233 255
217 233 255
217 233 255
217 233 255
217 233 255
217 233 255
217 233 255
217 233 255
217 233 255
217 233 255
217 233 255
217 233 255
217 233 255
217 233 255
217 233 255
217 233 255
217 233 255
217 233 255
217 233 255
217 233 255
217 233 255
217 233 255
217 233 255
217 233 255
217 233 255
217 233 255
217 233 255
217 233 255
217 233 255
217 233 255
217 233 255
217 233 255
217 233 255
217 233 255
217 233 255
217 233 255
217 233 255
217 233 255
217 233 255
217 233 255
217 233 255
217 233 255
217 233 255
217 233 255
217 233 255
217 233 255
217 233 255
217 233 255
217 233 255
217 233 255
217 233 255
217 233 255
217 233 255
217 233 255
217 233 255
217 233 255
217 233 255
217 233 255
217 233 255
217 233 255
217 233 255
217 233 255
217 233 255
217 233 255
217 233 255
217 233 255
217 233 255
217 233 255
217 233 255
217 233 255
217 233 255
217 233 255
217 233 255
217 233 255
217 233 255
217 233 255
217 233 255
217 233 255
217 233 255
217 233 255
217 233 255
217 233 255
217 233 255
217 233 255
217 233 255
217 233 255
217 233 255
217 233 255
217 233 255
217 233 255
217 233 255
217 233 255
217 233 255
217 233 255
217 233 255
217 233 255
217 233 255
217 233 255
217 233 255
217 233 255
217 233 255
217 233 255
217 233 255
217 233 255
217 233 255
217 233 255
217 233 255
217 233 255
217 233 255
217 233 255
217 233 255
217 233 255
217 233 255
217 233 255
217 233 255
217 233 255
217 233 255
217 233 255
217 233 255
217 233 255
217 233 255
217 233 255
217 233 255
217 233 255
217 233 255
217 233 255
217 233 255
217 233 255
217 233 255
217 233 255
217 233 255
217 233 255
217 233 255
217 233 255
217 233 255
217 233 255
217 233 255
217 233 255
217 233 255
217 233 255
217 233 255
217 233 255
217 233 255
217 233 255
217 233 255
217 233 255
217 233 255
217 233 255
217 233 255
217 233 255
217 233 255
217 233 255
217 233 255
217 233 255
217 233 255
217 233 255
217 233 255
217 233 255
217 233 255
217 233 255
217 233 255
217 233 255
217 233 255
217 233 255
217 233 255
217 233 255
217 233 255
217 233 255
217 233 255
217 233 255
217 233 255
217 233 255
217 233 255
217 233 255
217 233 255
217 233 255
217 233 255
217 233 255
217 233 255
217 233 255
217 233 255
217 233 255
217 233 255
217 233 255
217 233 255
217 233 255
217 233 255
217 233 255
217 233 255
217 233 255
217 233 255
217 233 255
217 233 255
217 233 255
217 233 255
217 233 255
217 233 255
217 233 255
217 233 255
217 233 255
217 233 255
217 233 255
217 233 255
217 233 255
217 233 255
217 233 255
217 233 255
217 233 255
217 233 255
217 233 255
217 233 255
217 233 255
217 233 255
217 233 255
217 233 255
217 233 255
217 233 255
217 233 255
217 233 255
217 233 255
217 233 255
217 233 255
217 233 255
217 233 255
217 233 255
217 233 255
217 233 255
217 233 255
217 233 255
217 233 255
217 233 255
217 233 255
217 233 255
217 233 255
217 233 255
159 171 191
0 0 51
0 0 51
0 0 52
0 0 49
0 0 48
0 0 49
0 0 53
0 0 53
0 0 52
0 0 53
0 0 55
0 0 54
0 0 51
0 0 50
0 0 49
0 0 50
0 0 48
0 0 45
0 0 47
0 0 50
0 0 52
0 0 54
0 0 64
7 23 61
22 37 0
37 48 13
38 45 14
63 63 41
91 84 61
125 118 97
135 132 108
120 112 83
117 109 81
112 104 75
104 99 71
115 108 77
132 133 105
190 200 196
126 118 91
92 95 66
59 68 33
92 93 64
117 109 87
125 120 94
94 97 65
73 79 51
51 61 29
51 59 22
45 52 18
61 70 35
86 94 59
86 93 63
85 92 59
86 92 60
86 93 60
83 91 56
80 90 52
77 89 47
73 85 42
71 85 42
67 81 42
63 76 37
61 75 37
51 70 28
45 68 23
43 65 16
44 68 18
44 70 18
42 68 16
43 67 16
44 67 16
42 66 15
40 64 5
39 62 0
37 62 11
37 61 8
35 61 10
35 62 2
36 60 11
40 65 5
44 67 0
38 63 0
36 63 5
42 66 9
37 64 13
49 68 22
34 61 2
33 58 5
30 56 0
32 58 0
34 58 0
31 55 0
30 54 0
32 55 2
41 61 11
40 61 12
41 64 12
42 62 19
41 56 13
20 48 57
0 13 79
0 4 67
0 2 68
0 6 66
0 8 70
0 5 66
0 6 66
0 0 63
0 0 56
0 0 59
0 0 63
0 0 65
0 0 64
0 0 65
0 0 65
0 0 60
0 0 55
0 0 51
0 0 51
0 0 49
0 0 51
0 0 52
0 0 49
0 0 53
0 0 54
0 0 52
0 0 51
0 0 54
0 0 55
0 0 55
0 0 57
0 0 60
0 0 61
0 0 54
0 0 49
0 0 46
0 0 48
0 0 52
0 0 53
0 0 55
0 0 59
0 0 56
0 0 58
0 0 62
0 0 60
0 0 62
0 0 66
0 0 60
161 173 194
217 233 255
217 233 255
217 233 255
217 233 255
217 233 255
217 233 255
217 233 255
217 233 255
217 233 255
217 233 255
217 233 255
217 233 255
217 233 255
217 233 255
217 233 255
217 233 255
217 233 255
217 233 255
217 233 255
217 233 255
217 233 255
217 233 255
217 233 255
217 233 255
217 233 255
217 233 255
217 233 255
217 233 255
217 233 255
217 233 255
217 233 255
217 233 255
217 233 255
217 233 255
217 233 255
217 233 255
217 233 255
217 233 255
217 233 255
217 233 255
217 233 255
217 233 255
217 233 255
217 233 255
217 233 255
217 233 255
217 233 255
217 233 255
217 233 255
217 233 255
217 233 255
217 233 255
217 233 255
217 233 255
217 233 255
217 233 255
217 233 255
217 233 255
217 233 255
217 233 255
217 233 255
217 233 255
217 233 255
217 233 255
217 233 255
217 233 255
217 233 255
217 233 255
217 233 255
217 233 255
217 233 255
217 233 255
217 233 255
217 233 255
217 233 255
217 233 255
217 233 255
217 233 255
217 233 255
217 233 255
217 233 255
217 233 255
217 233 255
217 233 255
217 233 255
217 233 255
217 233 255
217 233 255
217 233 255
217 233 255
217 233 255
217 233 255
217 233 255
217 233 255
217 233 255
217 233 255
217 233 255
217 233 255
217 233 255
217 233 255
217 233 255
217 233 255
217 233 255
217 233 255
217 233 255
217 233 255
217 233 255
217 233 255
217 233 255
217 233 255
217 233 255
217 233 255
217 233 255
217 233 255
217 233 255
217 233 255
217 233 255
217 233 255
217 233 255
217 233 255
217 233 255
217 233 255
217 233 255
217 233 255
217 233 255
217 233 255
217 233 255
217 233 255
217 233 255
217 233 255
217 233 255
217 233 255
217 233 255
217 233 255
217 233 255
217 233 255
217 233 255
217 233 255
217 233 255
217 233 255
217 233 255
217 233 255
217 233 255
217 233 255
217 233 255
217 233 255
217 233 255
217 233 255
217 233 255
217 233 255
217 233 255
217 233 255
217 233 255
217 233 255
217 233 255
217 233 255
217 233 255
217 233 255
217 233 255
217 233 255
217 233 255
217 233 255
217 233 255
217 233 255
217 233 255
217 233 255
217 233 255
217 233 255
217 233 255
217 233 255
217 233 255
217 233 255
217 233 255
217 233 255
217 233 255
217 233 255
217 233 255
217 233 255
217 233 255
217 233 255
217 233 255
217 233 255
217 233 255
217 233 255
217 233 255
217 233 255
217 233 255
217 233 255
217 233 255
217 233 255
217 233 255
217 233 255
217 233 255
217 233 255
217 233 255
217 233 255
217 233 255
217 233 255
217 233 255
217 233 255
217 233 255
217 233 255
217 233 255
217 233 255
217 233 255
217 233 255
217 233 255
217 233 255
217 233 255
217 233 255
217 233 255
217 233 255
217 233 255
217 233 255
217 233 255
217 233 255
217 233 255
217 233 255
217 233 255
217 233 255
217 233 255
217 233 255
217 233 255
217 233 255
217 233 255
217 233 255
217 233 255
217 233 255
217 233 255
217 233 255
217 233 255
217 233 255
217 233 255
217 233 255
217 233 255
217 233 255
217 233 255
217 233 255
217 233 255
217 233 255
217 233 255
217 233 255
217 233 255
217 233 255
217 233 255
217 233 255
217 233 255
217 233 255
217 233 255
137 147 166
0 0 50
0 0 51
0 0 51
0 0 49
0 0 49
0 0 49
0 0 55
0 0 57
0 0 54
0 0 54
0 0 56
0 0 53
0 0 51
0 0 48
0 0 48
0 0 48
0 0 47
0 0 43
0 0 45
0 0 49
0 0 50
0 0 53
0 0 55
1 10 69
25 44 18
43 47 16
78 76 43
41 45 12
63 63 37
111 102 81
133 127 101
133 126 96
119 112 85
111 104 77
109 105 78
102 100 74
109 104 77
133 127 98
147 146 120
130 121 93
84 88 57
90 92 65
111 107 81
103 104 75
110 101 76
81 84 52
56 64 33
49 60 22
53 57 26
59 62 35
52 56 28
82 90 60
85 91 58
86 91 59
89 94 63
89 94 63
85 92 59
80 89 51
82 89 49
81 89 47
71 84 41
71 83 42
67 83 40
62 77 35
54 72 28
48 69 24
46 67 22
47 70 20
42 66 16
44 68 20
41 66 11
42 67 12
40 65 10
40 64 5
41 64 13
40 62 10
41 64 15
40 64 15
39 64 10
40 65 8
36 62 1
35 60 0
35 60 0
37 64 3
39 63 5
39 63 4
33 56 6
30 56 0
31 56 0
30 55 0
29 55 0
31 56 0
30 54 0
30 54 0
37 58 7
38 62 8
39 60 23
29 82 51
35 68 45
28 66 46
6 32 78
0 10 67
0 0 64
0 0 68
0 0 61
0 0 55
0 0 49
0 0 50
0 0 49
0 0 47
0 0 43
0 0 48
0 0 55
0 0 57
0 0 57
0 0 56
0 0 53
0 0 50
0 0 51
0 0 51
0 0 47
0 0 45
0 0 47
0 0 48
0 0 51
0 0 54
0 0 50
0 0 49
0 0 50
0 0 52
0 0 54
0 0 54
0 0 54
0 0 58
0 0 56
0 0 52
0 0 50
0 0 48
0 0 50
0 0 53
0 0 52
0 0 54
0 0 57
0 0 56
0 0 57
0 0 60
0 0 57
0 0 61
0 0 62
0 0 57
153 165 186
217 233 255
217 233 255
217 233 255
217 233 255
217 233 255
217 233 255
217 233 255
217 233 255
217 233 255
217 233 255
217 233 255
217 233 255
217 233 255
217 233 255
217 233 255
217 233 255
217 233 255
217 233 255
217 233 255
217 233 255
217 233 255
217 233 255
217 233 255
217 233 255
217 233 255
217 233 255
217 233 255
217 233 255
217 233 255
217 233 255
217 233 255
217 233 255
217 233 255
217 233 255
217 233 255
217 233 255
217 233 255
217 233 255
217 233 255
217 233 255
217 233 255
217 233 255
217 233 255
217 233 255
217 233 255
217 233 255
217 233 255
217 233 255
217 233 255
217 233 255
217 233 255
217 233 255
217 233 255
217 233 255
217 233 255
217 233 255
217 233 255
217 233 255
217 233 255
217 233 255
217 233 255
217 233 255
217 233 255
217 233 255
217 233 255
217 233 255
217 233 255
217 233 255
217 233 255
217 233 255
217 233 255
217 233 255
217 233 255
217 233 255
217 233 255
217 233 255
217 233 255
217 233 255
217 233 255
217 233 255
217 233 255
217 233 255
217 233 255
217 233 255
217 233 255
217 233 255
217 233 255
217 233 255
217 233 255
217 233 255
217 233 255
217 233 255
217 233 255
217 233 255
217 233 255
217 233 255
217 233 255
217 233 255
217 233 255
217 233 255
217 233 255
217 233 255
217 233 255
217 233 255
217 233 255
217 233 255
217 233 255
217 233 255
217 233 255
217 233 255
217 233 255
217 233 255
217 233 255
217 233 255
217 233 255
217 233 255
217 233 255
217 233 255
217 233 255
217 233 255
217 233 255
217 233 255
217 233 255
217 233 255
217 233 255
217 233 255
217 233 255
217 233 255
217 233 255
217 233 255
217 233 255
217 233 255
217 233 255
217 233 255
217 233 255
217 233 255
217 233 255
217 233 255
217 233 255
217 233 255
217 233 255
217 233 255
217 233 255
217 233 255
217 233 255
217 233 255
217 233 255
217 233 255
217 233 255
217 233 255
217 233 255
217 233 255
217 233 255
217 233 255
217 233 255
217 233 255
217 233 255
217 233 255
217 233 255
217 233 255
217 233 255
217 233 255
217 233 255
217 233 255
217 233 255
217 233 255
217 233 255
217 233 255
217 233 255
217 233 255
217 233 255
217 233 255
217 233 255
217 233 255
217 233 255
217 233 255
217 233 255
217 233 255
217 233 255
217 233 255
217 233 255
217 233 255
217 233 255
217 233 255
217 233 255
217 233 255
217 233 255
217 233 255
217 233 255
217 233 255
217 233 255
217 233 255
217 233 255
217 233 255
217 233 255
217 233 255
217 233 255
217 233 255
217 233 255
217 233 255
217 233 255
217 233 255
217 233 255
217 233 255
217 233 255
217 233 255
217 233 255
217 233 255
217 233 255
217 233 255
217 233 255
217 233 255
217 233 255
217 233 255
217 233 255
217 233 255
217 233 255
217 233 255
217 233 255
217 233 255
217 233 255
217 233 255
217 233 255
217 233 255
217 233 255
217 233 255
217 233 255
217 233 255
217 233 255
217 233 255
217 233 255
217 233 255
217 233 255
217 233 255
217 233 255
217 233 255
217 233 255
217 233 255
217 233 255
217 233 255
217 233 255
217 233 255
217 233 255
217 233 255
217 233 255
217 233 255
217 233 255
152 163 182
0 0 49
0 0 50
0 0 49
0 0 49
0 0 50
0 0 50
0 0 57
0 0 57
0 0 54
0 0 52
0 0 55
0 0 53
0 0 50
0 0 46
0 0 46
0 0 47
0 0 46
0 0 45
0 0 45
0 0 48
0 0 50
0 0 52
0 0 55
0 6 65
5 14 68
34 47 18
67 68 34
75 77 40
36 46 13
63 63 38
116 106 83
141 133 107
118 110 84
109 104 78
108 102 75
115 109 83
101 96 72
116 108 78
146 140 115
148 140 113
98 96 65
103 97 71
151 137 109
164 143 118
133 118 98
94 88 64
90 90 60
55 61 25
53 63 29
63 65 33
70 72 46
75 80 55
96 102 71
96 101 65
97 102 66
95 102 65
92 97 60
84 91 54
87 93 56
89 94 57
85 91 53
77 85 47
75 83 44
69 81 41
63 78 36
53 74 29
50 71 27
47 68 23
46 69 20
45 68 18
41 64 12
41 62 3
42 62 0
40 60 0
39 58 1
44 63 10
42 66 14
42 66 14
44 68 16
41 65 14
38 64 5
36 61 0
36 60 0
37 63 0
35 61 0
40 68 0
36 63 0
29 53 0
32 57 0
32 56 0
32 57 0
30 57 0
28 53 0
28 53 0
34 57 0
33 59 0
32 59 10
31 56 16
25 103 70
33 64 22
18 52 75
0 16 77
0 0 62
0 0 68
0 0 66
0 0 59
0 0 51
0 0 46
0 0 47
0 0 47
0 0 45
0 0 42
0 0 42
0 0 45
0 0 49
0 0 53
0 0 50
0 0 50
0 0 47
0 0 46
0 0 47
0 0 45
0 0 46
0 0 45
0 0 44
0 0 48
0 0 51
0 0 50
0 0 46
0 0 46
0 0 49
0 0 56
0 0 57
0 0 50
0 0 52
0 0 55
0 0 53
0 0 53
0 0 52
0 0 50
0 0 52
0 0 51
0 0 50
0 0 54
0 0 56
0 0 53
0 0 52
0 0 53
0 0 54
0 0 58
0 0 57
0 0 57
156 168 189
217 233 255
217 233 255
217 233 255
217 233 255
217 233 255
217 233 255
217 233 255
217 233 255
217 233 255
217 233 255
217 233 255
217 233 255
217 233 255
217 233 255
217 233 255
217 233 255
217 233 255
217 233 255
217 233 255
217 233 255
217 233 255
217 233 255
217 233 255
217 233 255
217 233 255
217 233 255
217 233 255
217 233 255
217 233 255
217 233 255
217 233 255
217 233 255
217 233 255
217 233 255
217 233 255
217 233 255
217 233 255
217 233 255
217 233 255
217 233 255
217 233 255
217 233 255
217 233 255
217 233 255
217 233 255
217 233 255
217 233 255
217 233 255
217 233 255
217 233 255
217 233 255
217 233 255
217 233 255
217 233 255
217 233 255
217 233 255
217 233 255
217 233 255
217 233 255
217 233 255
217 233 255
217 233 255
217 233 255
217 233 255
217 233 255
217 233 255
217 233 255
217 233 255
217 233 255
217 233 255
217 233 255
217 233 255
217 233 255
217 233 255
217 233 255
217 233 255
217 233 255
217 233 255
217 233 255
217 233 255
217 233 255
217 233 255
217 233 255
217 233 255
217 233 255
217 233 255
217 233 255
217 233 255
217 233 255
217 233 255
217 233 255
217 233 255
217 233 255
217 233 255
217 233 255
217 233 255
217 233 255
217 233 255
217 233 255
217 233 255
217 233 255
217 233 255
217 233 255
217 233 255
217 233 255
217 233 255
217 233 255
217 233 255
217 233 255
217 233 255
217 233 255
217 233 255
217 233 255
217 233 255
217 233 255
217 233 255
217 233 255
217 233 255
217 233 255
217 233 255
217 233 255
217 233 255
217 233 255
217 233 255
217 233 255
217 233 255
217 233 255
217 233 255
217 233 255
217 233 255
217 233 255
217 233 255
217 233 255
217 233 255
217 233 255
217 233 255
217 233 255
217 233 255
217 233 255
217 233 255
217 233 255
217 233 255
217 233 255
217 233 255
217 233 255
217 233 255
217 233 255
217 233 255
217 233 255
217 233 255
217 233 255
217 233 255
217 233 255
217 233 255
217 233 255
217 233 255
217 233 255
217 233 255
217 233 255
217 233 255
217 233 255
217 233 255
217 233 255
217 233 255
217 233 255
217 233 255
217 233 255
217 233 255
217 233 255
217 233 255
217 233 255
217 233 255
217 233 255
217 233 255
217 233 255
217 233 255
217 233 255
217 233 255
217 233 255
217 233 255
217 233 255
217 233 255
217 233 255
217 233 255
217 233 255
217 233 255
217 233 255
217 233 255
217 233 255
217 233 255
217 233 255
217 233 255
217 233 255
217 233 255
217 233 255
217 233 255
217 233 255
217 233 255
217 233 255
217 233 255
217 233 255
217 233 255
217 233 255
217 233 255
217 233 255
217 233 255
217 233 255
217 233 255
217 233 255
217 233 255
217 233 255
217 233 255
217 233 255
217 233 255
217 233 255
217 233 255
217 233 255
217 233 255
217 233 255
217 233 255
217 233 255
217 233 255
217 233 255
217 233 255
217 233 255
217 233 255
217 233 255
217 233 255
217 233 255
217 233 255
217 233 255
217 233 255
217 233 255
217 233 255
217 233 255
217 233 255
217 233 255
217 233 255
217 233 255
217 233 255
217 233 255
217 233 255
217 233 255
217 233 255
217 233 255
159 171 191
0 0 48
0 0 51
0 0 50
0 0 49
0 0 49
0 0 50
0 0 55
0 0 51
0 0 51
0 0 49
0 0 53
0 0 54
0 0 50
0 0 47
0 0 45
0 0 45
0 0 45
0 0 45
0 0 46
0 0 49
0 0 52
0 0 52
0 0 51
0 0 56
0 0 61
12 22 55
48 56 22
79 80 41
79 83 40
40 49 15
66 67 45
113 111 85
130 124 101
117 112 85
117 112 84
122 118 93
123 118 92
104 100 72
108 102 73
126 117 89
87 83 58
75 74 48
131 117 90
163 137 112
144 119 96
115 98 80
83 84 61
59 66 33
54 62 28
57 62 31
81 84 54
64 67 38
92 95 68
106 108 75
95 98 61
96 101 59
91 97 53
86 93 50
77 85 47
82 90 52
88 96 57
81 89 50
79 86 48
79 83 45
75 83 41
61 78 32
53 76 28
56 75 29
53 73 26
46 69 19
42 64 14
38 61 8
40 62 7
39 61 5
36 57 0
31 54 0
35 57 0
39 64 5
39 62 3
42 65 6
42 66 9
42 66 4
36 61 0
38 64 0
39 66 0
39 67 4
43 73 8
35 62 0
31 58 0
31 55 0
31 55 0
30 57 0
31 57 0
30 55 0
30 55 0
32 55 0
35 59 0
33 55 0
29 66 17
23 99 90
23 103 97
17 44 75
0 11 69
0 0 67
0 0 60
0 0 58
0 0 54
0 0 49
0 0 45
0 0 43
0 0 43
0 0 43
0 0 42
0 0 43
0 0 46
0 0 49
0 0 50
0 0 48
0 0 47
0 0 45
0 0 45
0 0 45
0 0 44
0 0 45
0 0 45
0 0 46
0 0 46
0 0 45
0 0 45
0 0 45
0 0 46
0 0 47
0 0 50
0 0 57
0 0 54
0 0 49
0 0 51
0 0 53
0 0 53
0 0 54
0 0 52
0 0 51
0 0 52
0 0 48
0 0 48
0 0 50
0 0 53
0 0 48
0 0 49
0 0 50
0 0 53
0 0 55
0 0 55
0 0 58
145 156 177
217 233 255
217 233 255
217 233 255
217 233 255
217 233 255
217 233 255
217 233 255
217 233 255
217 233 255
217 233 255
217 233 255
217 233 255
217 233 255
217 233 255
217 233 255
217 233 255
217 233 255
217 233 255
217 233 255
217 233 255
217 233 255
217 233 255
217 233 255
217 233 255
217 233 255
217 233 255
217 233 255
217 233 255
217 233 255
217 233 255
217 233 255
217 233 255
217 233 255
217 233 255
217 233 255
217 233 255
217 233 255
217 233 255
217 233 255
217 233 255
217 233 255
217 233 255
217 233 255
217 233 255
217 233 255
217 233 255
217 233 255
217 233 255
217 233 255
217 233 255
217 233 255
217 233 255
217 233 255
217 233 255
217 233 255
217 233 255
217 233 255
217 233 255
217 233 255
217 233 255
217 233 255
217 233 255
217 233 255
217 233 255
217 233 255
217 233 255
217 233 255
217 233 255
217 233 255
217 233 255
217 233 255
217 233 255
217 233 255
217 233 255
217 233 255
217 233 255
217 233 255
217 233 255
217 233 255
217 233 255
217 233 255
217 233 255
217 233 255
217 233 255
217 233 255
217 233 255
217 233 255
217 233 255
217 233 255
217 233 255
217 233 255
217 233 255
217 233 255
217 233 255
217 233 255
217 233 255
217 233 255
217 233 255
217 233 255
217 233 255
217 233 255
217 233 255
217 233 255
217 233 255
217 233 255
217 233 255
217 233 255
217 233 255
217 233 255
217 233 255
217 233 255
217 233 255
217 233 255
217 233 255
217 233 255
217 233 255
217 233 255
217 233 255
217 233 255
217 233 255
217 233 255
217 233 255
217 233 255
217 233 255
217 233 255
217 233 255
217 233 255
217 233 255
217 233 255
217 233 255
217 233 255
217 233 255
217 233 255
217 233 255
217 233 255
217 233 255
217 233 255
217 233 255
217 233 255
217 233 255
217 233 255
217 233 255
217 233 255
217 233 255
217 233 255
217 233 255
217 233 255
217 233 255
217 233 255
217 233 255
217 233 255
217 233 255
217 233 255
217 233 255
217 233 255
217 233 255
217 233 255
217 233 255
217 233 255
217 233 255
217 233 255
217 233 255
217 233 255
217 233 255
217 233 255
217 233 255
217 233 255
217 233 255
217 233 255
217 233 255
217 233 255
217 233 255
217 233 255
217 233 255
217 233 255
217 233 255
217 233 255
217 233 255
217 233 255
217 233 255
217 233 255
217 233 255
217 233 255
217 233 255
217 233 255
217 233 255
217 233 255
217 233 255
217 233 255
217 233 255
217 233 255
217 233 255
217 233 255
217 233 255
217 233 255
217 233 255
217 233 255
217 233 255
217 233 255
217 233 255
217 233 255
217 233 255
217 233 255
217 233 255
217 233 255
217 233 255
217 233 255
217 233 255
217 233 255
217 233 255
217 233 255
217 233 255
217 233 255
217 233 255
217 233 255
217 233 255
217 233 255
217 233 255
217 233 255
217 233 255
217 233 255
217 233 255
217 233 255
217 233 255
217 233 255
217 233 255
217 233 255
217 233 255
217 233 255
217 233 255
217 233 255
217 233 255
217 233 255
217 233 255
217 233 255
217 233 255
217 233 255
217 233 255
217 233 255
217 233 255
217 233 255
217 233 255
217 233 255
152 163 182
0 0 48
0 0 46
0 0 49
0 0 50
0 0 48
0 0 50
0 0 51
0 0 45
0 0 46
0 0 46
0 0 49
0 0 51
0 0 51
0 0 46
0 0 45
0 0 46
0 0 47
0 0 45
0 0 47
0 0 48
0 0 50
0 0 51
0 0 52
0 0 52
0 0 56
0 0 63
20 30 68
64 71 40
87 84 47
93 86 50
48 53 18
82 80 57
100 100 77
127 121 96
140 133 106
131 123 95
124 117 90
120 110 84
103 98 75
102 94 68
99 95 71
84 83 60
104 100 71
155 126 106
155 123 109
117 105 82
118 104 84
66 68 39
50 59 24
43 51 19
50 56 25
84 87 60
64 66 40
78 81 55
102 105 74
90 92 57
94 98 59
92 97 55
82 86 45
81 86 47
85 91 50
86 93 49
81 89 45
79 87 42
82 86 42
77 85 39
58 81 30
56 79 27
60 78 27
55 75 26
48 70 23
49 71 24
42 65 14
44 65 14
42 63 10
35 57 0
30 53 0
33 59 9
44 70 16
40 66 10
40 64 9
36 59 0
40 64 6
40 64 6
40 65 0
38 65 0
37 65 0
38 66 0
34 61 0
35 63 0
33 60 0
33 60 0
30 57 0
31 58 0
32 56 0
33 57 0
34 59 0
29 55 0
31 56 7
31 57 8
25 75 48
13 98 111
3 31 85
0 9 62
0 0 57
0 0 54
0 0 50
0 0 46
0 0 45
0 0 42
0 0 42
0 0 42
0 0 42
0 0 42
0 0 44
0 0 47
0 0 48
0 0 48
0 0 45
0 0 43
0 0 42
0 0 43
0 0 45
0 0 45
0 0 43
0 0 45
0 0 47
0 0 50
0 0 50
0 0 48
0 0 47
0 0 47
0 0 47
0 0 48
0 0 51
0 0 53
0 0 51
0 0 50
0 0 50
0 0 49
0 0 49
0 0 52
0 0 51
0 0 50
0 0 47
0 0 46
0 0 44
0 0 45
0 0 48
0 0 48
0 0 46
0 0 48
0 0 50
0 0 52
0 0 53
21 23 61
144 154 175
217 233 255
217 233 255
217 233 255
217 233 255
217 233 255
217 233 255
217 233 255
217 233 255
217 233 255
217 233 255
217 233 255
217 233 255
217 233 255
217 233 255
217 233 255
217 233 255
217 233 255
217 233 255
217 233 255
217 233 255
217 233 255
217 233 255
217 233 255
217 233 255
217 233 255
217 233 255
217 233 255
217 233 255
217 233 255
217 233 255
217 233 255
217 233 255
217 233 255
217 233 255
217 233 255
217 233 255
217 233 255
217 233 255
217 233 255
217 233 255
217 233 255
217 233 255
217 233 255
217 233 255
217 233 255
217 233 255
217 233 255
217 233 255
217 233 255
217 233 255
217 233 255
217 233 255
217 233 255
217 233 255
217 233 255
217 233 255
217 233 255
217 233 255
217 233 255
217 233 255
217 233 255
217 233 255
217 233 255
217 233 255
217 233 255
217 233 255
217 233 255
217 233 255
217 233 255
217 233 255
217 233 255
217 233 255
217 233 255
217 233 255
217 233 255
217 233 255
217 233 255
217 233 255
217 233 255
217 233 255
217 233 255
217 233 255
217 233 255
217 233 255
217 233 255
217 233 255
217 233 255
217 233 255
217 233 255
217 233 255
217 233 255
217 233 255
217 233 255
217 233 255
217 233 255
217 233 255
217 233 255
217 233 255
217 233 255
217 233 255
217 233 255
217 233 255
217 233 255
217 233 255
217 233 255
217 233 255
217 233 255
217 233 255
217 233 255
217 233 255
217 233 255
217 233 255
217 233 255
217 233 255
217 233 255
217 233 255
217 233 255
217 233 255
217 233 255
217 233 255
217 233 255
217 233 255
217 233 255
217 233 255
217 233 255
217 233 255
217 233 255
217 233 255
217 233 255
217 233 255
217 233 255
217 233 255
217 233 255
217 233 255
217 233 255
217 233 255
217 233 255
217 233 255
217 233 255
217 233 255
217 233 255
217 233 255
217 233 255
217 233 255
217 233 255
217 233 255
217 233 255
217 233 255
217 233 255
217 233 255
217 233 255
217 233 255
217 233 255
217 233 255
217 233 255
217 233 255
217 233 255
217 233 255
217 233 255
217 233 255
217 233 255
217 233 255
217 233 255
217 233 255
217 233 255
217 233 255
217 233 255
217 233 255
217 233 255
217 233 255
217 233 255
217 233 255
217 233 255
217 233 255
217 233 255
217 233 255
217 233 255
217 233 255
217 233 255
217 233 255
217 233 255
217 233 255
217 233 255
217 233 255
217 233 255
217 233 255
217 233 255
217 233 255
217 233 255
217 233 255
217 233 255
217 233 255
217 233 255
217 233 255
217 233 255
217 233 255
217 233 255
217 233 255
217 233 255
217 233 255
217 233 255
217 233 255
217 233 255
217 233 255
217 233 255
217 233 255
217 233 255
217 233 255
217 233 255
217 233 255
217 233 255
217 233 255
217 233 255
217 233 255
217 233 255
217 233 255
217 233 255
217 233 255
217 233 255
217 233 255
217 233 255
217 233 255
217 233 255
217 233 255
217 233 255
217 233 255
217 233 255
217 233 255
217 233 255
217 233 255
217 233 255
217 233 255
217 233 255
217 233 255
217 233 255
217 233 255
217 233 255
217 233 255
217 233 255
217 233 255
217 233 255
175 188 208
0 0 48
0 0 47
0 0 47
0 0 48
0 0 46
0 0 47
0 0 47
0 0 42
0 0 45
0 0 46
0 0 48
0 0 50
0 0 49
0 0 45
0 0 45
0 0 45
0 0 45
0 0 45
0 0 45
0 0 46
0 0 47
0 0 48
0 0 49
0 0 51
0 0 55
0 1 59
0 16 72
3 46 101
58 70 47
89 87 53
92 90 51
69 65 33
69 71 45
115 110 87
121 114 88
129 117 90
124 112 85
130 120 96
126 113 88
122 109 83
125 108 88
119 101 78
125 106 83
161 132 110
144 117 94
176 135 113
176 138 114
168 152 129
127 119 91
89 93 63
65 70 44
60 65 34
77 77 52
54 56 30
74 78 53
91 92 64
93 96 64
92 97 60
90 95 57
87 90 54
94 97 60
91 95 55
85 91 45
84 91 42
81 87 34
80 86 34
73 84 33
59 80 27
52 75 21
53 73 23
48 68 17
43 65 11
40 61 10
38 60 0
40 59 0
44 64 15
41 61 8
40 61 12
48 74 22
50 75 26
40 63 11
41 66 11
31 55 0
36 62 7
42 67 9
39 64 0
37 63 0
32 59 0
31 57 0
35 60 0
36 64 0
38 68 0
36 65 0
32 59 0
34 61 0
34 59 0
34 58 0
33 57 0
31 58 0
30 58 0
36 59 0
32 63 23
30 62 56
0 27 74
0 0 61
0 0 55
0 0 50
0 0 46
0 0 42
0 0 42
0 0 41
0 0 40
0 0 41
0 0 44
0 0 45
0 0 45
0 0 46
0 0 45
0 0 42
0 0 43
0 0 42
0 0 44
0 0 44
0 0 45
0 0 45
0 0 44
0 0 45
0 0 46
0 0 52
0 0 53
0 0 49
0 0 47
0 0 48
0 0 49
0 0 50
0 0 51
0 0 52
0 0 50
0 0 48
0 0 48
0 0 49
0 0 48
0 0 49
0 0 50
0 0 50
0 0 47
0 0 45
0 0 44
0 0 43
0 0 44
0 0 46
0 0 47
0 0 44
0 0 46
0 0 49
0 0 52
0 0 52
30 33 64
180 194 215
217 233 255
217 233 255
217 233 255
217 233 255
217 233 255
217 233 255
217 233 255
217 233 255
217 233 255
217 233 255
217 233 255
217 233 255
217 233 255
217 233 255
217 233 255
217 233 255
217 233 255
217 233 255
217 233 255
217 233 255
217 233 255
217 233 255
217 233 255
217 233 255
217 233 255
217 233 255
217 233 255
217 233 255
217 233 255
217 233 255
217 233 255
217 233 255
217 233 255
217 233 255
217 233 255
217 233 255
217 233 255
217 233 255
217 233 255
217 233 255
217 233 255
217 233 255
217 233 255
217 233 255
217 233 255
217 233 255
217 233 255
217 233 255
217 233 255
217 233 255
217 233 255
217 233 255
217 233 255
217 233 255
217 233 255
217 233 255
217 233 255
217 233 255
217 233 255
217 233 255
217 233 255
217 233 255
217 233 255
217 233 255
217 233 255
217 233 255
217 233 255
217 233 255
217 233 255
217 233 255
217 233 255
217 233 255
217 233 255
217 233 255
217 233 255
217 233 255
217 233 255
217 233 255
217 233 255
217 233 255
217 233 255
217 233 255
217 233 255
217 233 255
217 233 255
217 233 255
217 233 255
217 233 255
217 233 255
217 233 255
217 233 255
217 233 255
217 233 255
217 233 255
217 233 255
217 233 255
217 233 255
217 233 255
217 233 255
217 233 255
217 233 255
217 233 255
217 233 255
217 233 255
217 233 255
217 233 255
217 233 255
217 233 255
217 233 255
217 233 255
217 233 255
217 233 255
217 233 255
217 233 255
217 233 255
217 233 255
217 233 255
217 233 255
217 233 255
217 233 255
217 233 255
217 233 255
217 233 255
217 233 255
217 233 255
217 233 255
217 233 255
217 233 255
217 233 255
217 233 255
217 233 255
217 233 255
217 233 255
217 233 255
217 233 255
217 233 255
217 233 255
217 233 255
217 233 255
217 233 255
217 233 255
217 233 255
217 233 255
217 233 255
217 233 255
217 233 255
217 233 255
217 233 255
217 233 255
217 233 255
217 233 255
217 233 255
217 233 255
217 233 255
217 233 255
217 233 255
217 233 255
217 233 255
217 233 255
217 233 255
217 233 255
217 233 255
217 233 255
217 233 255
217 233 255
217 233 255
217 233 255
217 233 255
217 233 255
217 233 255
217 233 255
217 233 255
217 233 255
217 233 255
217 233 255
217 233 255
217 233 255
217 233 255
217 233 255
217 233 255
217 233 255
217 233 255
217 233 255
217 233 255
217 233 255
217 233 255
217 233 255
217 233 255
217 233 255
217 233 255
217 233 255
217 233 255
217 233 255
217 233 255
217 233 255
217 233 255
217 233 255
217 233 255
217 233 255
217 233 255
217 233 255
217 233 255
217 233 255
217 233 255
217 233 255
217 233 255
217 233 255
217 233 255
217 233 255
217 233 255
217 233 255
217 233 255
217 233 255
217 233 255
217 233 255
217 233 255
217 233 255
217 233 255
217 233 255
217 233 255
217 233 255
217 233 255
217 233 255
217 233 255
217 233 255
217 233 255
217 233 255
217 233 255
217 233 255
217 233 255
217 233 255
217 233 255
217 233 255
217 233 255
217 233 255
217 233 255
217 233 255
217 233 255
217 233 255
182 195 215
21 23 53
0 0 46
0 0 48
0 0 46
0 0 45
0 0 44
0 0 42
0 0 42
0 0 44
0 0 45
0 0 50
0 0 51
0 0 48
0 0 46
0 0 46
0 0 46
0 0 45
0 0 45
0 0 45
0 0 45
0 0 45
0 0 48
0 0 49
0 0 49
0 0 51
0 0 56
0 6 62
0 16 76
3 19 76
56 62 51
96 90 57
89 95 56
92 92 64
75 77 46
126 122 96
130 122 99
140 129 106
134 122 97
131 120 95
140 128 100
125 110 83
122 106 86
117 102 81
117 103 76
178 141 117
145 126 101
132 117 93
134 109 95
151 143 111
150 142 110
126 117 91
73 74 48
85 84 59
53 54 29
68 74 48
93 93 71
107 103 77
99 99 66
87 91 53
88 93 54
87 92 52
87 92 53
84 89 48
80 86 41
79 86 35
82 88 36
80 88 37
63 75 29
53 70 23
52 72 20
54 74 24
42 61 0
42 63 12
34 55 0
34 54 0
36 56 0
36 55 4
46 66 18
52 75 27
53 76 27
50 73 23
49 73 21
42 65 7
29 54 0
33 59 0
38 64 0
40 66 0
37 62 0
33 59 0
34 60 0
36 64 0
32 60 0
32 60 0
29 55 0
34 58 0
39 62 0
40 64 0
39 63 0
34 56 0
38 58 0
35 65 5
39 66 8
35 63 10
28 78 48
13 68 87
0 9 59
0 0 51
0 0 44
0 0 40
0 0 42
0 0 42
0 0 42
0 0 42
0 0 45
0 0 45
0 0 45
0 0 45
0 0 44
0 0 42
0 0 41
0 0 42
0 0 43
0 0 46
0 0 47
0 0 47
0 0 45
0 0 46
0 0 44
0 0 45
0 0 47
0 0 50
0 0 47
0 0 46
0 0 48
0 0 50
0 0 51
0 0 52
0 0 54
0 0 51
0 0 48
0 0 48
0 0 48
0 0 48
0 0 49
0 0 49
0 0 49
0 0 47
0 0 45
0 0 44
0 0 42
0 0 43
0 0 45
0 0 47
0 0 46
0 0 45
0 0 46
0 0 49
0 0 50
0 0 47
0 0 51
180 194 214
217 233 255
217 233 255
217 233 255
217 233 255
217 233 255
217 233 255
217 233 255
217 233 255
217 233 255
217 233 255
217 233 255
217 233 255
217 233 255
217 233 255
217 233 255
217 233 255
217 233 255
217 233 255
217 233 255
217 233 255
217 233 255
217 233 255
217 233 255
217 233 255
217 233 255
217 233 255
217 233 255
217 233 255
217 233 255
217 233 255
217 233 255
217 233 255
217 233 255
217 233 255
217 233 255
217 233 255
217 233 255
217 233 255
217 233 255
217 233 255
217 233 255
217 233 255
217 233 255
217 233 255
217 233 255
217 233 255
217 233 255
217 233 255
217 233 255
217 233 255
217 233 255
217 233 255
217 233 255
217 233 255
217 233 255
217 233 255
217 233 255
217 233 255
217 233 255
217 233 255
217 233 255
217 233 255
217 233 255
217 233 255
217 233 255
217 233 255
217 233 255
217 233 255
217 233 255
217 233 255
217 233 255
217 233 255
217 233 255
217 233 255
217 233 255
217 233 255
217 233 255
217 233 255
217 233 255
217 233 255
217 233 255
217 233 255
217 233 255
217 233 255
217 233 255
217 233 255
217 233 255
217 233 255
217 233 255
217 233 255
217 233 255
217 233 255
217 233 255
217 233 255
217 233 255
217 233 255
217 233 255
217 233 255
217 233 255
217 233 255
217 233 255
217 233 255
217 233 255
217 233 255
217 233 255
217 233 255
217 233 255
217 233 255
217 233 255
217 233 255
217 233 255
217 233 255
217 233 255
217 233 255
217 233 255
217 233 255
217 233 255
217 233 255
217 233 255
217 233 255
217 233 255
217 233 255
217 233 255
217 233 255
217 233 255
217 233 255
217 233 255
217 233 255
217 233 255
217 233 255
217 233 255
217 233 255
217 233 255
217 233 255
217 233 255
217 233 255
217 233 255
217 233 255
217 233 255
217 233 255
217 233 255
217 233 255
217 233 255
217 233 255
217 233 255
217 233 255
217 233 255
217 233 255
217 233 255
217 233 255
217 233 255
217 233 255
217 233 255
217 233 255
217 233 255
217 233 255
217 233 255
217 233 255
217 233 255
217 233 255
217 233 255
217 233 255
217 233 255
217 233 255
217 233 255
217 233 255
217 233 255
217 233 255
217 233 255
217 233 255
217 233 255
217 233 255
217 233 255
217 233 255
217 233 255
217 233 255
217 233 255
217 233 255
217 233 255
217 233 255
217 233 255
217 233 255
217 233 255
217 233 255
217 233 255
217 233 255
217 233 255
217 233 255
217 233 255
217 233 255
217 233 255
217 233 255
217 233 255
217 233 255
217 233 255
217 233 255
217 233 255
217 233 255
217 233 255
217 233 255
217 233 255
217 233 255
217 233 255
217 233 255
217 233 255
217 233 255
217 233 255
217 233 255
217 233 255
217 233 255
217 233 255
217 233 255
217 233 255
217 233 255
217 233 255
217 233 255
217 233 255
217 233 255
217 233 255
217 233 255
217 233 255
217 233 255
217 233 255
217 233 255
217 233 255
217 233 255
217 233 255
217 233 255
217 233 255
217 233 255
217 233 255
217 233 255
217 233 255
217 233 255
217 233 255
217 233 255
217 233 255
187 201 221
21 23 54
0 0 47
0 0 48
0 0 45
0 0 42
0 0 42
0 0 42
0 0 42
0 0 42
0 0 43
0 0 46
0 0 48
0 0 47
0 0 45
0 0 45
0 0 46
0 0 45
0 0 45
0 0 45
0 0 45
0 0 44
0 0 47
0 0 49
0 0 50
0 0 47
0 0 48
0 0 52
0 0 63
0 8 70
8 11 63
67 68 46
96 88 60
97 100 65
89 95 58
75 73 48
141 132 102
139 126 98
143 134 109
136 128 102
135 121 94
129 116 90
112 100 75
105 93 71
112 102 86
104 93 71
172 140 119
152 133 107
131 112 93
98 92 69
114 107 81
132 124 96
128 123 93
108 105 79
99 95 71
71 68 44
88 87 66
101 94 76
110 105 82
106 106 73
91 96 55
91 97 53
84 87 45
87 91 49
85 89 46
82 86 41
82 86 37
79 85 35
78 88 40
58 74 26
53 73 23
50 69 18
48 67 16
52 71 19
49 70 17
42 62 6
39 59 7
40 60 8
46 67 18
49 71 22
49 71 19
50 71 19
48 69 16
42 63 9
36 57 0
33 57 0
38 63 7
42 68 0
38 64 0
34 60 0
35 61 0
34 60 0
28 57 0
29 58 0
29 56 0
34 56 0
42 63 0
42 62 3
43 64 10
35 56 0
38 58 5
41 66 15
44 69 17
40 67 11
31 57 7
22 99 78
12 104 115
0 23 62
0 0 44
0 0 41
0 0 40
0 0 42
0 0 42
0 0 42
0 0 42
0 0 42
0 0 42
0 0 43
0 0 43
0 0 42
0 0 42
0 0 42
0 0 42
0 0 43
0 0 47
0 0 46
0 0 48
0 0 46
0 0 47
0 0 47
0 0 48
0 0 47
0 0 47
0 0 48
0 0 47
0 0 46
0 0 49
0 0 49
0 0 50
0 0 53
0 0 53
0 0 48
0 0 47
0 0 48
0 0 48
0 0 48
0 0 48
0 0 47
0 0 46
0 0 45
0 0 45
0 0 43
0 0 43
0 0 43
0 0 45
0 0 45
0 0 43
0 0 44
0 0 45
0 0 44
0 0 50
0 0 45
30 33 61
197 211 232
217 233 255
217 233 255
217 233 255
217 233 255
217 233 255
217 233 255
217 233 255
217 233 255
217 233 255
217 233 255
217 233 255
217 233 255
217 233 255
217 233 255
217 233 255
217 233 255
217 233 255
217 233 255
217 233 255
217 233 255
217 233 255
217 233 255
217 233 255
217 233 255
217 233 255
217 233 255
217 233 255
217 233 255
217 233 255
217 233 255
217 233 255
217 233 255
217 233 255
217 233 255
217 233 255
217 233 255
217 233 255
217 233 255
217 233 255
217 233 255
217 233 255
217 233 255
217 233 255
217 233 255
217 233 255
217 233 255
217 233 255
217 233 255
217 233 255
217 233 255
217 233 255
217 233 255
217 233 255
217 233 255
217 233 255
217 233 255
217 233 255
217 233 255
217 233 255
217 233 255
217 233 255
217 233 255
217 233 255
217 233 255
217 233 255
217 233 255
217 233 255
217 233 255
217 233 255
217 233 255
217 233 255
217 233 255
217 233 255
217 233 255
217 233 255
217 233 255
217 233 255
217 233 255
217 233 255
217 233 255
217 233 255
217 233 255
217 233 255
217 233 255
217 233 255
217 233 255
217 233 255
217 233 255
217 233 255
217 233 255
217 233 255
217 233 255
217 233 255
217 233 255
217 233 255
217 233 255
217 233 255
217 233 255
217 233 255
217 233 255
217 233 255
217 233 255
217 233 255
217 233 255
217 233 255
217 233 255
217 233 255
217 233 255
217 233 255
217 233 255
217 233 255
217 233 255
217 233 255
217 233 255
217 233 255
217 233 255
217 233 255
217 233 255
217 233 255
217 233 255
217 233 255
217 233 255
217 233 255
217 233 255
217 233 255
217 233 255
217 233 255
217 233 255
217 233 255
217 233 255
217 233 255
217 233 255
217 233 255
217 233 255
217 233 255
217 233 255
217 233 255
217 233 255
217 233 255
217 233 255
217 233 255
217 233 255
217 233 255
217 233 255
217 233 255
217 233 255
217 233 255
217 233 255
217 233 255
217 233 255
217 233 255
217 233 255
217 233 255
217 233 255
217 233 255
217 233 255
217 233 255
217 233 255
217 233 255
217 233 255
217 233 255
217 233 255
217 233 255
217 233 255
217 233 255
217 233 255
217 233 255
217 233 255
217 233 255
217 233 255
217 233 255
217 233 255
217 233 255
217 233 255
217 233 255
217 233 255
217 233 255
217 233 255
217 233 255
217 233 255
217 233 255
217 233 255
217 233 255
217 233 255
217 233 255
217 233 255
217 233 255
217 233 255
217 233 255
217 233 255
217 233 255
217 233 255
217 233 255
217 233 255
217 233 255
217 233 255
217 233 255
217 233 255
217 233 255
217 233 255
217 233 255
217 233 255
217 233 255
217 233 255
217 233 255
217 233 255
217 233 255
217 233 255
217 233 255
217 233 255
217 233 255
217 233 255
217 233 255
217 233 255
217 233 255
217 233 255
217 233 255
217 233 255
217 233 255
217 233 255
217 233 255
217 233 255
217 233 255
217 233 255
217 233 255
217 233 255
217 233 255
217 233 255
217 233 255
217 233 255
217 233 255
217 233 255
217 233 255
217 233 255
217 233 255
204 219 240
72 77 98
0 0 48
0 0 49
0 0 44
0 0 41
0 0 42
0 0 42
0 0 42
0 0 42
0 0 42
0 0 42
0 0 43
0 0 45
0 0 45
0 0 46
0 0 45
0 0 45
0 0 45
0 0 45
0 0 45
0 0 45
0 0 45
0 0 48
0 0 48
0 0 48
0 0 45
0 0 46
0 0 50
0 0 59
0 0 59
3 5 64
49 54 55
101 92 56
116 107 77
106 101 72
123 114 86
168 152 118
164 149 120
161 149 120
145 133 103
138 123 94
129 116 90
107 98 73
101 93 72
79 73 51
76 70 47
148 122 102
159 131 114
149 125 110
116 103 80
89 85 60
106 97 73
137 119 98
109 100 77
112 107 87
102 95 76
109 100 82
106 98 78
102 98 76
92 93 60
86 90 52
84 89 49
82 83 46
87 87 52
87 88 49
88 89 47
86 86 44
82 86 41
72 82 35
60 77 27
55 74 19
50 69 16
43 61 10
39 57 6
38 58 5
36 55 0
34 55 0
38 57 4
46 69 18
44 68 17
50 73 19
47 70 16
42 64 11
37 60 3
37 60 0
35 59 0
40 66 11
42 69 0
39 65 0
38 62 0
39 62 0
33 56 0
33 59 0
33 58 0
34 59 0
43 65 10
37 56 0
38 57 0
41 61 7
39 60 3
44 67 11
42 67 9
34 59 0
34 60 0
21 43 26
20 61 67
0 30 58
0 0 43
0 0 40
0 0 41
0 0 42
0 0 41
0 0 42
0 0 42
0 0 42
0 0 42
0 0 42
0 0 42
0 0 42
0 0 42
0 0 42
0 0 42
0 0 42
0 0 42
0 0 44
0 0 45
0 0 46
0 0 46
0 0 45
0 0 45
0 0 45
0 0 45
0 0 45
0 0 47
0 0 48
0 0 47
0 0 50
0 0 50
0 0 50
0 0 51
0 0 52
0 0 49
0 0 48
0 0 48
0 0 48
0 0 48
0 0 48
0 0 46
0 0 46
0 0 45
0 0 45
0 0 43
0 0 41
0 0 42
0 0 42
0 0 45
0 0 43
0 0 42
0 0 42
0 0 42
0 0 43
0 0 45
0 0 45
72 77 96
205 220 241
217 233 255
217 233 255
217 233 255
217 233 255
217 233 255
217 233 255
217 233 255
217 233 255
217 233 255
217 233 255
217 233 255
217 233 255
217 233 255
217 233 255
217 233 255
217 233 255
217 233 255
217 233 255
217 233 255
217 233 255
217 233 255
217 233 255
217 233 255
217 233 255
217 233 255
217 233 255
217 233 255
217 233 255
217 233 255
217 233 255
217 233 255
217 233 255
217 233 255
217 233 255
217 233 255
217 233 255
217 233 255
217 233 255
217 233 255
217 233 255
217 233 255
217 233 255
217 233 255
217 233 255
217 233 255
217 233 255
217 233 255
217 233 255
217 233 255
217 233 255
217 233 255
217 233 255
217 233 255
217 233 255
217 233 255
217 233 255
217 233 255
217 233 255
217 233 255
217 233 255
217 233 255
217 233 255
217 233 255
217 233 255
217 233 255
217 233 255
217 233 255
217 233 255
217 233 255
217 233 255
217 233 255
217 233 255
217 233 255
217 233 255
217 233 255
217 233 255
217 233 255
217 233 255
217 233 255
217 233 255
217 233 255
217 233 255
217 233 255
217 233 255
217 233 255
217 233 255
217 233 255
217 233 255
217 233 255
217 233 255
217 233 255
217 233 255
217 233 255
217 233 255
217 233 255
217 233 255
217 233 255
217 233 255
217 233 255
217 233 255
217 233 255
217 233 255
217 233 255
217 233 255
217 233 255
217 233 255
217 233 255
217 233 255
217 233 255
217 233 255
217 233 255
217 233 255
217 233 255
217 233 255
217 233 255
217 233 255
217 233 255
217 233 255
217 233 255
217 233 255
217 233 255
217 233 255
217 233 255
217 233 255
217 233 255
217 233 255
217 233 255
217 233 255
217 233 255
217 233 255
217 233 255
217 233 255
217 233 255
217 233 255
217 233 255
217 233 255
217 233 255
217 233 255
217 233 255
217 233 255
217 233 255
217 233 255
217 233 255
217 233 255
217 233 255
217 233 255
217 233 255
217 233 255
217 233 255
217 233 255
217 233 255
217 233 255
217 233 255
217 233 255
217 233 255
217 233 255
217 233 255
217 233 255
217 233 255
217 233 255
217 233 255
217 233 255
217 233 255
217 233 255
217 233 255
217 233 255
217 233 255
217 233 255
217 233 255
217 233 255
217 233 255
217 233 255
217 233 255
217 233 255
217 233 255
217 233 255
217 233 255
217 233 255
217 233 255
217 233 255
217 233 255
217 233 255
217 233 255
217 233 255
217 233 255
217 233 255
217 233 255
217 233 255
217 233 255
217 233 255
217 233 255
217 233 255
217 233 255
217 233 255
217 233 255
217 233 255
217 233 255
217 233 255
217 233 255
217 233 255
217 233 255
217 233 255
217 233 255
217 233 255
217 233 255
217 233 255
217 233 255
217 233 255
217 233 255
217 233 255
217 233 255
217 233 255
217 233 255
217 233 255
217 233 255
217 233 255
217 233 255
217 233 255
217 233 255
217 233 255
217 233 255
217 233 255
217 233 255
217 233 255
217 233 255
217 233 255
217 233 255
217 233 255
217 233 255
217 233 255
217 233 255
217 233 255
217 233 255
204 219 240
72 77 97
0 0 49
0 0 47
0 0 43
0 0 42
0 0 42
0 0 42
0 0 42
0 0 42
0 0 42
0 0 42
0 0 42
0 0 45
0 0 45
0 0 47
0 0 47
0 0 45
0 0 45
0 0 45
0 0 45
0 0 45
0 0 44
0 0 46
0 0 47
0 0 47
0 0 45
0 0 43
0 0 44
0 0 50
0 0 57
0 0 51
0 7 67
40 50 79
77 75 42
94 92 59
104 97 66
168 155 121
168 153 121
171 154 124
166 152 123
162 151 125
145 130 100
133 120 94
110 99 72
91 81 56
81 83 57
65 68 40
86 73 52
110 97 79
126 109 86
111 105 80
95 93 70
105 98 75
129 112 93
113 102 79
108 101 80
120 108 89
119 110 87
113 104 84
110 101 79
102 97 70
97 93 66
98 94 68
94 90 65
95 92 64
97 94 60
100 96 60
102 96 59
91 90 54
75 83 40
58 75 26
55 74 25
51 70 21
44 64 11
41 61 6
38 58 1
38 58 0
33 54 0
31 49 0
37 58 9
40 66 11
42 70 10
45 73 17
36 60 0
39 64 0
40 66 1
37 61 1
40 64 0
39 65 0
38 65 0
39 63 0
36 59 0
39 61 0
42 61 0
40 60 0
37 58 0
31 54 0
34 56 0
37 56 0
39 60 4
45 68 14
40 64 2
41 65 0
31 52 22
16 31 39
0 4 41
0 2 43
0 0 40
0 0 45
0 0 40
0 0 42
0 0 43
0 0 40
0 0 42
0 0 42
0 0 42
0 0 42
0 0 42
0 0 42
0 0 42
0 0 42
0 0 42
0 0 42
0 0 42
0 0 42
0 0 43
0 0 44
0 0 45
0 0 45
0 0 43
0 0 45
0 0 45
0 0 45
0 0 45
0 0 45
0 0 46
0 0 47
0 0 49
0 0 50
0 0 50
0 0 50
0 0 52
0 0 50
0 0 47
0 0 46
0 0 47
0 0 47
0 0 47
0 0 47
0 0 47
0 0 46
0 0 45
0 0 43
0 0 42
0 0 42
0 0 42
0 0 43
0 0 42
0 0 42
0 0 40
0 0 41
0 0 41
0 0 44
0 2 46
0 0 45
102 109 126
213 229 250
217 233 255
217 233 255
217 233 255
217 233 255
217 233 255
217 233 255
217 233 255
217 233 255
217 233 255
217 233 255
217 233 255
217 233 255
217 233 255
217 233 255
217 233 255
217 233 255
217 233 255
217 233 255
217 233 255
217 233 255
217 233 255
217 233 255
217 233 255
217 233 255
217 233 255
217 233 255
217 233 255
217 233 255
217 233 255
217 233 255
217 233 255
217 233 255
217 233 255
217 233 255
217 233 255
217 233 255
217 233 255
217 233 255
217 233 255
217 233 255
217 233 255
217 233 255
217 233 255
217 233 255
217 233 255
217 233 255
217 233 255
217 233 255
217 233 255
217 233 255
217 233 255
217 233 255
217 233 255
217 233 255
217 233 255
217 233 255
217 233 255
217 233 255
217 233 255
217 233 255
217 233 255
217 233 255
217 233 255
217 233 255
217 233 255
217 233 255
217 233 255
217 233 255
217 233 255
217 233 255
217 233 255
217 233 255
217 233 255
217 233 255
217 233 255
217 233 255
217 233 255
217 233 255
217 233 255
217 233 255
217 233 255
217 233 255
217 233 255
217 233 255
217 233 255
217 233 255
217 233 255
217 233 255
217 233 255
217 233 255
217 233 255
217 233 255
217 233 255
217 233 255
217 233 255
217 233 255
217 233 255
217 233 255
217 233 255
217 233 255
217 233 255
217 233 255
217 233 255
217 233 255
217 233 255
217 233 255
217 233 255
217 233 255
217 233 255
217 233 255
217 233 255
217 233 255
217 233 255
217 233 255
217 233 255
217 233 255
217 233 255
217 233 255
217 233 255
217 233 255
217 233 255
217 233 255
217 233 255
217 233 255
217 233 255
217 233 255
217 233 255
217 233 255
217 233 255
217 233 255
217 233 255
217 233 255
217 233 255
217 233 255
217 233 255
217 233 255
217 233 255
217 233 255
217 233 255
217 233 255
217 233 255
217 233 255
217 233 255
217 233 255
217 233 255
217 233 255
217 233 255
217 233 255
217 233 255
217 233 255
217 233 255
217 233 255
217 233 255
217 233 255
217 233 255
217 233 255
217 233 255
217 233 255
217 233 255
217 233 255
217 233 255
217 233 255
217 233 255
217 233 255
217 233 255
217 233 255
217 233 255
217 233 255
217 233 255
217 233 255
217 233 255
217 233 255
217 233 255
217 233 255
217 233 255
217 233 255
217 233 255
217 233 255
217 233 255
217 233 255
217 233 255
217 233 255
217 233 255
217 233 255
217 233 255
217 233 255
217 233 255
217 233 255
217 233 255
217 233 255
217 233 255
217 233 255
217 233 255
217 233 255
217 233 255
217 233 255
217 233 255
217 233 255
217 233 255
217 233 255
217 233 255
217 233 255
217 233 255
217 233 255
217 233 255
217 233 255
217 233 255
217 233 255
217 233 255
217 233 255
217 233 255
217 233 255
217 233 255
217 233 255
217 233 255
217 233 255
217 233 255
217 233 255
217 233 255
217 233 255
217 233 255
217 233 255
217 233 255
217 233 255
217 233 255
217 233 255
217 233 255
217 233 255
217 233 255
217 233 255
217 233 255
217 233 255
121 130 147
0 0 48
0 0 45
0 0 43
0 0 42
0 0 42
0 0 42
0 0 42
0 0 42
0 0 42
0 0 42
0 0 42
0 0 44
0 0 45
0 0 45
0 0 46
0 0 45
0 0 45
0 0 45
0 0 45
0 0 45
0 0 43
0 0 43
0 0 45
0 0 46
0 0 45
0 0 42
0 0 42
0 0 44
0 0 46
0 0 50
0 2 58
0 11 64
25 32 72
30 31 58
51 59 48
78 84 60
92 90 58
103 96 66
158 152 125
170 165 136
170 165 141
152 141 114
146 131 104
140 124 98
118 105 78
104 95 64
82 77 49
72 71 48
54 56 27
54 58 29
62 64 36
93 90 65
105 97 71
131 115 91
118 107 82
90 88 63
124 111 91
123 112 88
114 106 83
110 100 81
114 101 80
118 103 80
114 100 80
102 96 72
100 91 66
105 97 67
97 93 53
89 90 49
76 86 39
74 85 38
70 83 35
66 82 34
58 74 27
49 70 16
44 64 5
41 62 9
39 60 8
28 48 0
27 47 0
30 50 6
43 67 14
44 72 8
42 71 10
36 60 0
36 60 0
40 67 10
33 58 4
32 58 0
38 60 0
36 61 0
33 59 0
36 59 0
39 60 0
41 62 0
36 56 0
32 51 0
37 57 0
40 61 0
45 64 12
42 63 13
36 56 3
37 59 5
24 49 44
5 12 51
4 9 48
0 0 43
0 0 40
0 0 42
0 0 43
0 0 40
0 0 41
0 0 44
0 0 42
0 0 42
0 0 42
0 0 42
0 0 42
0 0 42
0 0 42
0 0 42
0 0 42
0 0 42
0 0 42
0 0 42
0 0 42
0 0 42
0 0 42
0 0 42
0 0 42
0 0 42
0 0 44
0 0 45
0 0 45
0 0 45
0 0 45
0 0 43
0 0 43
0 0 45
0 0 49
0 0 48
0 0 48
0 0 49
0 0 50
0 0 47
0 0 45
0 0 44
0 0 44
0 0 45
0 0 45
0 0 45
0 0 44
0 0 44
0 0 43
0 0 42
0 0 42
0 0 42
0 0 42
0 0 42
0 0 42
0 0 42
0 0 41
0 0 41
0 0 41
0 0 42
0 0 43
0 0 44
123 132 149
216 232 254
217 233 255
217 233 255
217 233 255
217 233 255
217 233 255
217 233 255
217 233 255
217 233 255
217 233 255
217 233 255
217 233 255
217 233 255
217 233 255
217 233 255
217 233 255
217 233 255
217 233 255
217 233 255
217 233 255
217 233 255
217 233 255
217 233 255
217 233 255
217 233 255
217 233 255
217 233 255
217 233 255
217 233 255
217 233 255
217 233 255
217 233 255
217 233 255
217 233 255
217 233 255
217 233 255
217 233 255
217 233 255
217 233 255
217 233 255
217 233 255
217 233 255
217 233 255
217 233 255
217 233 255
217 233 255
217 233 255
217 233 255
217 233 255
217 233 255
217 233 255
217 233 255
217 233 255
217 233 255
217 233 255
217 233 255
217 233 255
217 233 255
217 233 255
217 233 255
217 233 255
217 233 255
217 233 255
217 233 255
217 233 255
217 233 255
217 233 255
217 233 255
217 233 255
217 233 255
217 233 255
217 233 255
217 233 255
217 233 255
217 233 255
217 233 255
217 233 255
217 233 255
217 233 255
217 233 255
217 233 255
217 233 255
217 233 255
217 233 255
217 233 255
217 233 255
217 233 255
217 233 255
217 233 255
217 233 255
217 233 255
217 233 255
217 233 255
217 233 255
217 233 255
217 233 255
217 233 255
217 233 255
217 233 255
217 233 255
217 233 255
217 233 255
217 233 255
217 233 255
217 233 255
217 233 255
217 233 255
217 233 255
217 233 255
217 233 255
217 233 255
217 233 255
217 233 255
217 233 255
217 233 255
217 233 255
217 233 255
217 233 255
217 233 255
217 233 255
217 233 255
217 233 255
217 233 255
217 233 255
217 233 255
217 233 255
217 233 255
217 233 255
217 233 255
217 233 255
217 233 255
217 233 255
217 233 255
217 233 255
217 233 255
217 233 255
217 233 255
217 233 255
217 233 255
217 233 255
217 233 255
217 233 255
217 233 255
217 233 255
217 233 255
217 233 255
217 233 255
217 233 255
217 233 255
217 233 255
217 233 255
217 233 255
217 233 255
217 233 255
217 233 255
217 233 255
217 233 255
217 233 255
217 233 255
217 233 255
217 233 255
217 233 255
217 233 255
217 233 255
217 233 255
217 233 255
217 233 255
217 233 255
217 233 255
217 233 255
217 233 255
217 233 255
217 233 255
217 233 255
217 233 255
217 233 255
217 233 255
217 233 255
217 233 255
217 233 255
217 233 255
217 233 255
217 233 255
217 233 255
217 233 255
217 233 255
217 233 255
217 233 255
217 233 255
217 233 255
217 233 255
217 233 255
217 233 255
217 233 255
217 233 255
217 233 255
217 233 255
217 233 255
217 233 255
217 233 255
217 233 255
217 233 255
217 233 255
217 233 255
217 233 255
217 233 255
217 233 255
217 233 255
217 233 255
217 233 255
217 233 255
217 233 255
217 233 255
217 233 255
217 233 255
217 233 255
217 233 255
217 233 255
217 233 255
217 233 255
217 233 255
217 233 255
217 233 255
217 233 255
217 233 255
217 233 255
217 233 255
217 233 255
217 233 255
217 233 255
217 233 255
157 168 187
0 0 45
0 0 44
0 0 42
0 0 42
0 0 42
0 0 42
0 0 42
0 0 42
0 0 42
0 0 42
0 0 41
0 0 43
0 0 45
0 0 45
0 0 45
0 0 45
0 0 45
0 0 45
0 0 45
0 0 45
0 0 42
0 0 43
0 0 45
0 0 45
0 0 45
0 0 43
0 0 41
0 0 42
0 0 47
0 0 45
0 0 49
0 0 52
0 0 58
0 5 62
0 5 53
11 5 47
38 42 57
79 77 49
99 98 69
136 133 117
150 143 114
142 131 112
142 123 105
146 129 104
148 132 103
139 129 96
131 118 87
100 91 62
94 89 62
90 83 58
83 77 52
67 69 40
72 69 40
132 115 91
149 135 115
136 128 110
76 73 47
135 124 100
139 123 100
125 112 89
119 106 86
123 106 83
123 107 84
115 101 80
107 96 77
101 91 69
102 96 66
88 89 47
78 83 39
76 83 40
79 89 43
78 93 45
67 83 37
55 71 27
46 65 18
39 58 6
34 52 0
36 54 7
29 49 0
29 50 0
40 62 11
46 70 14
39 64 0
40 66 8
37 60 0
35 59 0
35 60 3
31 55 3
33 58 0
36 59 0
39 62 0
34 58 0
36 59 0
36 56 0
39 57 3
39 58 5
40 59 0
42 63 1
42 61 11
39 57 8
33 55 5
32 53 15
24 46 39
10 22 56
0 0 48
0 0 43
0 0 42
0 0 42
0 0 42
0 0 42
0 0 42
0 0 42
0 0 42
0 0 42
0 0 42
0 0 42
0 0 42
0 0 42
0 0 42
0 0 42
0 0 42
0 0 42
0 0 42
0 0 42
0 0 42
0 0 42
0 0 42
0 0 42
0 0 42
0 0 42
0 0 42
0 0 42
0 0 43
0 0 43
0 0 43
0 0 42
0 0 42
0 0 42
0 0 42
0 0 43
0 0 44
0 0 45
0 0 46
0 0 48
0 0 48
0 0 44
0 0 43
0 0 42
0 0 42
0 0 42
0 0 43
0 0 43
0 0 42
0 0 42
0 0 42
0 0 42
0 0 42
0 0 42
0 0 42
0 0 42
0 0 42
0 0 42
0 0 42
0 0 42
0 0 42
0 0 42
0 0 42
0 0 42
142 153 170
217 233 255
217 233 255
217 233 255
217 233 255
217 233 255
217 233 255
217 233 255
217 233 255
217 233 255
217 233 255
217 233 255
217 233 255
217 233 255
217 233 255
217 233 255
217 233 255
217 233 255
217 233 255
217 233 255
217 233 255
217 233 255
217 233 255
217 233 255
217 233 255
217 233 255
217 233 255
217 233 255
217 233 255
217 233 255
217 233 255
217 233 255
217 233 255
217 233 255
217 233 255
217 233 255
217 233 255
217 233 255
217 233 255
217 233 255
217 233 255
217 233 255
217 233 255
217 233 255
217 233 255
217 233 255
217 233 255
217 233 255
217 233 255
217 233 255
217 233 255
217 233 255
217 233 255
217 233 255
217 233 255
217 233 255
217 233 255
217 233 255
217 233 255
217 233 255
217 233 255
217 233 255
217 233 255
217 233 255
217 233 255
217 233 255
217 233 255
217 233 255
217 233 255
217 233 255
217 233 255
217 233 255
217 233 255
217 233 255
217 233 255
217 233 255
217 233 255
217 233 255
217 233 255
217 233 255
217 233 255
217 233 255
217 233 255
217 233 255
217 233 255
217 233 255
217 233 255
217 233 255
217 233 255
217 233 255
217 233 255
217 233 255
217 233 255
217 233 255
217 233 255
217 233 255
217 233 255
217 233 255
217 233 255
217 233 255
217 233 255
217 233 255
217 233 255
217 233 255
217 233 255
217 233 255
217 233 255
217 233 255
217 233 255
217 233 255
217 233 255
217 233 255
217 233 255
217 233 255
217 233 255
217 233 255
218 233 255
218 233 255
218 233 255
218 233 255
218 233 255
218 233 255
218 233 255
218 233 255
218 233 255
218 233 255
218 233 255
218 233 255
218 233 255
218 233 255
218 233 255
218 233 255
218 233 255
218 233 255
218 233 255
218 233 255
218 233 255
218 233 255
218 233 255
218 233 255
218 233 255
218 233 255
218 233 255
217 233 255
217 233 255
217 233 255
217 233 255
217 233 255
217 233 255
217 233 255
217 233 255
217 233 255
217 233 255
217 233 255
217 233 255
217 233 255
217 233 255
217 233 255
217 233 255
217 233 255
217 233 255
217 233 255
217 233 255
217 233 255
217 233 255
217 233 255
217 233 255
217 233 255
217 233 255
217 233 255
217 233 255
217 233 255
217 233 255
217 233 255
217 233 255
217 233 255
217 233 255
217 233 255
217 233 255
217 233 255
217 233 255
217 233 255
217 233 255
217 233 255
217 233 255
217 233 255
217 233 255
217 233 255
217 233 255
217 233 255
217 233 255
217 233 255
217 233 255
217 233 255
217 233 255
217 233 255
217 233 255
217 233 255
217 233 255
217 233 255
217 233 255
217 233 255
217 233 255
217 233 255
217 233 255
217 233 255
217 233 255
217 233 255
217 233 255
217 233 255
217 233 255
217 233 255
217 233 255
217 233 255
217 233 255
217 233 255
217 233 255
217 233 255
217 233 255
217 233 255
217 233 255
217 233 255
217 233 255
217 233 255
217 233 255
217 233 255
217 233 255
217 233 255
217 233 255
217 233 255
180 194 214
30 33 58
0 0 43
0 0 42
0 0 42
0 0 42
0 0 42
0 0 42
0 0 42
0 0 42
0 0 42
0 0 42
0 0 42
0 0 45
0 0 45
0 0 45
0 0 45
0 0 45
0 0 45
0 0 45
0 0 45
0 0 44
0 0 44
0 0 43
0 0 42
0 0 42
0 0 42
0 0 42
0 0 42
0 0 44
0 0 45
0 0 43
0 0 46
0 0 54
0 0 53
0 0 52
0 0 57
0 0 47
5 2 45
66 63 58
105 104 78
160 163 132
156 150 113
152 142 112
172 155 123
179 151 130
140 128 97
151 132 102
138 124 98
100 92 63
100 91 63
117 107 81
124 109 83
124 109 87
133 117 91
145 127 101
154 133 109
153 133 110
138 126 96
135 125 93
154 131 103
134 115 92
128 110 91
127 106 83
128 109 87
116 101 82
112 99 81
102 94 70
92 91 57
84 90 48
80 90 48
80 88 46
76 86 39
74 86 37
59 75 28
52 68 22
46 64 15
41 58 7
35 53 5
38 58 12
29 49 0
27 47 0
42 65 15
43 66 16
32 55 3
36 59 6
31 52 0
30 52 0
30 53 0
27 50 0
35 59 0
39 63 0
42 66 0
37 60 0
37 59 0
40 59 2
45 62 12
49 68 17
44 64 5
39 59 0
45 63 12
38 57 9
33 53 23
15 34 55
0 9 49
0 0 44
0 0 41
0 0 39
0 0 42
0 0 42
0 0 42
0 0 42
0 0 42
0 0 42
0 0 42
0 0 42
0 0 42
0 0 42
0 0 42
0 0 42
0 0 42
0 0 42
0 0 42
0 0 42
0 0 42
0 0 42
0 0 42
0 0 42
0 0 42
0 0 42
0 0 42
0 0 42
0 0 42
0 0 42
0 0 42
0 0 42
0 0 42
0 0 42
0 0 42
0 0 42
0 0 42
0 0 42
0 0 42
0 0 42
0 0 42
0 0 42
0 0 43
0 0 42
0 0 42
0 0 42
0 0 42
0 0 42
0 0 42
0 0 42
0 0 42
0 0 42
0 0 42
0 0 42
0 0 42
0 0 42
0 0 42
0 0 42
0 0 42
0 0 42
0 0 42
0 0 42
0 0 42
0 0 42
0 0 42
0 0 42
21 23 49
175 188 207
217 233 255
217 233 255
217 233 255
217 233 255
217 233 255
217 233 255
217 233 255
217 233 255
217 233 255
217 233 255
217 233 255
217 233 255
217 233 255
217 233 255
217 233 255
217 233 255
217 233 255
217 233 255
217 233 255
217 233 255
217 233 255
217 233 255
217 233 255
217 233 255
217 233 255
217 233 255
217 233 255
217 233 255
217 233 255
217 233 255
217 233 255
217 233 255
217 233 255
217 233 255
217 233 255
217 233 255
217 233 255
217 233 255
217 233 255
217 233 255
217 233 255
217 233 255
217 233 255
217 233 255
217 233 255
217 233 255
217 233 255
217 233 255
217 233 255
217 233 255
217 233 255
217 233 255
217 233 255
217 233 255
217 233 255
217 233 255
217 233 255
217 233 255
217 233 255
217 233 255
217 233 255
217 233 255
217 233 255
217 233 255
217 233 255
217 233 255
217 233 255
217 233 255
217 233 255
217 233 255
217 233 255
217 233 255
217 233 255
217 233 255
217 233 255
217 233 255
217 233 255
217 233 255
217 233 255
217 233 255
217 233 255
217 233 255
217 233 255
217 233 255
217 233 255
217 233 255
218 233 255
218 233 255
218 233 255
218 233 255
218 233 255
218 233 255
218 233 255
218 233 255
218 233 255
218 233 255
218 233 255
218 233 255
218 233 255
218 233 255
218 233 255
218 233 255
218 233 255
218 233 255
218 233 255
218 233 255
218 233 255
218 233 255
218 233 255
218 233 255
218 233 255
218 233 255
218 233 255
218 233 255
218 233 255
218 233 255
218 233 255
218 233 255
218 233 255
218 233 255
218 233 255
218 233 255
218 233 255
218 233 255
218 233 255
218 233 255
218 233 255
218 233 255
218 233 255
218 233 255
218 233 255
218 233 255
218 233 255
218 233 255
218 233 255
218 233 255
218 233 255
218 233 255
218 233 255
218 233 255
218 233 255
218 233 255
218 233 255
218 233 255
218 233 255
218 233 255
218 233 255
218 233 255
218 233 255
218 233 255
218 233 255
218 233 255
218 233 255
218 233 255
218 233 255
218 233 255
218 233 255
218 233 255
218 233 255
218 233 255
218 233 255
218 233 255
218 233 255
218 233 255
218 233 255
218 233 255
218 233 255
218 233 255
218 233 255
218 233 255
218 233 255
218 233 255
218 233 255
218 233 255
218 233 255
218 233 255
218 233 255
218 233 255
218 233 255
218 233 255
218 233 255
218 233 255
218 233 255
218 233 255
217 233 255
217 233 255
218 233 255
217 233 255
217 233 255
217 233 255
217 233 255
217 233 255
217 233 255
217 233 255
217 233 255
217 233 255
217 233 255
217 233 255
217 233 255
217 233 255
217 233 255
217 233 255
217 233 255
217 233 255
217 233 255
217 233 255
217 233 255
217 233 255
217 233 255
217 233 255
217 233 255
217 233 255
217 233 255
217 233 255
217 233 255
217 233 255
217 233 255
217 233 255
217 233 255
217 233 255
217 233 255
217 233 255
217 233 255
217 233 255
217 233 255
217 233 255
217 233 255
211 226 248
53 57 76
0 0 42
0 0 42
0 0 42
0 0 42
0 0 42
0 0 42
0 0 42
0 0 42
0 0 42
0 0 42
0 0 42
0 0 44
0 0 45
0 0 45
0 0 45
0 0 45
0 0 44
0 0 44
0 0 45
0 0 45
0 0 45
0 0 44
0 0 42
0 0 42
0 0 42
0 0 42
0 0 42
0 0 43
0 0 45
0 0 42
0 0 43
0 0 48
0 0 51
0 0 47
0 0 51
0 0 55
0 0 47
6 5 49
71 67 59
108 102 76
164 156 133
155 145 111
197 191 155
172 166 135
157 136 114
145 128 104
135 115 88
121 113 87
102 98 69
115 107 80
109 98 68
134 121 97
141 124 99
156 136 113
170 142 117
166 141 113
162 138 112
159 145 116
144 132 95
174 154 125
155 136 112
147 127 103
145 125 101
150 133 108
124 112 87
108 100 75
104 100 76
89 92 56
78 85 45
81 91 52
80 87 45
73 81 33
74 85 33
56 71 20
46 64 13
37 55 0
35 52 0
29 48 0
23 43 0
29 51 0
28 48 0
35 58 0
32 56 0
27 50 0
28 50 0
31 53 0
31 52 0
27 50 0
25 48 0
31 55 0
34 57 0
35 58 0
40 62 4
43 64 12
43 63 12
47 66 13
49 71 16
46 67 8
41 62 0
39 59 0
31 53 16
13 35 68
0 6 62
0 0 44
0 0 38
0 0 42
0 0 40
0 0 42
0 0 42
0 0 42
0 0 42
0 0 42
0 0 42
0 0 42
0 0 42
0 0 42
0 0 42
0 0 42
0 0 42
0 0 42
0 0 42
0 0 42
0 0 42
0 0 42
0 0 42
0 0 42
0 0 42
0 0 42
0 0 42
0 0 42
0 0 42
0 0 42
0 0 42
0 0 42
0 0 42
0 0 42
0 0 42
0 0 42
0 0 42
0 0 42
0 0 42
0 0 42
0 0 42
0 0 42
0 0 42
0 0 42
0 0 42
0 0 42
0 0 42
0 0 42
0 0 42
0 0 42
0 0 42
0 0 42
0 0 42
0 0 42
0 0 42
0 0 42
0 0 42
0 0 42
0 0 42
0 0 42
0 0 42
0 0 42
0 0 42
0 0 42
0 0 42
0 0 42
0 0 42
0 0 42
48 52 70
204 219 240
217 233 255
217 233 255
217 233 255
217 233 255
217 233 255
217 233 255
217 233 255
217 233 255
217 233 255
217 233 255
217 233 255
217 233 255
217 233 255
217 233 255
217 233 255
217 233 255
217 233 255
217 233 255
217 233 255
217 233 255
217 233 255
217 233 255
217 233 255
217 233 255
217 233 255
217 233 255
217 233 255
217 233 255
217 233 255
217 233 255
217 233 255
217 233 255
217 233 255
217 233 255
217 233 255
217 233 255
217 233 255
217 233 255
217 233 255
217 233 255
217 233 255
217 233 255
217 233 255
218 233 255
218 233 255
218 233 255
218 233 255
218 233 255
218 233 255
218 233 255
218 233 255
218 233 255
218 233 255
218 233 255
218 233 255
218 233 255
218 233 255
218 233 255
218 233 255
218 233 255
218 233 255
218 233 255
218 233 255
218 233 255
218 233 255
218 233 255
218 233 255
218 233 255
218 233 255
218 233 255
218 233 255
218 233 255
218 233 255
218 233 255
218 233 255
218 233 255
218 233 255
218 233 255
218 233 255
218 233 255
218 233 255
218 233 255
218 233 255
218 233 255
218 233 255
218 233 255
218 233 255
218 233 255
218 233 255
218 233 255
218 233 255
218 233 255
218 233 255
218 233 255
218 233 255
218 233 255
218 233 255
218 233 255
218 233 255
218 233 255
218 233 255
218 233 255
218 233 255
218 233 255
218 233 255
218 233 255
218 233 255
218 233 255
218 233 255
218 233 255
218 233 255
218 233 255
218 233 255
218 234 255
218 234 255
218 234 255
218 234 255
218 234 255
218 234 255
218 234 255
218 234 255
218 234 255
218 234 255
218 234 255
218 234 255
218 234 255
218 234 255
218 234 255
218 234 255
218 234 255
218 234 255
218 234 255
218 234 255
218 234 255
218 234 255
218 234 255
218 234 255
218 234 255
218 234 255
218 234 255
218 234 255
218 234 255
218 234 255
218 234 255
218 234 255
218 234 255
218 233 255
218 233 255
218 233 255
218 233 255
218 233 255
218 233 255
218 233 255
218 233 255
218 233 255
218 233 255
218 233 255
218 233 255
218 233 255
218 233 255
218 233 255
218 233 255
218 233 255
218 233 255
218 233 255
218 233 255
218 233 255
218 233 255
218 233 255
218 233 255
218 233 255
218 233 255
218 233 255
218 233 255
218 233 255
218 233 255
218 233 255
218 233 255
218 233 255
218 233 255
218 233 255
218 233 255
218 233 255
218 233 255
218 233 255
218 233 255
218 233 255
218 233 255
218 233 255
218 233 255
218 233 255
218 233 255
218 233 255
218 233 255
218 233 255
218 233 255
218 233 255
218 233 255
218 233 255
218 233 255
218 233 255
218 233 255
218 233 255
218 233 255
218 233 255
218 233 255
218 233 255
218 233 255
218 233 255
218 233 255
218 233 255
218 233 255
218 233 255
218 233 255
218 233 255
218 233 255
218 233 255
218 233 255
218 233 255
218 233 255
218 233 255
218 233 255
218 233 255
218 233 255
218 233 255
214 230 252
97 104 120
0 0 42
0 0 42
0 0 42
0 0 42
0 0 42
0 0 42
0 0 42
0 0 42
0 0 42
0 0 42
0 0 42
0 0 42
0 0 45
0 0 45
0 0 45
0 0 45
0 0 45
0 0 45
0 0 45
0 0 44
0 0 44
0 0 44
0 0 42
0 0 42
0 0 42
0 0 42
0 0 42
0 0 42
0 0 42
0 0 42
0 0 40
0 0 44
0 0 45
0 0 44
0 0 43
0 0 48
0 0 49
0 0 46
0 0 47
51 50 53
103 95 67
150 137 112
103 107 110
123 136 124
167 161 134
168 152 118
136 121 97
117 106 81
83 83 55
87 85 54
110 104 75
102 95 69
121 109 84
136 124 98
160 144 116
199 180 153
164 154 121
145 130 101
158 136 111
159 143 113
170 150 116
174 156 124
166 148 115
167 148 113
151 138 103
120 112 76
105 101 69
101 99 68
85 88 51
75 81 44
74 81 42
80 87 45
79 89 39
68 81 29
54 68 19
45 65 12
33 52 5
29 47 0
26 43 0
30 47 0
27 49 0
34 57 0
38 64 0
33 57 0
30 55 0
35 56 0
31 52 0
33 53 0
32 51 0
31 55 6
34 58 0
33 59 2
39 62 7
46 67 13
50 70 19
49 69 16
45 66 8
47 68 12
40 63 7
35 57 0
37 57 0
26 55 39
6 27 73
0 0 44
0 0 46
0 0 46
0 0 40
0 0 41
0 0 43
0 0 42
0 0 42
0 0 40
0 0 42
0 0 42
0 0 42
0 0 42
0 0 42
0 0 42
0 0 42
0 0 42
0 0 42
0 0 42
0 0 42
0 0 42
0 0 42
0 0 42
0 0 42
0 0 42
0 0 42
0 0 42
0 0 42
0 0 42
0 0 42
0 0 42
0 0 42
0 0 42
0 0 42
0 0 42
0 0 42
0 0 42
0 0 42
0 0 42
0 0 42
0 0 42
0 0 42
0 0 42
0 0 42
0 0 42
0 0 42
0 0 42
0 0 42
0 0 42
0 0 42
0 0 42
0 0 42
0 0 42
0 0 42
0 0 42
0 0 42
0 0 42
0 0 42
0 0 42
0 0 42
0 0 42
0 0 42
0 0 42
0 0 42
0 0 42
0 0 42
0 0 42
0 0 42
0 0 42
97 104 120
216 232 254
218 233 255
218 233 255
218 233 255
218 233 255
218 233 255
218 233 255
218 233 255
218 233 255
218 233 255
218 233 255
218 233 255
218 233 255
218 233 255
218 233 255
218 233 255
218 233 255
218 233 255
218 233 255
218 233 255
218 233 255
218 233 255
218 233 255
218 233 255
218 233 255
218 233 255
218 233 255
218 233 255
218 233 255
218 233 255
218 233 255
218 233 255
218 233 255
218 233 255
218 233 255
218 233 255
218 233 255
218 233 255
218 233 255
218 233 255
218 233 255
218 233 255
218 233 255
218 233 255
218 233 255
218 233 255
218 233 255
218 233 255
218 233 255
218 233 255
218 233 255
218 233 255
218 233 255
218 233 255
218 233 255
218 233 255
218 233 255
218 233 255
218 233 255
218 233 255
218 233 255
218 233 255
218 233 255
218 233 255
218 233 255
218 233 255
218 233 255
218 233 255
218 233 255
218 233 255
218 233 255
218 233 255
218 233 255
218 233 255
218 233 255
218 233 255
218 233 255
218 233 255
218 233 255
218 233 255
218 234 255
218 234 255
218 234 255
218 234 255
218 234 255
218 234 255
218 234 255
218 234 255
218 234 255
218 234 255
218 234 255
218 234 255
218 234 255
218 234 255
218 234 255
218 234 255
218 234 255
218 234 255
218 234 255
218 234 255
218 234 255
218 234 255
218 234 255
218 234 255
218 234 255
218 234 255
218 234 255
218 234 255
218 234 255
218 234 255
218 234 255
218 234 255
218 234 255
218 234 255
218 234 255
218 234 255
218 234 255
218 234 255
218 234 255
218 234 255
218 234 255
218 234 255
218 234 255
218 234 255
218 234 255
218 234 255
218 234 255
218 234 255
218 234 255
218 234 255
218 234 255
218 234 255
218 234 255
218 234 255
218 234 255
218 234 255
218 234 255
218 234 255
218 234 255
218 234 255
218 234 255
218 234 255
218 234 255
218 234 255
218 234 255
218 234 255
218 234 255
218 234 255
218 234 255
218 234 255
218 234 255
218 234 255
218 234 255
218 234 255
218 234 255
218 234 255
218 234 255
218 234 255
218 234 255
218 234 255
218 234 255
218 234 255
218 234 255
218 234 255
218 234 255
218 234 255
218 234 255
218 234 255
218 234 255
218 234 255
218 234 255
218 234 255
218 234 255
218 234 255
218 234 255
218 234 255
218 234 255
218 234 255
218 234 255
218 234 255
218 234 255
218 234 255
218 234 255
218 234 255
218 234 255
218 234 255
218 234 255
218 234 255
218 234 255
218 234 255
218 234 255
218 234 255
218 234 255
218 234 255
218 233 255
218 233 255
218 233 255
218 233 255
218 233 255
218 233 255
218 233 255
218 233 255
218 233 255
218 233 255
218 233 255
218 233 255
218 233 255
218 233 255
218 233 255
218 233 255
218 233 255
218 233 255
218 233 255
218 233 255
218 233 255
218 233 255
218 233 255
218 233 255
218 233 255
218 233 255
218 233 255
218 233 255
218 233 255
218 233 255
218 233 255
146 156 174
0 0 42
0 0 42
0 0 42
0 0 42
0 0 42
0 0 42
0 0 42
0 0 42
0 0 42
0 0 42
0 0 42
0 0 42
0 0 42
0 0 44
0 0 43
0 0 43
0 0 44
0 0 45
0 0 45
0 0 43
0 0 42
0 0 42
0 0 42
0 0 42
0 0 42
0 0 42
0 0 42
0 0 42
0 0 42
0 0 41
0 0 40
0 0 42
0 0 42
0 0 42
0 0 42
0 0 42
0 0 45
0 0 44
0 0 45
0 0 54
42 41 60
97 89 67
146 141 118
45 47 86
7 9 51
76 70 85
154 138 113
126 113 90
104 95 72
79 86 56
77 82 44
91 95 64
88 87 59
112 104 78
120 109 83
143 126 101
166 155 125
148 132 104
138 123 97
136 121 98
132 118 95
103 93 70
137 124 93
149 134 98
131 120 86
111 109 75
102 98 65
98 94 61
87 87 54
78 80 47
72 78 42
71 77 36
73 78 38
66 83 32
62 76 18
56 70 22
35 59 0
36 51 10
32 50 0
32 53 2
31 53 0
42 67 10
50 73 19
44 67 4
38 66 14
34 62 3
29 75 42
32 64 26
31 85 53
29 75 57
33 102 75
36 70 38
28 49 40
30 46 46
37 56 24
43 64 8
39 60 9
35 59 0
36 59 8
41 62 10
34 53 3
36 55 0
33 55 37
6 21 61
0 0 45
0 0 43
0 0 41
0 0 43
0 0 42
0 0 42
0 0 42
0 0 42
0 0 42
0 0 42
0 0 42
0 0 42
0 0 42
0 0 42
0 0 42
0 0 42
0 0 42
0 0 42
0 0 42
0 0 42
0 0 42
0 0 42
0 0 42
0 0 42
0 0 42
0 0 42
0 0 42
0 0 42
0 0 42
0 0 42
0 0 42
0 0 42
0 0 42
0 0 42
0 0 42
0 0 42
0 0 42
0 0 42
0 0 42
0 0 42
0 0 42
0 0 42
0 0 42
0 0 42
0 0 42
0 0 42
0 0 42
0 0 42
0 0 42
0 0 42
0 0 42
0 0 42
0 0 42
0 0 42
0 0 42
0 0 42
0 0 42
0 0 42
0 0 42
0 0 42
0 0 42
0 0 42
0 0 42
0 0 42
0 0 42
0 0 42
0 0 42
0 0 42
0 0 42
0 0 42
158 170 188
218 233 255
218 233 255
218 233 255
218 233 255
218 233 255
218 233 255
218 233 255
218 233 255
218 233 255
218 233 255
218 233 255
218 233 255
218 233 255
218 233 255
218 233 255
218 233 255
218 233 255
218 233 255
218 233 255
218 233 255
218 233 255
218 233 255
218 233 255
218 233 255
218 233 255
218 233 255
218 233 255
218 233 255
218 233 255
218 233 255
218 234 255
218 233 255
218 234 255
218 234 255
218 234 255
218 234 255
218 234 255
218 234 255
218 234 255
218 234 255
218 234 255
218 234 255
218 234 255
218 234 255
218 234 255
218 234 255
218 234 255
218 234 255
218 234 255
218 234 255
218 234 255
218 234 255
218 234 255
218 234 255
218 234 255
218 234 255
218 234 255
218 234 255
218 234 255
218 234 255
218 234 255
218 234 255
218 234 255
218 234 255
218 234 255
218 234 255
218 234 255
218 234 255
218 234 255
218 234 255
218 234 255
218 234 255
218 234 255
218 234 255
218 234 255
218 234 255
218 234 255
218 234 255
218 234 255
218 234 255
218 234 255
218 234 255
218 234 255
218 234 255
218 234 255
218 234 255
218 234 255
218 234 255
218 234 255
218 234 255
218 234 255
218 234 255
218 234 255
218 234 255
218 234 255
218 234 255
218 234 255
218 234 255
218 234 255
218 234 255
218 234 255
218 234 255
218 234 255
218 234 255
218 234 255
218 234 255
218 234 255
218 234 255
218 234 255
218 234 255
218 234 255
218 234 255
218 234 255
218 234 255
218 234 255
218 234 255
218 234 255
218 234 255
218 234 255
218 234 255
218 234 255
218 234 255
218 234 255
218 234 255
218 234 255
218 234 255
218 234 255
218 234 255
218 234 255
218 234 255
218 234 255
218 234 255
218 234 255
218 234 255
218 234 255
218 234 255
218 234 255
218 234 255
218 234 255
218 234 255
218 234 255
218 234 255
218 234 255
218 234 255
218 234 255
218 234 255
218 234 255
218 234 255
218 234 255
218 234 255
218 234 255
218 234 255
218 234 255
218 234 255
218 234 255
218 234 255
218 234 255
218 234 255
218 234 255
218 234 255
218 234 255
218 234 255
218 234 255
218 234 255
218 234 255
218 234 255
218 234 255
218 234 255
218 234 255
218 234 255
218 234 255
218 234 255
218 234 255
218 234 255
218 234 255
218 234 255
218 234 255
218 234 255
218 234 255
218 234 255
218 234 255
218 234 255
218 234 255
218 234 255
218 234 255
218 234 255
218 234 255
218 234 255
218 234 255
218 234 255
218 234 255
218 234 255
218 234 255
218 234 255
218 234 255
218 234 255
218 234 255
218 234 255
218 234 255
218 234 255
218 234 255
218 234 255
218 234 255
218 234 255
218 234 255
218 234 255
218 234 255
218 234 255
218 234 255
218 234 255
218 234 255
218 234 255
218 234 255
218 234 255
218 234 255
218 234 255
218 234 255
218 234 255
218 234 255
218 234 255
218 234 255
218 234 255
218 234 255
185 198 218
21 23 49
0 0 42
0 0 42
0 0 42
0 0 42
0 0 42
0 0 42
0 0 42
0 0 42
0 0 42
0 0 42
0 0 42
0 0 42
0 0 42
0 0 42
0 0 42
0 0 42
0 0 45
0 0 45
0 0 44
0 0 42
0 0 42
0 0 42
0 0 42
0 0 42
0 0 42
0 0 42
0 0 42
0 0 42
0 0 42
0 0 42
0 0 42
0 0 42
0 0 42
0 0 43
0 0 44
0 0 45
0 0 43
0 0 46
0 0 51
0 0 46
26 25 58
99 90 67
124 118 102
31 30 69
0 0 55
41 41 71
139 129 100
121 115 88
111 109 76
77 83 48
64 79 30
71 78 38
65 69 34
74 72 42
113 105 80
133 117 93
132 116 90
133 119 92
152 136 111
133 125 95
120 107 81
121 110 85
130 119 85
129 118 84
130 121 89
118 112 78
99 96 64
90 93 60
76 83 48
68 78 38
70 79 38
70 78 35
69 80 28
60 74 23
63 73 26
57 71 19
61 79 25
49 66 22
41 62 18
39 73 41
35 69 53
41 69 41
45 73 22
40 79 41
42 58 15
35 63 7
36 90 67
27 91 68
11 142 160
0 73 123
0 29 79
0 9 61
0 0 52
0 0 44
1 2 58
18 37 43
24 51 30
14 46 57
19 50 66
40 61 29
46 71 20
40 63 6
38 55 19
16 32 47
0 0 47
0 0 43
0 0 42
0 0 40
0 0 42
0 0 42
0 0 42
0 0 42
0 0 42
0 0 42
0 0 42
0 0 42
0 0 42
0 0 42
0 0 42
0 0 42
0 0 42
0 0 42
0 0 42
0 0 42
0 0 42
0 0 42
0 0 42
0 0 42
0 0 42
0 0 42
0 0 42
0 0 42
0 0 42
0 0 42
0 0 42
0 0 42
0 0 42
0 0 42
0 0 42
0 0 42
0 0 42
0 0 42
0 0 42
0 0 42
0 0 42
0 0 42
0 0 42
0 0 42
0 0 42
0 0 42
0 0 42
0 0 42
0 0 42
0 0 42
0 0 42
0 0 42
0 0 42
0 0 42
0 0 42
0 0 42
0 0 42
0 0 42
0 0 42
0 0 42
0 0 42
0 0 42
0 0 42
0 0 42
0 0 42
0 0 42
0 0 42
0 0 42
0 0 42
0 0 42
37 40 60
185 198 218
218 234 255
218 234 255
218 234 255
218 234 255
218 234 255
218 234 255
218 234 255
218 234 255
218 234 255
218 234 255
218 234 255
218 234 255
218 234 255
218 234 255
218 234 255
218 234 255
218 234 255
218 234 255
218 234 255
218 234 255
218 234 255
218 234 255
218 234 255
218 234 255
218 234 255
218 234 255
218 234 255
218 234 255
218 234 255
218 234 255
218 234 255
218 234 255
218 234 255
218 234 255
218 234 255
218 234 255
218 234 255
218 234 255
218 234 255
218 234 255
218 234 255
218 234 255
218 234 255
218 234 255
218 234 255
218 234 255
218 234 255
218 234 255
218 234 255
218 234 255
218 234 255
218 234 255
218 234 255
218 234 255
218 234 255
218 234 255
218 234 255
218 234 255
218 234 255
218 234 255
218 234 255
218 234 255
218 234 255
218 234 255
218 234 255
218 234 255
218 234 255
218 234 255
218 234 255
218 234 255
218 234 255
218 234 255
218 234 255
218 234 255
218 234 255
218 234 255
218 234 255
218 234 255
218 234 255
218 234 255
218 234 255
218 234 255
218 234 255
218 234 255
218 234 255
218 234 255
218 234 255
218 234 255
218 234 255
218 234 255
218 234 255
218 234 255
218 234 255
218 234 255
218 234 255
218 234 255
218 234 255
218 234 255
218 234 255
218 234 255
218 234 255
218 234 255
218 234 255
218 234 255
218 234 255
218 234 255
218 234 255
218 234 255
218 234 255
218 234 255
218 234 255
218 234 255
218 234 255
218 234 255
218 234 255
218 234 255
218 234 255
218 234 255
218 234 255
218 234 255
218 234 255
218 234 255
218 234 255
218 234 255
218 234 255
218 234 255
218 234 255
218 234 255
218 234 255
218 234 255
218 234 255
218 234 255
218 234 255
218 234 255
218 234 255
218 234 255
218 234 255
218 234 255
218 234 255
218 234 255
218 234 255
218 234 255
218 234 255
218 234 255
218 234 255
218 234 255
218 234 255
218 234 255
218 234 255
218 234 255
218 234 255
218 234 255
218 234 255
218 234 255
218 234 255
218 234 255
218 234 255
218 234 255
218 234 255
218 234 255
218 234 255
218 234 255
218 234 255
218 234 255
218 234 255
218 234 255
218 234 255
218 234 255
218 234 255
218 234 255
218 234 255
218 234 255
218 234 255
218 234 255
218 234 255
218 234 255
218 234 255
218 234 255
218 234 255
218 234 255
218 234 255
218 234 255
218 234 255
218 234 255
218 234 255
218 234 255
218 234 255
218 234 255
218 234 255
218 234 255
218 234 255
218 234 255
218 234 255
218 234 255
218 234 255
218 234 255
218 234 255
218 234 255
218 234 255
218 234 255
218 234 255
218 234 255
218 234 255
218 234 255
218 234 255
218 234 255
218 234 255
218 234 255
218 234 255
218 234 255
218 234 255
218 234 255
218 234 255
218 234 255
218 234 255
218 234 255
218 234 255
218 234 255
218 234 255
218 234 255
218 234 255
217 232 254
57 61 79
0 0 42
0 0 42
0 0 42
0 0 42
0 0 42
0 0 42
0 0 42
0 0 42
0 0 42
0 0 42
0 0 42
0 0 42
0 0 42
0 0 42
0 0 42
0 0 43
0 0 43
0 0 45
0 0 45
0 0 42
0 0 42
0 0 42
0 0 42
0 0 42
0 0 42
0 0 42
0 0 42
0 0 42
0 0 42
0 0 42
0 0 42
0 0 42
0 0 42
0 0 42
0 0 41
0 0 41
0 0 42
0 0 41
0 0 42
0 0 49
0 0 49
19 15 65
104 97 79
130 115 93
54 54 78
0 8 60
29 36 74
128 117 99
121 116 92
107 102 74
75 85 42
63 80 38
60 73 32
50 63 21
50 56 23
84 80 55
97 86 63
107 95 75
131 120 93
132 119 84
133 123 93
123 112 86
136 126 99
131 122 89
112 107 75
119 112 81
124 118 85
101 101 73
82 87 55
69 80 42
66 76 34
72 81 37
75 85 39
72 77 31
69 75 40
57 75 25
54 74 12
56 72 23
38 71 65
19 52 83
13 57 88
3 44 86
12 40 90
15 96 114
16 125 136
18 96 108
29 70 62
23 64 54
22 92 89
21 122 121
0 64 111
0 4 59
0 0 48
0 0 53
0 0 46
0 0 39
4 11 47
5 15 53
0 8 47
3 18 59
19 58 74
43 63 35
50 69 19
33 53 8
25 41 29
8 12 44
0 0 40
0 0 42
0 0 39
0 0 42
0 0 42
0 0 42
0 0 42
0 0 42
0 0 42
0 0 42
0 0 42
0 0 42
0 0 42
0 0 42
0 0 42
0 0 42
0 0 42
0 0 42
0 0 42
0 0 42
0 0 42
0 0 42
0 0 42
0 0 42
0 0 42
0 0 42
0 0 42
0 0 42
0 0 42
0 0 42
0 0 42
0 0 42
0 0 42
0 0 42
0 0 42
0 0 42
0 0 42
0 0 42
0 0 42
0 0 42
0 0 42
0 0 42
0 0 42
0 0 42
0 0 42
0 0 42
0 0 42
0 0 42
0 0 42
0 0 42
0 0 42
0 0 42
0 0 42
0 0 42
0 0 42
0 0 42
0 0 42
0 0 42
0 0 42
0 0 42
0 0 42
0 0 42
0 0 42
0 0 42
0 0 42
0 0 42
0 0 42
0 0 42
0 0 42
0 0 42
87 93 109
211 226 248
218 234 255
218 234 255
218 234 255
218 234 255
218 234 255
218 234 255
218 234 255
218 234 255
218 234 255
218 234 255
218 234 255
218 234 255
218 234 255
218 234 255
218 234 255
218 234 255
218 234 255
218 234 255
218 234 255
218 234 255
218 234 255
218 234 255
218 234 255
218 234 255
218 234 255
218 234 255
218 234 255
218 234 255
218 234 255
218 234 255
218 234 255
218 234 255
218 234 255
218 234 255
218 234 255
218 234 255
218 234 255
218 234 255
218 234 255
218 234 255
218 234 255
218 234 255
218 234 255
218 234 255
218 234 255
218 234 255
218 234 255
218 234 255
218 234 255
218 234 255
218 234 255
218 234 255
218 234 255
218 234 255
218 234 255
218 234 255
218 234 255
218 234 255
218 234 255
218 234 255
218 234 255
218 234 255
218 234 255
218 234 255
218 234 255
218 234 255
218 234 255
218 234 255
218 234 255
218 234 255
218 234 255
218 234 255
218 234 255
218 234 255
218 234 255
218 234 255
218 234 255
218 234 255
218 234 255
218 234 255
218 234 255
218 234 255
218 234 255
218 234 255
218 234 255
218 234 255
218 234 255
218 234 255
218 234 255
218 234 255
218 234 255
218 234 255
218 234 255
218 234 255
218 234 255
218 234 255
218 234 255
218 234 255
218 234 255
218 234 255
218 234 255
218 234 255
218 234 255
218 234 255
218 234 255
218 234 255
218 234 255
218 234 255
218 234 255
218 234 255
218 234 255
218 234 255
218 234 255
218 234 255
218 234 255
218 234 255
218 234 255
218 234 255
218 234 255
218 234 255
218 234 255
218 234 255
218 234 255
218 234 255
218 234 255
218 234 255
218 234 255
218 234 255
218 234 255
218 234 255
218 234 255
218 234 255
218 234 255
218 234 255
218 234 255
218 234 255
218 234 255
218 234 255
218 234 255
218 234 255
218 234 255
218 234 255
218 234 255
218 234 255
218 234 255
218 234 255
218 234 255
218 234 255
218 234 255
218 234 255
218 234 255
218 234 255
218 234 255
218 234 255
218 234 255
218 234 255
218 234 255
218 234 255
218 234 255
218 234 255
218 234 255
218 234 255
218 234 255
218 234 255
218 234 255
218 234 255
218 234 255
218 234 255
218 234 255
218 234 255
218 234 255
218 234 255
218 234 255
218 234 255
218 234 255
218 234 255
218 234 255
218 234 255
218 234 255
218 234 255
218 234 255
218 234 255
218 234 255
218 234 255
218 234 255
218 234 255
218 234 255
218 234 255
218 234 255
218 234 255
218 234 255
218 234 255
218 234 255
218 234 255
218 234 255
218 234 255
218 234 255
218 234 255
218 234 255
218 234 255
218 234 255
218 234 255
218 234 255
218 234 255
218 234 255
218 234 255
218 234 255
218 234 255
218 234 255
218 234 255
218 234 255
218 234 255
218 234 255
218 234 255
218 234 255
218 234 255
218 234 255
218 234 255
218 234 255
218 234 255
149 160 178
0 0 42
0 0 42
0 0 42
0 0 42
0 0 42
0 0 42
0 0 42
0 0 42
0 0 42
0 0 42
0 0 42
0 0 41
0 0 42
0 0 42
0 0 42
0 0 44
0 0 45
0 0 45
0 0 45
0 0 42
0 0 42
0 0 42
0 0 42
0 0 42
0 0 42
0 0 42
0 0 42
0 0 42
0 0 42
0 0 42
0 0 42
0 0 42
0 0 42
0 0 42
0 0 42
0 0 40
0 0 40
0 0 40
0 0 42
0 0 45
0 0 41
0 0 44
14 14 57
54 55 81
108 104 88
128 110 94
47 50 86
18 45 105
122 121 111
162 147 122
118 115 81
91 102 56
55 76 28
51 71 21
49 64 25
56 63 31
74 75 48
84 82 55
99 88 65
140 127 99
132 121 89
144 128 102
121 106 80
125 110 82
127 119 86
101 97 65
83 80 53
84 83 55
108 106 74
101 102 69
92 95 59
80 85 47
86 91 52
83 89 52
70 85 39
63 76 30
56 81 43
43 73 55
32 68 70
7 41 78
0 15 71
0 0 55
0 0 51
0 0 40
0 9 54
0 43 78
0 68 101
5 71 104
4 55 94
0 73 107
7 74 106
0 45 91
0 5 48
0 0 46
0 0 40
0 0 40
0 0 38
0 0 40
0 0 46
0 0 47
0 0 57
0 18 64
12 62 89
57 73 32
52 69 24
47 64 11
21 32 42
0 0 43
0 0 43
0 0 41
0 0 42
0 0 42
0 0 42
0 0 42
0 0 42
0 0 42
0 0 42
0 0 42
0 0 42
0 0 42
0 0 42
0 0 42
0 0 42
0 0 42
0 0 42
0 0 42
0 0 42
0 0 42
0 0 42
0 0 42
0 0 42
0 0 42
0 0 42
0 0 42
0 0 42
0 0 42
0 0 42
0 0 42
0 0 42
0 0 42
0 0 42
0 0 42
0 0 42
0 0 42
0 0 42
0 0 42
0 0 42
0 0 42
0 0 42
0 0 42
0 0 42
0 0 42
0 0 42
0 0 42
0 0 42
0 0 42
0 0 42
0 0 42
0 0 42
0 0 42
0 0 42
0 0 42
0 0 42
0 0 42
0 0 42
0 0 42
0 0 42
0 0 42
0 0 42
0 0 42
0 0 42
0 0 42
0 0 42
0 0 42
0 0 42
0 0 42
0 0 42
0 0 42
123 132 148
218 234 255
218 234 255
218 234 255
218 234 255
218 234 255
218 234 255
218 234 255
218 234 255
218 234 255
218 234 255
218 234 255
218 234 255
218 234 255
218 234 255
218 234 255
218 234 255
218 234 255
218 234 255
218 234 255
218 234 255
218 234 255
218 234 255
218 234 255
218 234 255
218 234 255
218 234 255
218 234 255
218 234 255
218 234 255
218 234 255
218 234 255
218 234 255
218 234 255
218 234 255
218 234 255
218 234 255
218 234 255
218 234 255
218 234 255
218 234 255
218 234 255
218 234 255
218 234 255
218 234 255
218 234 255
218 234 255
218 234 255
218 234 255
218 234 255
218 234 255
218 234 255
218 234 255
218 234 255
218 234 255
218 234 255
218 234 255
218 234 255
218 234 255
218 234 255
218 234 255
218 234 255
218 234 255
218 234 255
218 234 255
218 234 255
218 234 255
218 234 255
218 234 255
218 234 255
218 234 255
218 234 255
218 234 255
218 234 255
218 234 255
218 234 255
218 234 255
218 234 255
218 234 255
218 234 255
218 234 255
218 234 255
218 234 255
218 234 255
218 234 255
218 234 255
218 234 255
218 234 255
218 234 255
218 234 255
218 234 255
218 234 255
218 234 255
218 234 255
218 234 255
218 234 255
218 234 255
218 234 255
218 234 255
218 234 255
218 234 255
218 234 255
218 234 255
218 234 255
218 234 255
218 234 255
218 234 255
218 234 255
218 234 255
218 234 255
218 234 255
218 234 255
218 234 255
218 234 255
218 234 255
218 234 255
218 234 255
218 234 255
218 234 255
218 234 255
218 234 255
218 234 255
218 234 255
218 234 255
218 234 255
218 234 255
218 234 255
218 234 255
218 234 255
218 234 255
218 234 255
218 234 255
218 234 255
218 234 255
218 234 255
218 234 255
218 234 255
218 234 255
218 234 255
218 234 255
218 234 255
218 234 255
218 234 255
218 234 255
218 234 255
218 234 255
218 234 255
218 234 255
218 234 255
218 234 255
218 234 255
218 234 255
218 234 255
218 234 255
218 234 255
218 234 255
218 234 255
218 234 255
218 234 255
218 234 255
218 234 255
218 234 255
218 234 255
218 234 255
218 234 255
218 234 255
218 234 255
218 234 255
218 234 255
218 234 255
218 234 255
218 234 255
218 234 255
218 234 255
218 234 255
218 234 255
218 234 255
218 234 255
218 234 255
218 234 255
218 234 255
218 234 255
218 234 255
218 234 255
218 234 255
218 234 255
218 234 255
218 234 255
218 234 255
218 234 255
218 234 255
218 234 255
218 234 255
218 234 255
218 234 255
218 234 255
218 234 255
218 234 255
218 234 255
218 234 255
218 234 255
218 234 255
218 234 255
218 234 255
218 234 255
218 234 255
218 234 255
218 234 255
218 234 255
218 234 255
218 234 255
218 234 255
218 234 255
218 234 255
218 234 255
218 234 255
218 234 255
218 234 255
218 234 255
218 234 255
189 202 222
0 0 42
0 0 42
0 0 42
0 0 42
0 0 42
0 0 42
0 0 42
0 0 42
0 0 42
0 0 42
0 0 42
0 0 42
0 0 42
0 0 42
0 0 42
0 0 42
0 0 44
0 0 45
0 0 45
0 0 42
0 0 42
0 0 42
0 0 42
0 0 42
0 0 42
0 0 42
0 0 42
0 0 42
0 0 42
0 0 42
0 0 42
0 0 42
0 0 42
0 0 42
0 0 42
0 0 40
0 0 40
0 0 40
0 0 42
0 0 47
0 0 39
0 0 41
0 0 45
0 0 59
0 13 74
60 57 74
119 103 86
78 85 86
11 34 81
68 70 90
147 138 110
126 114 90
88 95 56
52 73 19
48 67 15
50 59 18
58 60 30
73 75 46
79 79 48
98 92 62
122 107 79
127 111 84
129 113 87
130 111 90
125 110 82
129 120 86
103 100 69
75 77 53
91 93 67
119 115 81
115 111 80
109 106 73
94 94 60
91 93 56
83 89 55
75 84 41
56 75 50
26 57 70
10 31 80
7 21 64
0 5 52
0 0 42
0 0 46
0 0 43
0 0 44
0 0 44
0 0 40
0 0 45
0 0 46
0 0 38
0 5 43
0 9 46
0 1 46
0 2 42
0 0 45
0 0 42
0 0 44
0 0 43
0 0 41
0 0 40
0 0 35
0 0 45
0 0 46
11 48 77
54 78 42
55 71 16
54 72 17
33 53 35
5 9 51
0 0 41
0 0 45
0 0 40
0 0 42
0 0 42
0 0 42
0 0 42
0 0 42
0 0 42
0 0 42
0 0 42
0 0 42
0 0 42
0 0 42
0 0 42
0 0 42
0 0 42
0 0 42
0 0 42
0 0 42
0 0 42
0 0 42
0 0 42
0 0 42
0 0 42
0 0 42
0 0 42
0 0 42
0 0 42
0 0 42
0 0 42
0 0 42
0 0 42
0 0 42
0 0 42
0 0 42
0 0 42
0 0 42
0 0 42
0 0 42
0 0 42
0 0 42
0 0 42
0 0 42
0 0 42
0 0 42
0 0 42
0 0 42
0 0 42
0 0 42
0 0 42
0 0 42
0 0 42
0 0 42
0 0 42
0 0 42
0 0 42
0 0 42
0 0 42
0 0 42
0 0 42
0 0 42
0 0 42
0 0 42
0 0 42
0 0 42
0 0 42
0 0 42
0 0 42
0 0 42
0 0 41
178 191 210
218 234 255
218 234 255
218 234 255
218 234 255
218 234 255
218 234 255
218 234 255
218 234 255
218 234 255
218 234 255
218 234 255
218 234 255
218 234 255
218 234 255
218 234 255
218 234 255
218 234 255
218 234 255
218 234 255
218 234 255
218 234 255
218 234 255
218 234 255
218 234 255
218 234 255
218 234 255
218 234 255
218 234 255
218 234 255
218 234 255
218 234 255
218 234 255
218 234 255
218 234 255
218 234 255
218 234 255
218 234 255
218 234 255
218 234 255
218 234 255
218 234 255
218 234 255
218 234 255
218 234 255
218 234 255
218 234 255
218 234 255
218 234 255
218 234 255
218 234 255
218 234 255
218 234 255
218 234 255
218 234 255
218 234 255
218 234 255
218 234 255
218 234 255
218 234 255
218 234 255
218 234 255
218 234 255
218 234 255
218 234 255
218 234 255
218 234 255
218 234 255
218 234 255
218 234 255
218 234 255
218 234 255
218 234 255
218 234 255
218 234 255
218 234 255
218 234 255
218 234 255
218 234 255
218 234 255
218 234 255
218 234 255
218 234 255
218 234 255
218 234 255
218 234 255
218 234 255
218 234 255
218 234 255
218 234 255
218 234 255
218 234 255
218 234 255
218 234 255
218 234 255
218 234 255
218 234 255
218 234 255
218 234 255
218 234 255
218 234 255
218 234 255
218 234 255
218 234 255
218 234 255
218 234 255
218 234 255
218 234 255
218 234 255
218 234 255
218 234 255
218 234 255
218 234 255
218 234 255
218 234 255
218 234 255
218 234 255
218 234 255
218 234 255
218 234 255
218 234 255
218 234 255
218 234 255
218 234 255
218 234 255
218 234 255
218 234 255
218 234 255
218 234 255
218 234 255
218 234 255
218 234 255
218 234 255
218 234 255
218 234 255
218 234 255
218 234 255
218 234 255
218 234 255
218 234 255
218 234 255
218 234 255
218 234 255
218 234 255
218 234 255
218 234 255
218 234 255
218 234 255
218 234 255
218 234 255
218 234 255
218 234 255
218 234 255
218 234 255
218 234 255
218 234 255
218 234 255
218 234 255
218 234 255
218 234 255
218 234 255
218 234 255
218 234 255
218 234 255
218 234 255
218 234 255
218 234 255
218 234 255
218 234 255
218 234 255
218 234 255
218 234 255
218 234 255
218 234 255
218 234 255
218 234 255
218 234 255
218 234 255
218 234 255
218 234 255
218 234 255
218 234 255
218 234 255
218 234 255
218 234 255
218 234 255
218 234 255
218 234 255
218 234 255
218 234 255
218 234 255
218 234 255
218 234 255
218 234 255
218 234 255
218 234 255
218 234 255
218 234 255
218 234 255
218 234 255
218 234 255
218 234 255
218 234 255
218 234 255
218 234 255
218 234 255
218 234 255
218 234 255
218 234 255
218 234 255
218 234 255
218 234 255
218 234 255
218 234 255
218 234 255
218 234 255
218 234 255
218 234 255
212 228 249
78 84 100
0 0 42
0 0 42
0 0 42
0 0 42
0 0 42
0 0 42
0 0 42
0 0 42
0 0 42
0 0 42
0 0 42
0 0 42
0 0 42
0 0 42
0 0 42
0 0 42
0 0 42
0 0 42
0 0 42
0 0 42
0 0 42
0 0 42
0 0 42
0 0 42
0 0 42
0 0 42
0 0 42
0 0 42
0 0 42
0 0 42
0 0 42
0 0 42
0 0 42
0 0 42
0 0 42
0 0 41
0 0 42
0 0 41
0 0 40
0 0 42
0 0 39
0 0 48
0 0 51
0 6 55
7 12 59
59 61 86
141 126 102
117 103 89
15 17 77
9 12 66
74 65 80
103 105 89
83 88 53
53 74 26
45 63 8
50 61 22
55 55 25
64 65 37
83 81 53
98 93 64
115 107 78
124 114 87
120 108 81
124 112 82
147 135 110
146 138 105
117 112 80
87 83 58
116 110 78
121 114 80
114 112 81
112 107 73
107 103 70
97 98 67
88 93 57
76 88 58
20 50 86
0 12 62
0 0 47
0 0 47
0 0 47
0 0 46
0 0 44
0 0 42
0 0 41
0 0 42
0 0 42
0 0 42
0 0 42
0 0 42
0 0 42
0 0 42
0 0 42
0 0 42
0 0 42
0 0 42
0 0 42
0 0 42
0 0 42
0 0 42
0 0 41
0 0 40
0 0 47
12 33 57
52 75 55
60 77 23
54 69 21
41 68 14
23 37 43
0 0 45
0 0 38
0 0 44
0 0 42
0 0 45
0 0 40
0 0 42
0 0 42
0 0 42
0 0 42
0 0 42
0 0 42
0 0 42
0 0 42
0 0 42
0 0 42
0 0 42
0 0 42
0 0 42
0 0 42
0 0 42
0 0 42
0 0 42
0 0 42
0 0 42
0 0 42
0 0 42
0 0 42
0 0 42
0 0 42
0 0 42
0 0 42
0 0 42
0 0 42
0 0 42
0 0 42
0 0 42
0 0 42
0 0 42
0 0 42
0 0 42
0 0 42
0 0 42
0 0 42
0 0 42
0 0 42
0 0 42
0 0 42
0 0 42
0 0 42
0 0 42
0 0 42
0 0 42
0 0 42
0 0 42
0 0 42
0 0 42
0 0 42
0 0 42
0 0 42
0 0 42
0 0 42
0 0 42
0 0 42
0 0 42
0 0 42
0 0 42
0 0 42
0 0 42
0 0 42
0 0 42
61 66 82
211 227 248
218 234 255
218 234 255
218 234 255
218 234 255
218 234 255
218 234 255
218 234 255
218 234 255
218 234 255
218 234 255
218 234 255
218 234 255
218 234 255
218 234 255
218 234 255
218 234 255
218 234 255
218 234 255
218 234 255
218 234 255
218 234 255
218 234 255
218 234 255
218 234 255
218 234 255
218 234 255
218 234 255
218 234 255
218 234 255
218 234 255
218 234 255
218 234 255
218 234 255
218 234 255
218 234 255
218 234 255
218 234 255
218 234 255
218 234 255
218 234 255
218 234 255
218 234 255
218 234 255
218 234 255
218 234 255
218 234 255
218 234 255
218 234 255
218 234 255
218 234 255
218 234 255
218 234 255
218 234 255
218 234 255
218 234 255
218 234 255
218 234 255
218 234 255
218 234 255
218 234 255
218 234 255
218 234 255
218 234 255
218 234 255
218 234 255
218 234 255
218 234 255
218 234 255
218 234 255
218 234 255
218 234 255
218 234 255
218 234 255
218 234 255
218 234 255
218 234 255
218 234 255
218 234 255
218 234 255
218 234 255
218 234 255
218 234 255
218 234 255
218 234 255
218 234 255
218 234 255
218 234 255
218 234 255
218 234 255
218 234 255
218 234 255
218 234 255
218 234 255
218 234 255
218 234 255
218 234 255
218 234 255
218 234 255
218 234 255
218 234 255
218 234 255
218 234 255
218 234 255
218 234 255
218 234 255
218 234 255
218 234 255
218 234 255
218 234 255
218 234 255
218 234 255
218 234 255
218 234 255
218 234 255
218 234 255
218 234 255
218 234 255
218 234 255
218 234 255
218 234 255
218 234 255
218 234 255
218 234 255
218 234 255
218 234 255
218 234 255
218 234 255
218 234 255
218 234 255
218 234 255
218 234 255
218 234 255
218 234 255
218 234 255
218 234 255
218 234 255
218 234 255
218 234 255
218 234 255
218 234 255
218 234 255
218 234 255
218 234 255
218 234 255
218 234 255
218 234 255
218 234 255
218 234 255
218 234 255
218 234 255
218 234 255
218 234 255
218 234 255
218 234 255
218 234 255
218 234 255
218 234 255
218 234 255
218 234 255
218 234 255
218 234 255
218 234 255
218 234 255
218 234 255
218 234 255
218 234 255
218 234 255
218 234 255
218 234 255
218 234 255
218 234 255
218 234 255
218 234 255
218 234 255
218 234 255
218 234 255
218 234 255
218 234 255
218 234 255
218 234 255
218 234 255
218 234 255
218 234 255
218 234 255
218 234 255
218 234 255
218 234 255
218 234 255
218 234 255
218 234 255
218 234 255
218 234 255
218 234 255
218 234 255
218 234 255
218 234 255
218 234 255
218 234 255
218 234 255
218 234 255
218 234 255
218 234 255
218 234 255
218 234 255
218 234 255
218 234 255
218 234 255
218 234 255
218 234 255
218 234 255
218 234 255
218 234 255
218 234 255
218 234 255
218 234 255
218 234 255
148 158 176
0 0 42
0 0 42
0 0 42
0 0 42
0 0 42
0 0 42
0 0 42
0 0 42
0 0 42
0 0 42
0 0 42
0 0 42
0 0 42
0 0 42
0 0 42
0 0 42
0 0 42
0 0 42
0 0 42
0 0 42
0 0 42
0 0 42
0 0 42
0 0 42
0 0 42
0 0 42
0 0 42
0 0 42
0 0 42
0 0 42
0 0 42
0 0 42
0 0 42
0 0 42
0 0 42
0 0 41
0 0 40
0 0 42
0 0 42
0 0 42
0 0 42
0 0 43
0 0 48
0 0 56
0 4 60
66 77 85
137 142 129
184 170 142
111 95 83
53 52 77
0 13 65
5 12 75
61 90 104
111 104 69
61 81 37
43 66 16
43 60 15
58 58 32
67 67 38
84 81 55
97 93 66
114 107 77
126 117 89
122 109 79
147 130 94
149 136 108
136 126 90
123 117 81
118 116 75
132 131 89
119 115 80
118 116 84
131 125 90
127 117 85
118 110 80
98 96 64
70 78 65
4 17 62
0 0 53
0 0 53
0 0 48
0 0 47
0 0 47
0 0 45
0 0 40
0 0 41
0 0 42
0 0 42
0 0 42
0 0 42
0 0 42
0 0 42
0 0 42
0 0 42
0 0 42
0 0 42
0 0 42
0 0 42
0 0 42
0 0 42
0 0 42
0 0 42
0 0 41
0 0 44
0 2 47
34 52 45
56 74 17
55 71 20
46 66 17
40 57 30
5 6 37
0 0 44
0 2 49
0 5 55
0 0 45
0 0 43
0 0 37
0 0 42
0 0 42
0 0 42
0 0 42
0 0 42
0 0 42
0 0 42
0 0 42
0 0 42
0 0 42
0 0 42
0 0 42
0 0 42
0 0 42
0 0 42
0 0 42
0 0 42
0 0 42
0 0 42
0 0 42
0 0 42
0 0 42
0 0 42
0 0 42
0 0 42
0 0 42
0 0 42
0 0 42
0 0 42
0 0 42
0 0 42
0 0 42
0 0 42
0 0 42
0 0 42
0 0 42
0 0 42
0 0 42
0 0 42
0 0 42
0 0 42
0 0 42
0 0 42
0 0 42
0 0 42
0 0 42
0 0 42
0 0 42
0 0 42
0 0 42
0 0 42
0 0 42
0 0 42
0 0 42
0 0 42
0 0 42
0 0 42
0 0 42
0 0 42
0 0 42
0 0 42
0 0 42
0 0 42
0 0 42
0 0 42
149 160 178
218 234 255
218 234 255
218 234 255
218 234 255
218 234 255
218 234 255
218 234 255
218 234 255
218 234 255
218 234 255
218 234 255
218 234 255
218 234 255
218 234 255
218 234 255
218 234 255
218 234 255
218 234 255
218 234 255
218 234 255
218 234 255
218 234 255
218 234 255
218 234 255
218 234 255
218 234 255
218 234 255
218 234 255
218 234 255
218 234 255
218 234 255
218 234 255
218 234 255
218 234 255
218 234 255
218 234 255
218 234 255
218 234 255
218 234 255
218 234 255
218 234 255
218 234 255
218 234 255
218 234 255
218 234 255
218 234 255
218 234 255
218 234 255
218 234 255
218 234 255
218 234 255
218 234 255
218 234 255
218 234 255
218 234 255
218 234 255
218 234 255
218 234 255
218 234 255
218 234 255
218 234 255
218 234 255
218 234 255
218 234 255
218 234 255
218 234 255
218 234 255
218 234 255
218 234 255
218 234 255
218 234 255
218 234 255
218 234 255
218 234 255
218 234 255
218 234 255
218 234 255
218 234 255
218 234 255
218 234 255
218 234 255
218 234 255
218 234 255
218 234 255
218 234 255
218 234 255
218 234 255
218 234 255
218 234 255
218 234 255
218 234 255
218 234 255
218 234 255
218 234 255
218 234 255
218 234 255
218 234 255
218 234 255
218 234 255
218 234 255
218 234 255
218 234 255
218 234 255
218 234 255
218 234 255
218 234 255
218 234 255
218 234 255
218 234 255
218 234 255
218 234 255
218 234 255
218 234 255
218 234 255
218 234 255
218 234 255
218 234 255
218 234 255
218 234 255
218 234 255
218 234 255
218 234 255
218 234 255
218 234 255
218 234 255
218 234 255
218 234 255
218 234 255
218 234 255
218 234 255
218 234 255
218 234 255
218 234 255
218 234 255
218 234 255
218 234 255
218 234 255
218 234 255
218 234 255
218 234 255
218 234 255
218 234 255
218 234 255
218 234 255
218 234 255
218 234 255
218 234 255
218 234 255
218 234 255
218 234 255
218 234 255
218 234 255
218 234 255
218 234 255
218 234 255
218 234 255
218 234 255
218 234 255
218 234 255
218 234 255
218 234 255
218 234 255
218 234 255
218 234 255
218 234 255
218 234 255
218 234 255
218 234 255
218 234 255
218 234 255
218 234 255
218 234 255
218 234 255
218 234 255
218 234 255
218 234 255
218 234 255
218 234 255
218 234 255
218 234 255
218 234 255
218 234 255
218 234 255
218 234 255
218 234 255
218 234 255
218 234 255
218 234 255
218 234 255
218 234 255
218 234 255
218 234 255
218 234 255
218 234 255
218 234 255
218 234 255
218 234 255
218 234 255
218 234 255
218 234 255
218 234 255
218 234 255
218 234 255
218 234 255
218 234 255
218 234 255
218 234 255
218 234 255
218 234 255
218 234 255
218 234 255
218 234 255
218 234 255
218 234 255
218 234 255
200 214 235
0 0 42
0 0 42
0 0 42
0 0 42
0 0 42
0 0 42
0 0 42
0 0 42
0 0 42
0 0 42
0 0 42
0 0 42
0 0 42
0 0 42
0 0 42
0 0 41
0 0 42
0 0 42
0 0 42
0 0 42
0 0 42
0 0 42
0 0 42
0 0 42
0 0 42
0 0 42
0 0 42
0 0 42
0 0 42
0 0 42
0 0 42
0 0 42
0 0 42
0 0 42
0 0 42
0 0 42
0 0 41
0 0 42
0 0 42
0 0 42
0 0 41
0 0 42
0 0 45
0 0 47
0 0 47
0 2 54
27 39 81
128 126 120
155 155 126
126 110 94
77 74 70
20 24 71
0 7 58
29 68 106
81 112 111
94 98 64
45 71 15
40 63 6
48 56 19
54 59 29
75 76 50
85 83 56
102 97 67
123 114 82
145 133 102
176 161 121
163 150 114
126 115 83
128 122 89
114 109 68
127 118 80
118 113 80
106 103 69
126 123 88
133 125 90
116 111 75
101 100 62
65 83 69
0 15 62
0 0 59
0 0 53
0 0 43
0 0 45
0 0 47
0 0 45
0 0 42
0 0 42
0 0 42
0 0 42
0 0 42
0 0 42
0 0 42
0 0 42
0 0 42
0 0 42
0 0 42
0 0 42
0 0 42
0 0 42
0 0 42
0 0 42
0 0 42
0 0 42
0 0 42
0 0 41
0 0 41
0 8 53
39 68 47
56 74 15
40 58 21
54 64 14
23 21 47
0 0 44
5 10 53
6 15 56
0 0 53
9 10 52
2 2 38
0 0 42
0 0 42
0 0 42
0 0 42
0 0 42
0 0 42
0 0 42
0 0 42
0 0 42
0 0 42
0 0 42
0 0 42
0 0 42
0 0 42
0 0 42
0 0 42
0 0 42
0 0 42
0 0 42
0 0 42
0 0 42
0 0 42
0 0 42
0 0 42
0 0 42
0 0 42
0 0 42
0 0 42
0 0 42
0 0 42
0 0 42
0 0 42
0 0 42
0 0 42
0 0 42
0 0 42
0 0 42
0 0 42
0 0 42
0 0 42
0 0 42
0 0 42
0 0 42
0 0 42
0 0 42
0 0 42
0 0 42
0 0 42
0 0 42
0 0 42
0 0 42
0 0 42
0 0 42
0 0 42
0 0 42
0 0 42
0 0 42
0 0 42
0 0 42
0 0 42
0 0 42
0 0 42
0 0 42
0 0 42
0 0 42
21 23 48
196 210 231
218 234 255
218 234 255
218 234 255
218 234 255
218 234 255
218 234 255
218 234 255
218 234 255
218 234 255
218 234 255
218 234 255
218 234 255
218 234 255
218 234 255
218 234 255
218 234 255
218 234 255
218 234 255
218 234 255
218 234 255
218 234 255
218 234 255
218 234 255
218 234 255
218 234 255
218 234 255
218 234 255
218 234 255
218 234 255
218 234 255
218 234 255
218 234 255
218 234 255
218 234 255
218 234 255
218 234 255
218 234 255
218 234 255
218 234 255
218 234 255
218 234 255
218 234 255
218 234 255
218 234 255
218 234 255
218 234 255
218 234 255
218 234 255
218 234 255
218 234 255
218 234 255
218 234 255
218 234 255
218 234 255
218 234 255
218 234 255
218 234 255
218 234 255
218 234 255
218 234 255
218 234 255
218 234 255
218 234 255
218 234 255
218 234 255
218 234 255
218 234 255
218 234 255
218 234 255
218 234 255
218 234 255
218 234 255
218 234 255
218 234 255
218 234 255
218 234 255
218 234 255
218 234 255
218 234 255
218 234 255
218 234 255
218 234 255
218 234 255
218 234 255
218 234 255
218 234 255
218 234 255
218 234 255
218 234 255
218 234 255
218 234 255
218 234 255
218 234 255
218 234 255
218 234 255
218 234 255
218 234 255
218 234 255
218 234 255
218 234 255
218 234 255
218 234 255
218 234 255
218 234 255
218 234 255
218 234 255
218 234 255
218 234 255
218 234 255
218 234 255
218 234 255
218 234 255
218 234 255
218 234 255
218 234 255
218 234 255
218 234 255
218 234 255
218 234 255
218 234 255
218 234 255
218 234 255
218 234 255
218 234 255
218 234 255
218 234 255
218 234 255
218 234 255
218 234 255
218 234 255
218 234 255
218 234 255
218 234 255
218 234 255
218 234 255
218 234 255
218 234 255
218 234 255
218 234 255
218 234 255
218 234 255
218 234 255
218 234 255
218 234 255
218 234 255
218 234 255
218 234 255
218 234 255
218 234 255
218 234 255
218 234 255
218 234 255
218 234 255
218 234 255
218 234 255
218 234 255
218 234 255
218 234 255
218 234 255
218 234 255
218 234 255
218 234 255
218 234 255
218 234 255
218 234 255
218 234 255
218 234 255
218 234 255
218 234 255
218 234 255
218 234 255
218 234 255
218 234 255
218 234 255
218 234 255
218 234 255
218 234 255
218 234 255
218 234 255
218 234 255
218 234 255
218 234 255
218 234 255
218 234 255
218 234 255
218 234 255
218 234 255
218 234 255
218 234 255
218 234 255
218 234 255
218 234 255
218 234 255
218 234 255
218 234 255
218 234 255
218 234 255
218 234 255
218 234 255
218 234 255
218 234 255
218 234 255
218 234 255
218 234 255
218 234 255
218 234 255
218 234 255
218 234 255
218 234 255
218 234 255
218 234 255
218 234 255
218 234 255
218 234 255
109 117 133
0 0 42
0 0 42
0 0 42
0 0 42
0 0 42
0 0 42
0 0 42
0 0 42
0 0 42
0 0 42
0 0 42
0 0 42
0 0 42
0 0 42
0 0 42
0 0 42
0 0 42
0 0 42
0 0 42
0 0 42
0 0 42
0 0 42
0 0 42
0 0 42
0 0 42
0 0 42
0 0 42
0 0 42
0 0 42
0 0 42
0 0 42
0 0 42
0 0 42
0 0 42
0 0 42
0 0 42
0 0 42
0 0 42
0 0 42
0 0 42
0 0 42
0 0 42
0 0 43
0 0 44
0 0 44
0 0 42
0 5 51
26 34 75
52 81 111
100 104 103
100 85 59
64 55 77
5 10 63
0 0 64
25 99 123
73 137 118
54 72 28
40 64 13
43 60 15
50 54 19
51 54 24
77 77 48
99 95 64
123 114 81
157 147 114
181 170 131
158 150 116
135 126 102
127 120 91
124 114 85
146 136 106
121 117 87
89 88 56
112 113 78
131 129 93
117 116 76
99 104 59
77 93 72
23 33 66
0 0 58
0 0 44
0 0 42
0 0 44
0 0 45
0 0 44
0 0 41
0 0 41
0 0 42
0 0 42
0 0 42
0 0 42
0 0 42
0 0 42
0 0 42
0 0 42
0 0 42
0 0 42
0 0 42
0 0 42
0 0 42
0 0 42
0 0 42
0 0 42
0 0 43
0 0 37
0 0 45
0 0 58
18 42 72
36 63 44
42 61 10
60 69 23
33 35 44
0 0 46
2 4 45
2 4 38
0 0 45
10 15 53
4 7 43
0 0 44
0 0 42
0 0 42
0 0 42
0 0 42
0 0 42
0 0 42
0 0 42
0 0 42
0 0 42
0 0 42
0 0 42
0 0 42
0 0 42
0 0 42
0 0 42
0 0 42
0 0 42
0 0 42
0 0 42
0 0 42
0 0 42
0 0 42
0 0 42
0 0 42
0 0 42
0 0 42
0 0 42
0 0 42
0 0 42
0 0 42
0 0 42
0 0 42
0 0 42
0 0 42
0 0 42
0 0 42
0 0 42
0 0 42
0 0 42
0 0 42
0 0 42
0 0 42
0 0 42
0 0 42
0 0 42
0 0 42
0 0 42
0 0 42
0 0 42
0 0 42
0 0 42
0 0 42
0 0 42
0 0 42
0 0 42
0 0 42
0 0 42
0 0 42
0 0 42
0 0 42
0 0 42
0 0 42
0 0 42
0 0 42
0 0 42
78 84 100
217 233 254
218 234 255
218 234 255
218 234 255
218 234 255
218 234 255
218 234 255
218 234 255
218 234 255
218 234 255
218 234 255
218 234 255
218 234 255
218 234 255
218 234 255
218 234 255
218 234 255
218 234 255
218 234 255
218 234 255
218 234 255
218 234 255
218 234 255
218 234 255
218 234 255
218 234 255
218 234 255
218 234 255
218 234 255
218 234 255
218 234 255
218 234 255
218 234 255
218 234 255
218 234 255
218 234 255
218 234 255
218 234 255
218 234 255
218 234 255
218 234 255
218 234 255
218 234 255
218 234 255
218 234 255
218 234 255
218 234 255
218 234 255
218 234 255
218 234 255
218 234 255
218 234 255
218 234 255
218 234 255
218 234 255
218 234 255
218 234 255
218 234 255
218 234 255
218 234 255
218 234 255
218 234 255
218 234 255
218 234 255
218 234 255
218 234 255
218 234 255
218 234 255
218 234 255
218 234 255
218 234 255
218 234 255
218 234 255
218 234 255
218 234 255
218 234 255
218 234 255
218 234 255
218 234 255
218 234 255
218 234 255
218 234 255
218 234 255
218 234 255
218 234 255
218 234 255
218 234 255
218 234 255
218 234 255
218 234 255
218 234 255
218 234 255
218 234 255
218 234 255
218 234 255
218 234 255
218 234 255
218 234 255
218 234 255
218 234 255
218 234 255
218 234 255
218 234 255
218 234 255
218 234 255
218 234 255
218 234 255
218 234 255
218 234 255
218 234 255
218 234 255
218 234 255
218 234 255
218 234 255
218 234 255
218 234 255
218 234 255
218 234 255
218 234 255
218 234 255
218 234 255
218 234 255
218 234 255
218 234 255
218 234 255
218 234 255
218 234 255
218 234 255
218 234 255
218 234 255
218 234 255
218 234 255
218 234 255
218 234 255
218 234 255
218 234 255
218 234 255
218 234 255
218 234 255
218 234 255
218 234 255
218 234 255
218 234 255
218 234 255
218 234 255
218 234 255
218 234 255
218 234 255
218 234 255
218 234 255
218 234 255
218 234 255
218 234 255
218 234 255
218 234 255
218 234 255
218 234 255
218 234 255
218 234 255
218 234 255
218 234 255
218 234 255
218 234 255
218 234 255
218 234 255
218 234 255
218 234 255
218 234 255
218 234 255
218 234 255
218 234 255
218 234 255
218 234 255
218 234 255
218 234 255
218 234 255
218 234 255
218 234 255
218 234 255
218 234 255
218 234 255
218 234 255
218 234 255
218 234 255
218 234 255
218 234 255
218 234 255
218 234 255
218 234 255
218 234 255
218 234 255
218 234 255
218 234 255
218 234 255
218 234 255
218 234 255
218 234 255
218 234 255
218 234 255
218 234 255
218 234 255
218 234 255
218 234 255
218 234 255
218 234 255
218 234 255
218 234 255
218 234 255
218 234 255
218 234 255
218 234 255
218 234 255
218 234 255
170 182 201
0 0 42
0 0 42
0 0 42
0 0 42
0 0 42
0 0 42
0 0 42
0 0 42
0 0 42
0 0 42
0 0 42
0 0 42
0 0 42
0 0 42
0 0 42
0 0 42
0 0 42
0 0 42
0 0 42
0 0 42
0 0 42
0 0 42
0 0 42
0 0 42
0 0 42
0 0 42
0 0 42
0 0 42
0 0 42
0 0 42
0 0 42
0 0 42
0 0 42
0 0 42
0 0 42
0 0 42
0 0 42
0 0 42
0 0 42
0 0 42
0 0 42
0 0 41
0 0 42
0 0 43
0 0 45
0 0 46
0 0 43
0 0 47
0 0 57
0 23 85
37 68 114
105 107 87
64 67 72
6 12 75
0 0 56
11 78 100
78 109 87
85 86 42
53 81 15
36 63 10
43 54 12
49 55 21
68 71 41
92 91 62
103 97 65
114 106 74
138 128 92
154 150 119
177 175 155
160 156 126
137 127 100
118 113 85
87 88 59
88 94 62
106 109 75
127 125 90
114 109 77
103 106 64
86 90 71
25 28 54
0 0 43
0 0 43
0 0 41
0 0 43
0 0 43
0 0 42
0 0 42
0 0 41
0 0 42
0 0 42
0 0 42
0 0 42
0 0 42
0 0 42
0 0 42
0 0 42
0 0 42
0 0 42
0 0 42
0 0 42
0 0 42
0 0 42
0 0 42
0 0 42
0 0 41
0 0 41
0 0 44
0 0 41
0 8 57
9 31 73
38 50 26
59 72 43
27 37 53
0 0 41
0 0 55
0 0 57
0 0 51
0 0 41
0 0 40
0 0 40
0 0 42
0 0 42
0 0 42
0 0 42
0 0 42
0 0 42
0 0 42
0 0 42
0 0 42
0 0 42
0 0 42
0 0 42
0 0 42
0 0 42
0 0 42
0 0 42
0 0 42
0 0 42
0 0 42
0 0 42
0 0 42
0 0 42
0 0 42
0 0 42
0 0 42
0 0 42
0 0 42
0 0 42
0 0 42
0 0 42
0 0 42
0 0 42
0 0 42
0 0 42
0 0 42
0 0 42
0 0 42
0 0 42
0 0 42
0 0 42
0 0 42
0 0 42
0 0 42
0 0 42
0 0 42
0 0 42
0 0 42
0 0 42
0 0 42
0 0 42
0 0 42
0 0 42
0 0 42
0 0 42
0 0 42
0 0 42
0 0 42
0 0 42
0 0 42
0 0 42
0 0 42
0 0 42
0 0 42
0 0 42
0 0 42
0 0 41
178 191 211
218 234 255
218 234 255
218 234 255
218 234 255
218 234 255
218 234 255
218 234 255
218 234 255
218 234 255
218 234 255
218 234 255
218 234 255
218 234 255
218 234 255
218 234 255
218 234 255
218 234 255
218 234 255
218 234 255
218 234 255
218 234 255
218 234 255
218 234 255
218 234 255
218 234 255
218 234 255
218 234 255
218 234 255
218 234 255
218 234 255
218 234 255
218 234 255
218 234 255
218 234 255
218 234 255
218 234 255
218 234 255
218 234 255
218 234 255
218 234 255
218 234 255
218 234 255
218 234 255
218 234 255
218 234 255
218 234 255
218 234 255
218 234 255
218 234 255
218 234 255
218 234 255
218 234 255
218 234 255
218 234 255
218 234 255
218 234 255
218 234 255
218 234 255
218 234 255
218 234 255
218 234 255
218 234 255
218 234 255
218 234 255
218 234 255
218 234 255
218 234 255
218 234 255
218 234 255
218 234 255
218 234 255
218 234 255
218 234 255
218 234 255
218 234 255
218 234 255
218 234 255
218 234 255
218 234 255
218 234 255
218 234 255
218 234 255
218 234 255
218 234 255
218 234 255
218 234 255
218 234 255
218 234 255
218 234 255
218 234 255
218 234 255
218 234 255
218 234 255
218 234 255
218 234 255
218 234 255
218 234 255
218 234 255
218 234 255
218 234 255
218 234 255
218 234 255
218 234 255
218 234 255
218 234 255
218 234 255
218 234 255
218 234 255
218 234 255
218 234 255
218 234 255
218 234 255
218 234 255
218 234 255
218 234 255
218 234 255
218 234 255
218 234 255
218 234 255
218 234 255
218 234 255
218 234 255
218 234 255
218 234 255
218 234 255
218 234 255
218 234 255
218 234 255
218 234 255
218 234 255
218 234 255
218 234 255
218 234 255
218 234 255
218 234 255
218 234 255
218 234 255
218 234 255
218 234 255
218 234 255
218 234 255
218 234 255
218 234 255
218 234 255
218 234 255
218 234 255
218 234 255
218 234 255
218 234 255
218 234 255
218 234 255
218 234 255
218 234 255
218 234 255
218 234 255
218 234 255
218 234 255
218 234 255
218 234 255
218 234 255
218 234 255
218 234 255
218 234 255
218 234 255
218 234 255
218 234 255
218 234 255
218 234 255
218 234 255
218 234 255
218 234 255
218 234 255
218 234 255
218 234 255
218 234 255
218 234 255
218 234 255
218 234 255
218 234 255
218 234 255
218 234 255
218 234 255
218 234 255
218 234 255
218 234 255
218 234 255
218 234 255
218 234 255
218 234 255
218 234 255
218 234 255
218 234 255
218 234 255
218 234 255
218 234 255
218 234 255
218 234 255
218 234 255
218 234 255
218 234 255
218 234 255
218 234 255
218 234 255
218 234 255
218 234 255
218 234 255
218 234 255
218 234 255
218 234 255
218 234 255
218 234 255
213 228 249
65 70 86
0 0 42
0 0 42
0 0 42
0 0 42
0 0 42
0 0 42
0 0 42
0 0 42
0 0 42
0 0 42
0 0 42
0 0 42
0 0 42
0 0 42
0 0 42
0 0 42
0 0 42
0 0 42
0 0 42
0 0 42
0 0 42
0 0 42
0 0 42
0 0 42
0 0 42
0 0 42
0 0 42
0 0 42
0 0 42
0 0 42
0 0 42
0 0 42
0 0 42
0 0 42
0 0 42
0 0 42
0 0 42
0 0 42
0 0 42
0 0 42
0 0 42
0 0 39
0 0 43
0 0 45
0 0 45
0 0 48
0 0 39
0 0 45
0 0 54
0 2 62
31 49 97
133 129 115
93 82 72
22 31 69
0 0 49
6 38 74
30 122 132
63 108 107
62 79 32
38 64 0
40 64 9
44 48 15
69 75 39
77 85 49
96 91 63
111 100 75
115 106 78
130 123 92
139 132 103
114 105 73
113 105 74
110 109 76
88 84 55
62 71 37
90 98 66
98 101 70
96 97 66
90 97 69
20 20 56
0 0 52
0 0 39
0 0 42
0 0 42
0 0 42
0 0 42
0 0 42
0 0 42
0 0 42
0 0 42
0 0 42
0 0 42
0 0 42
0 0 42
0 0 42
0 0 42
0 0 42
0 0 42
0 0 42
0 0 42
0 0 42
0 0 42
0 0 42
0 0 42
0 0 42
0 0 41
0 0 41
0 0 44
0 0 45
0 2 49
0 8 59
12 32 68
17 35 60
11 17 49
0 0 37
0 0 56
7 11 57
13 20 45
0 0 44
0 0 46
0 0 43
0 0 40
0 0 42
0 0 41
0 0 40
0 0 42
0 0 40
0 0 42
0 0 42
0 0 42
0 0 42
0 0 42
0 0 42
0 0 42
0 0 42
0 0 42
0 0 42
0 0 42
0 0 42
0 0 42
0 0 42
0 0 42
0 0 42
0 0 42
0 0 42
0 0 42
0 0 42
0 0 42
0 0 42
0 0 42
0 0 42
0 0 42
0 0 42
0 0 42
0 0 42
0 0 42
0 0 42
0 0 42
0 0 42
0 0 42
0 0 42
0 0 42
0 0 42
0 0 42
0 0 42
0 0 42
0 0 42
0 0 42
0 0 42
0 0 42
0 0 42
0 0 42
0 0 42
0 0 42
0 0 42
0 0 42
0 0 42
0 0 42
0 0 42
0 0 42
0 0 42
0 0 42
0 0 42
0 0 42
0 0 42
0 0 42
0 0 42
55 59 75
211 226 247
218 234 255
218 234 255
218 234 255
218 234 255
218 234 255
218 234 255
218 234 255
218 234 255
218 234 255
218 234 255
218 234 255
218 234 255
218 234 255
218 234 255
218 234 255
218 234 255
218 234 255
218 234 255
218 234 255
218 234 255
218 234 255
218 234 255
218 234 255
218 234 255
218 234 255
218 234 255
218 234 255
218 234 255
218 234 255
218 234 255
218 234 255
218 234 255
218 234 255
218 234 255
218 234 255
218 234 255
218 234 255
218 234 255
218 234 255
218 234 255
218 234 255
218 234 255
218 234 255
218 234 255
218 234 255
218 234 255
218 234 255
218 234 255
218 234 255
218 234 255
218 234 255
218 234 255
218 234 255
218 234 255
218 234 255
218 234 255
218 234 255
218 234 255
218 234 255
218 234 255
218 234 255
218 234 255
218 234 255
218 234 255
218 234 255
218 234 255
218 234 255
218 234 255
218 234 255
218 234 255
218 234 255
218 234 255
218 234 255
218 234 255
218 234 255
218 234 255
218 234 255
218 234 255
218 234 255
218 234 255
218 234 255
218 234 255
218 234 255
218 234 255
218 234 255
218 234 255
218 234 255
218 234 255
218 234 255
218 234 255
218 234 255
218 234 255
218 234 255
218 234 255
218 234 255
218 234 255
218 234 255
218 234 255
218 234 255
218 234 255
218 234 255
218 234 255
218 234 255
218 234 255
218 234 255
218 234 255
218 234 255
218 234 255
218 234 255
218 234 255
218 234 255
218 234 255
218 234 255
218 234 255
218 234 255
218 234 255
218 234 255
218 234 255
218 234 255
218 234 255
218 234 255
218 234 255
218 234 255
218 234 255
218 234 255
218 234 255
218 234 255
218 234 255
218 234 255
218 234 255
218 234 255
218 234 255
218 234 255
218 234 255
218 234 255
218 234 255
218 234 255
218 234 255
218 234 255
218 234 255
218 234 255
218 234 255
218 234 255
218 234 255
218 234 255
218 234 255
218 234 255
218 234 255
218 234 255
218 234 255
218 234 255
218 234 255
218 234 255
218 234 255
218 234 255
218 234 255
218 234 255
218 234 255
218 234 255
218 234 255
218 234 255
218 234 255
218 234 255
218 234 255
218 234 255
218 234 255
218 234 255
218 234 255
218 234 255
218 234 255
218 234 255
218 234 255
218 234 255
218 234 255
218 234 255
218 234 255
218 234 255
218 234 255
218 234 255
218 234 255
218 234 255
218 234 255
218 234 255
218 234 255
218 234 255
218 234 255
218 234 255
218 234 255
218 234 255
218 234 255
218 234 255
218 234 255
218 234 255
218 234 255
218 234 255
218 234 255
218 234 255
218 234 255
218 234 255
218 234 255
218 234 255
218 234 255
218 234 255
218 234 255
218 234 255
218 234 255
218 234 255
218 234 255
218 234 255
218 234 255
156 167 185
0 0 42
0 0 42
0 0 42
0 0 42
0 0 42
0 0 42
0 0 42
0 0 42
0 0 42
0 0 42
0 0 42
0 0 42
0 0 42
0 0 42
0 0 42
0 0 42
0 0 42
0 0 42
0 0 42
0 0 42
0 0 42
0 0 42
0 0 42
0 0 42
0 0 42
0 0 42
0 0 42
0 0 42
0 0 42
0 0 42
0 0 42
0 0 42
0 0 42
0 0 42
0 0 42
0 0 42
0 0 42
0 0 42
0 0 42
0 0 42
0 0 42
0 0 42
0 0 42
0 0 42
0 0 42
0 0 42
0 0 42
0 0 43
0 0 47
0 0 55
0 0 62
70 95 108
149 142 125
124 108 81
30 35 68
0 2 58
0 5 47
0 37 70
18 79 112
65 105 91
53 77 21
39 60 0
42 52 0
57 56 24
70 77 49
87 90 56
101 88 61
115 101 76
125 113 85
139 129 101
121 111 81
124 115 85
128 118 85
125 119 88
66 75 37
73 85 46
66 77 36
82 91 54
62 72 51
6 6 51
0 0 48
0 0 38
0 0 43
0 0 42
0 0 42
0 0 42
0 0 42
0 0 42
0 0 42
0 0 42
0 0 42
0 0 42
0 0 42
0 0 42
0 0 42
0 0 42
0 0 42
0 0 42
0 0 42
0 0 42
0 0 42
0 0 42
0 0 42
0 0 42
0 0 42
0 0 39
0 0 39
0 0 41
0 0 44
0 0 48
0 8 56
0 12 60
0 4 52
0 0 40
0 0 43
0 0 54
21 31 52
43 64 48
14 23 46
0 0 58
0 0 51
0 0 43
0 0 44
0 0 39
0 0 41
0 0 41
0 0 41
0 0 42
0 0 42
0 0 42
0 0 42
0 0 42
0 0 42
0 0 42
0 0 42
0 0 42
0 0 42
0 0 42
0 0 42
0 0 42
0 0 42
0 0 42
0 0 42
0 0 42
0 0 42
0 0 42
0 0 42
0 0 42
0 0 42
0 0 42
0 0 42
0 0 42
0 0 42
0 0 42
0 0 42
0 0 42
0 0 42
0 0 42
0 0 42
0 0 42
0 0 42
0 0 42
0 0 42
0 0 42
0 0 42
0 0 42
0 0 42
0 0 42
0 0 42
0 0 42
0 0 42
0 0 42
0 0 42
0 0 42
0 0 42
0 0 42
0 0 42
0 0 42
0 0 42
0 0 42
0 0 42
0 0 42
0 0 42
0 0 42
0 0 42
0 0 42
0 0 42
4 4 42
158 170 187
218 234 255
218 234 255
218 234 255
218 234 255
218 234 255
218 234 255
218 234 255
218 234 255
218 234 255
218 234 255
218 234 255
218 234 255
218 234 255
218 234 255
218 234 255
218 234 255
218 234 255
218 234 255
218 234 255
218 234 255
218 234 255
218 234 255
218 234 255
218 234 255
218 234 255
218 234 255
218 234 255
218 234 255
218 234 255
218 234 255
218 234 255
218 234 255
218 234 255
218 234 255
218 234 255
218 234 255
218 234 255
218 234 255
218 234 255
218 234 255
218 234 255
218 234 255
218 234 255
218 234 255
218 234 255
218 234 255
218 234 255
218 234 255
218 234 255
218 234 255
218 234 255
218 234 255
218 234 255
218 234 255
218 234 255
218 234 255
218 234 255
218 234 255
218 234 255
218 234 255
218 234 255
218 234 255
218 234 255
218 234 255
218 234 255
218 234 255
218 234 255
218 234 255
218 234 255
218 234 255
218 234 255
218 234 255
218 234 255
218 234 255
218 234 255
218 234 255
218 234 255
218 234 255
218 234 255
218 234 255
218 234 255
218 234 255
218 234 255
218 234 255
218 234 255
218 234 255
218 234 255
218 234 255
218 234 255
218 234 255
218 234 255
218 234 255
218 234 255
218 234 255
218 234 255
218 234 255
218 234 255
218 234 255
218 234 255
218 234 255
218 234 255
218 234 255
218 234 255
218 234 255
218 234 255
218 234 255
218 234 255
218 234 255
218 234 255
218 234 255
218 234 255
218 234 255
218 234 255
218 234 255
218 234 255
218 234 255
218 234 255
218 234 255
218 234 255
218 234 255
218 234 255
218 234 255
218 234 255
218 234 255
218 234 255
218 234 255
218 234 255
218 234 255
218 234 255
218 234 255
218 234 255
218 234 255
218 234 255
218 234 255
218 234 255
218 234 255
218 234 255
218 234 255
218 234 255
218 234 255
218 234 255
218 234 255
218 234 255
218 234 255
218 234 255
218 234 255
218 234 255
218 234 255
218 234 255
218 234 255
218 234 255
218 234 255
218 234 255
218 234 255
218 234 255
218 234 255
218 234 255
218 234 255
218 234 255
218 234 255
218 234 255
218 234 255
218 234 255
218 234 255
218 234 255
218 234 255
218 234 255
218 234 255
218 234 255
218 234 255
218 234 255
218 234 255
218 234 255
218 234 255
218 234 255
218 234 255
218 234 255
218 234 255
218 234 255
218 234 255
218 234 255
218 234 255
218 234 255
218 234 255
218 234 255
218 234 255
218 234 255
218 234 255
218 234 255
218 234 255
218 234 255
218 234 255
218 234 255
218 234 255
218 234 255
218 234 255
218 234 255
218 234 255
218 234 255
218 234 255
218 234 255
218 234 255
218 234 255
218 234 255
218 234 255
218 234 255
218 234 255
218 234 255
218 234 255
208 223 244
37 40 60
0 0 42
0 0 42
0 0 42
0 0 42
0 0 42
0 0 42
0 0 42
0 0 42
0 0 42
0 0 42
0 0 42
0 0 42
0 0 42
0 0 42
0 0 42
0 0 42
0 0 42
0 0 42
0 0 42
0 0 42
0 0 42
0 0 42
0 0 42
0 0 42
0 0 42
0 0 42
0 0 42
0 0 42
0 0 42
0 0 42
0 0 42
0 0 42
0 0 42
0 0 42
0 0 42
0 0 42
0 0 42
0 0 42
0 0 42
0 0 42
0 0 42
0 0 42
0 0 42
0 0 42
0 0 42
0 0 42
0 0 42
0 0 43
0 0 46
0 0 52
0 3 63
0 29 74
78 82 101
129 113 99
74 68 86
33 38 58
0 0 49
0 0 45
0 52 86
33 151 158
57 107 84
40 64 7
35 57 7
52 54 20
66 67 40
83 88 57
100 87 61
113 96 72
124 105 79
134 116 88
135 120 94
131 118 89
136 123 89
124 118 85
72 77 42
65 79 39
78 93 52
71 88 45
52 69 48
0 0 47
0 0 46
0 0 41
0 0 41
0 0 42
0 0 42
0 0 42
0 0 42
0 0 42
0 0 42
0 0 42
0 0 42
0 0 42
0 0 42
0 0 42
0 0 42
0 0 42
0 0 42
0 0 42
0 0 42
0 0 42
0 0 42
0 0 42
0 0 42
0 0 42
0 0 42
0 0 46
0 0 45
0 0 43
0 0 38
0 0 39
0 0 42
0 0 41
0 0 39
0 0 39
0 0 45
0 0 42
5 7 46
31 49 62
28 47 52
2 3 59
0 0 59
0 0 47
0 0 44
0 0 41
0 0 43
0 0 40
0 0 43
0 0 42
0 0 42
0 0 42
0 0 42
0 0 42
0 0 42
0 0 42
0 0 42
0 0 42
0 0 42
0 0 42
0 0 42
0 0 42
0 0 42
0 0 42
0 0 42
0 0 42
0 0 42
0 0 42
0 0 42
0 0 42
0 0 42
0 0 42
0 0 42
0 0 42
0 0 42
0 0 42
0 0 42
0 0 42
0 0 42
0 0 42
0 0 42
0 0 42
0 0 42
0 0 42
0 0 42
0 0 42
0 0 42
0 0 42
0 0 42
0 0 42
0 0 42
0 0 42
0 0 42
0 0 42
0 0 42
0 0 42
0 0 42
0 0 42
0 0 42
0 0 42
0 0 42
0 0 42
0 0 42
0 0 42
0 0 42
0 0 42
0 0 42
0 0 42
0 0 42
0 0 42
46 47 61
217 232 252
218 234 255
218 234 255
218 234 255
218 234 255
218 234 255
218 234 255
218 234 255
218 234 255
218 234 255
218 234 255
218 234 255
218 234 255
218 234 255
218 234 255
218 234 255
218 234 255
218 234 255
218 234 255
218 234 255
218 234 255
218 234 255
218 234 255
218 234 255
218 234 255
218 234 255
218 234 255
218 234 255
218 234 255
218 234 255
218 234 255
218 234 255
218 234 255
218 234 255
218 234 255
218 234 255
218 234 255
218 234 255
218 234 255
218 234 255
218 234 255
218 234 255
218 234 255
218 234 255
218 234 255
218 234 255
218 234 255
218 234 255
218 234 255
218 234 255
218 234 255
218 234 255
218 234 255
218 234 255
218 234 255
218 234 255
218 234 255
218 234 255
218 234 255
218 234 255
218 234 255
218 234 255
218 234 255
218 234 255
218 234 255
218 234 255
218 234 255
218 234 255
218 234 255
218 234 255
218 234 255
218 234 255
218 234 255
218 234 255
218 234 255
218 234 255
218 234 255
218 234 255
218 234 255
218 234 255
218 234 255
218 234 255
218 234 255
218 234 255
218 234 255
218 234 255
218 234 255
218 234 255
218 234 255
218 234 255
218 234 255
218 234 255
218 234 255
218 234 255
218 234 255
218 234 255
218 234 255
218 234 255
218 234 255
218 234 255
218 234 255
218 234 255
218 234 255
218 234 255
218 234 255
218 234 255
218 234 255
218 234 255
218 234 255
218 234 255
218 234 255
218 234 255
218 234 255
218 234 255
218 234 255
218 234 255
218 234 255
218 234 255
218 234 255
218 234 255
218 234 255
218 234 255
218 234 255
218 234 255
218 234 255
218 234 255
218 234 255
218 234 255
218 234 255
218 234 255
218 234 255
218 234 255
218 234 255
218 234 255
218 234 255
218 234 255
218 234 255
218 234 255
218 234 255
218 234 255
218 234 255
218 234 255
218 234 255
218 234 255
218 234 255
218 234 255
218 234 255
218 234 255
218 234 255
218 234 255
218 234 255
218 234 255
218 234 255
218 234 255
218 234 255
218 234 255
218 234 255
218 234 255
218 234 255
218 234 255
218 234 255
218 234 255
218 234 255
218 234 255
218 234 255
218 234 255
218 234 255
218 234 255
218 234 255
218 234 255
218 234 255
218 234 255
218 234 255
218 234 255
218 234 255
218 234 255
218 234 255
218 234 255
218 234 255
218 234 255
218 234 255
218 234 255
218 234 255
218 234 255
218 234 255
218 234 255
218 234 255
218 234 255
218 234 255
218 234 255
218 234 255
218 234 255
218 234 255
218 234 255
218 234 255
218 234 255
218 234 255
218 234 255
218 234 255
218 234 255
218 234 255
218 234 255
218 234 255
218 234 255
218 234 255
218 234 255
218 234 255
218 234 255
218 234 255
151 162 179
0 0 42
0 0 42
0 0 42
0 0 42
0 0 42
0 0 42
0 0 42
0 0 42
0 0 42
0 0 42
0 0 42
0 0 42
0 0 42
0 0 42
0 0 42
0 0 42
0 0 42
0 0 42
0 0 42
0 0 42
0 0 42
0 0 42
0 0 42
0 0 42
0 0 42
0 0 42
0 0 42
0 0 42
0 0 42
0 0 42
0 0 42
0 0 42
0 0 42
0 0 42
0 0 42
0 0 42
0 0 42
0 0 42
0 0 42
0 0 42
0 0 42
0 0 42
0 0 42
0 0 42
0 0 42
0 0 42
0 0 42
0 0 40
0 0 41
0 0 45
0 0 48
0 0 59
0 0 56
0 24 82
52 61 96
107 100 92
74 75 60
16 17 50
0 0 48
0 6 42
6 53 78
17 70 95
34 75 47
38 64 7
41 58 16
51 55 24
78 77 51
91 85 58
115 101 78
129 109 86
129 109 84
135 116 89
135 122 95
109 104 74
102 101 71
71 75 43
57 72 33
67 80 41
54 70 26
41 55 48
0 0 44
0 0 43
0 0 41
0 0 42
0 0 42
0 0 42
0 0 42
0 0 42
0 0 42
0 0 42
0 0 42
0 0 42
0 0 42
0 0 42
0 0 42
0 0 42
0 0 42
0 0 42
0 0 42
0 0 42
0 0 42
0 0 42
0 0 42
0 0 42
0 0 42
0 0 42
0 0 39
0 0 41
0 0 44
0 0 46
0 0 46
0 0 45
0 0 44
0 0 46
0 0 47
0 0 42
0 0 46
0 0 56
5 12 55
11 24 52
3 7 50
0 0 43
0 0 48
0 0 48
0 0 43
0 0 43
0 0 41
0 0 40
0 0 42
0 0 42
0 0 42
0 0 42
0 0 42
0 0 42
0 0 42
0 0 42
0 0 42
0 0 42
0 0 42
0 0 42
0 0 42
0 0 42
0 0 42
0 0 42
0 0 42
0 0 42
0 0 42
0 0 42
0 0 42
0 0 42
0 0 42
0 0 42
0 0 42
0 0 42
0 0 42
0 0 42
0 0 42
0 0 42
0 0 42
0 0 42
0 0 42
0 0 42
0 0 42
0 0 42
0 0 42
0 0 42
0 0 42
0 0 42
0 0 42
0 0 42
0 0 42
0 0 42
0 0 42
0 0 42
0 0 42
0 0 42
0 0 42
0 0 42
0 0 42
0 0 42
0 0 42
0 0 42
0 0 42
0 0 42
0 0 42
0 0 42
0 0 42
0 0 42
0 0 42
0 0 42
165 173 185
218 234 255
218 234 255
218 234 255
218 234 255
218 234 255
218 234 255
218 234 255
218 234 255
218 234 255
218 234 255
218 234 255
218 234 255
218 234 255
218 234 255
218 234 255
218 234 255
218 234 255
218 234 255
218 234 255
218 234 255
218 234 255
218 234 255
218 234 255
218 234 255
218 234 255
218 234 255
218 234 255
218 234 255
218 234 255
218 234 255
218 234 255
218 234 255
218 234 255
218 234 255
218 234 255
218 234 255
218 234 255
218 234 255
218 234 255
218 234 255
218 234 255
218 234 255
218 234 255
218 234 255
218 234 255
218 234 255
218 234 255
218 234 255
218 234 255
218 234 255
218 234 255
218 234 255
218 234 255
218 234 255
218 234 255
218 234 255
218 234 255
218 234 255
218 234 255
218 234 255
218 234 255
218 234 255
218 234 255
218 234 255
218 234 255
218 234 255
218 234 255
218 234 255
218 234 255
218 234 255
218 234 255
218 234 255
218 234 255
218 234 255
218 234 255
218 234 255
218 234 255
218 234 255
218 234 255
218 234 255
218 234 255
218 234 255
218 234 255
218 234 255
218 234 255
218 234 255
218 234 255
218 234 255
218 234 255
218 234 255
218 234 255
218 234 255
218 234 255
218 234 255
218 234 255
218 234 255
218 234 255
218 234 255
218 234 255
218 234 255
218 234 255
218 234 255
218 234 255
218 234 255
218 234 255
218 234 255
218 234 255
218 234 255
218 234 255
218 234 255
218 234 255
218 234 255
218 234 255
218 234 255
218 234 255
218 234 255
218 234 255
218 234 255
218 234 255
218 234 255
218 234 255
218 234 255
218 234 255
218 234 255
218 234 255
218 234 255
218 234 255
218 234 255
218 234 255
218 234 255
218 234 255
218 234 255
218 234 255
218 234 255
218 234 255
218 234 255
218 234 255
218 234 255
218 234 255
218 234 255
218 234 255
218 234 255
218 234 255
218 234 255
218 234 255
218 234 255
218 234 255
218 234 255
218 234 255
218 234 255
218 234 255
218 234 255
218 234 255
218 234 255
218 234 255
218 234 255
218 234 255
218 234 255
218 234 255
218 234 255
218 234 255
218 234 255
218 234 255
218 234 255
218 234 255
218 234 255
218 234 255
218 234 255
218 234 255
218 234 255
218 234 255
218 234 255
218 234 255
218 234 255
218 234 255
218 234 255
218 234 255
218 234 255
218 234 255
218 234 255
218 234 255
218 234 255
218 234 255
218 234 255
218 234 255
218 234 255
218 234 255
218 234 255
218 234 255
218 234 255
218 234 255
218 234 255
218 234 255
218 234 255
218 234 255
218 234 255
218 234 255
218 234 255
218 234 255
218 234 255
218 234 255
218 234 255
218 234 255
218 234 255
218 234 255
218 234 255
218 234 255
206 221 241
57 62 79
0 0 42
0 0 42
0 0 42
0 0 42
0 0 42
0 0 42
0 0 42
0 0 42
0 0 42
0 0 42
0 0 42
0 0 42
0 0 42
0 0 42
0 0 42
0 0 42
0 0 42
0 0 42
0 0 42
0 0 42
0 0 42
0 0 42
0 0 42
0 0 42
0 0 42
0 0 42
0 0 42
0 0 42
0 0 42
0 0 42
0 0 42
0 0 42
0 0 42
0 0 42
0 0 42
0 0 42
0 0 42
0 0 42
0 0 42
0 0 42
0 0 42
0 0 42
0 0 42
0 0 42
0 0 42
0 0 42
0 0 42
0 0 40
0 0 41
0 0 42
0 0 44
0 0 51
0 0 49
0 0 48
0 23 87
45 57 89
88 78 68
27 24 49
0 0 41
0 0 45
0 0 54
3 18 54
28 60 88
45 75 31
35 59 0
49 61 18
67 64 45
75 74 46
101 92 65
119 101 78
128 109 86
143 125 99
127 114 88
97 95 70
92 94 65
78 85 51
42 62 16
62 79 28
60 75 27
35 46 45
0 0 45
0 0 40
0 0 40
0 0 44
0 0 42
0 0 42
0 0 42
0 0 42
0 0 42
0 0 42
0 0 42
0 0 42
0 0 42
0 0 42
0 0 42
0 0 45
0 0 45
0 0 45
0 0 45
0 0 45
0 0 44
0 0 42
0 0 42
0 0 42
0 0 42
0 0 42
0 0 42
15 25 44
20 36 40
28 45 35
41 63 37
42 65 32
34 57 32
33 56 44
23 37 40
13 23 48
2 9 45
0 0 46
0 0 54
0 0 55
0 0 55
0 0 55
0 0 53
0 0 48
0 0 50
0 0 39
0 0 39
0 0 40
0 0 42
0 0 42
0 0 42
0 0 42
0 0 42
0 0 42
0 0 42
0 0 42
0 0 42
0 0 42
0 0 42
0 0 42
0 0 42
0 0 42
0 0 42
0 0 42
0 0 42
0 0 42
0 0 42
0 0 42
0 0 42
0 0 42
0 0 42
0 0 42
0 0 42
0 0 42
0 0 42
0 0 42
0 0 42
0 0 42
0 0 42
0 0 42
0 0 42
0 0 42
0 0 42
0 0 42
0 0 42
0 0 42
0 0 42
0 0 42
0 0 42
0 0 42
0 0 42
0 0 42
0 0 42
0 0 42
0 0 42
0 0 42
0 0 42
0 0 42
0 0 42
0 0 42
0 0 42
0 0 42
0 0 42
0 0 42
0 0 42
0 0 42
0 0 42
0 0 42
0 0 42
0 0 42
73 74 85
215 228 245
218 234 255
218 234 255
218 234 255
218 234 255
218 234 255
218 234 255
218 234 255
218 234 255
218 234 255
218 234 255
218 234 255
218 234 255
218 234 255
218 234 255
218 234 255
218 234 255
218 234 255
218 234 255
218 234 255
218 234 255
218 234 255
218 234 255
218 234 255
218 234 255
218 234 255
218 234 255
218 234 255
218 234 255
218 234 255
218 234 255
218 234 255
218 234 255
218 234 255
218 234 255
218 234 255
218 234 255
218 234 255
218 234 255
218 234 255
218 234 255
218 234 255
218 234 255
218 234 255
218 234 255
218 234 255
218 234 255
218 234 255
218 234 255
218 234 255
218 234 255
218 234 255
218 234 255
218 234 255
218 234 255
218 234 255
218 234 255
218 234 255
218 234 255
218 234 255
218 234 255
218 234 255
218 234 255
218 234 255
218 234 255
218 234 255
218 234 255
218 234 255
218 234 255
218 234 255
218 234 255
218 234 255
218 234 255
218 234 255
218 234 255
218 234 255
218 234 255
218 234 255
218 234 255
218 234 255
218 234 255
218 234 255
218 234 255
218 234 255
218 234 255
218 234 255
218 234 255
218 234 255
218 234 255
218 234 255
218 234 255
218 234 255
218 234 255
218 234 255
218 234 255
218 234 255
218 234 255
218 234 255
218 234 255
218 234 255
218 234 255
218 234 255
218 234 255
218 234 255
219 234 255
219 234 255
219 234 255
219 234 255
219 234 255
219 234 255
219 234 255
219 234 255
219 234 255
219 234 255
219 234 255
219 234 255
219 234 255
219 234 255
219 234 255
219 234 255
219 234 255
219 234 255
219 234 255
219 234 255
219 234 255
219 234 255
219 234 255
219 234 255
219 234 255
219 234 255
219 234 255
219 234 255
219 234 255
219 234 255
219 234 255
219 234 255
219 234 255
219 234 255
219 234 255
218 234 255
218 234 255
218 234 255
218 234 255
218 234 255
218 234 255
218 234 255
218 234 255
218 234 255
218 234 255
218 234 255
218 234 255
218 234 255
218 234 255
218 234 255
218 234 255
218 234 255
218 234 255
218 234 255
218 234 255
218 234 255
218 234 255
218 234 255
218 234 255
218 234 255
218 234 255
218 234 255
218 234 255
218 234 255
218 234 255
218 234 255
218 234 255
218 234 255
218 234 255
218 234 255
218 234 255
218 234 255
218 234 255
218 234 255
218 234 255
218 234 255
218 234 255
218 234 255
218 234 255
218 234 255
218 234 255
218 234 255
218 234 255
218 234 255
218 234 255
218 234 255
218 234 255
218 234 255
218 234 255
218 234 255
218 234 255
218 234 255
218 234 255
218 234 255
218 234 255
218 234 255
218 234 255
218 234 255
218 234 255
218 234 255
218 234 255
218 234 255
218 234 255
145 155 172
0 0 42
0 0 42
0 0 42
0 0 42
0 0 42
0 0 42
0 0 42
0 0 42
0 0 42
0 0 42
0 0 42
0 0 42
0 0 42
0 0 42
0 0 42
0 0 42
0 0 42
0 0 42
0 0 42
0 0 42
0 0 42
0 0 42
0 0 42
0 0 42
0 0 42
0 0 42
0 0 42
0 0 42
0 0 42
0 0 42
0 0 42
0 0 42
0 0 42
0 0 42
0 0 42
0 0 42
0 0 42
0 0 42
0 0 42
0 0 42
0 0 42
0 0 42
0 0 42
0 0 42
0 0 42
0 0 42
0 0 42
0 0 41
0 0 42
0 0 40
0 0 40
0 0 43
0 0 50
0 0 45
0 0 49
0 8 62
23 27 70
24 24 59
2 2 45
0 0 47
0 0 47
0 0 45
0 2 49
8 24 79
25 57 63
44 67 23
50 59 21
55 69 25
73 80 47
77 78 48
102 93 68
126 111 85
136 118 92
122 106 82
93 92 65
82 86 52
78 85 45
47 69 19
76 89 37
73 83 38
31 37 39
0 0 42
0 0 42
0 0 41
0 0 46
0 0 42
0 0 42
0 0 42
0 0 42
0 0 42
0 0 41
0 0 39
0 0 43
0 0 41
0 0 46
0 0 39
0 0 42
0 0 42
0 0 44
0 0 47
0 0 46
0 0 43
0 0 41
0 0 45
0 0 43
0 0 43
0 0 42
25 37 39
40 64 23
41 71 33
26 57 56
23 62 81
23 74 56
47 63 12
50 72 19
56 83 15
48 78 31
29 50 56
23 41 60
13 34 52
0 8 46
0 0 47
0 0 43
0 0 55
0 0 47
0 0 42
0 0 37
0 9 49
0 1 41
0 0 40
0 0 41
0 0 42
0 0 43
0 0 42
0 0 42
0 0 42
0 0 42
0 0 42
0 0 42
0 0 42
0 0 42
0 0 42
0 0 42
0 0 42
0 0 42
0 0 42
0 0 42
0 0 42
0 0 42
0 0 42
0 0 42
0 0 42
0 0 42
0 0 42
0 0 42
0 0 42
0 0 42
0 0 42
0 0 42
0 0 42
0 0 42
0 0 42
0 0 42
0 0 42
0 0 42
0 0 42
0 0 42
0 0 42
0 0 42
0 0 42
0 0 42
0 0 42
0 0 42
0 0 42
0 0 42
0 0 42
0 0 42
0 0 42
0 0 42
0 0 42
0 0 42
0 0 42
0 0 42
0 0 42
0 0 42
0 0 42
0 0 42
0 0 42
0 0 42
0 0 42
0 0 42
0 0 41
176 186 191
218 234 255
218 234 255
218 234 255
218 234 255
218 234 255
218 234 255
218 234 255
218 234 255
218 234 255
218 234 255
218 234 255
218 234 255
218 234 255
218 234 255
218 234 255
218 234 255
218 234 255
218 234 255
218 234 255
218 234 255
218 234 255
218 234 255
218 234 255
218 234 255
218 234 255
218 234 255
218 234 255
218 234 255
218 234 255
218 234 255
218 234 255
218 234 255
218 234 255
218 234 255
218 234 255
218 234 255
218 234 255
218 234 255
218 234 255
218 234 255
218 234 255
218 234 255
218 234 255
218 234 255
218 234 255
218 234 255
218 234 255
218 234 255
218 234 255
218 234 255
218 234 255
218 234 255
218 234 255
218 234 255
218 234 255
218 234 255
218 234 255
218 234 255
218 234 255
218 234 255
218 234 255
218 234 255
218 234 255
218 234 255
219 234 255
218 234 255
219 234 255
219 234 255
219 234 255
219 234 255
219 234 255
219 234 255
219 234 255
219 234 255
219 234 255
219 234 255
219 234 255
219 234 255
219 234 255
219 234 255
219 234 255
219 234 255
219 234 255
219 234 255
219 234 255
219 234 255
219 234 255
219 234 255
219 234 255
219 234 255
219 234 255
219 234 255
219 234 255
219 234 255
219 234 255
219 234 255
219 234 255
219 234 255
219 234 255
219 234 255
219 234 255
219 234 255
219 234 255
219 234 255
219 234 255
219 234 255
219 234 255
219 234 255
219 234 255
219 234 255
219 234 255
219 234 255
219 234 255
219 234 255
219 234 255
219 234 255
219 234 255
219 234 255
219 234 255
219 234 255
219 234 255
219 234 255
219 234 255
219 234 255
219 234 255
219 234 255
219 234 255
219 234 255
219 234 255
219 234 255
219 234 255
219 234 255
219 234 255
219 234 255
219 234 255
219 234 255
219 234 255
219 234 255
219 234 255
219 234 255
219 234 255
219 234 255
219 234 255
219 234 255
219 234 255
219 234 255
219 234 255
219 234 255
219 234 255
219 234 255
219 234 255
219 234 255
219 234 255
219 234 255
219 234 255
219 234 255
219 234 255
219 234 255
219 234 255
219 234 255
219 234 255
219 234 255
219 234 255
219 234 255
219 234 255
219 234 255
219 234 255
219 234 255
219 234 255
219 234 255
219 234 255
219 234 255
219 234 255
219 234 255
219 234 255
219 234 255
219 234 255
219 234 255
219 234 255
219 234 255
219 234 255
219 234 255
219 234 255
219 234 255
219 234 255
219 234 255
219 234 255
219 234 255
219 234 255
219 234 255
219 234 255
219 234 255
219 234 255
219 234 255
219 234 255
219 234 255
219 234 255
219 234 255
219 234 255
219 234 255
219 234 255
219 234 255
219 234 255
219 234 255
218 234 255
206 221 241
37 40 60
0 0 42
0 0 42
0 0 42
0 0 42
0 0 42
0 0 42
0 0 42
0 0 42
0 0 42
0 0 42
0 0 42
0 0 42
0 0 42
0 0 42
0 0 42
0 0 42
0 0 42
0 0 42
0 0 42
0 0 42
0 0 42
0 0 42
0 0 42
0 0 42
0 0 42
0 0 42
0 0 42
0 0 42
0 0 42
0 0 42
0 0 42
0 0 42
0 0 42
0 0 42
0 0 42
0 0 42
0 0 42
0 0 42
0 0 42
0 0 42
0 0 42
0 0 42
0 0 42
0 0 42
0 0 42
0 0 42
0 0 42
0 0 42
0 0 42
0 0 41
0 0 42
0 0 42
0 0 47
0 0 46
0 0 51
0 0 52
0 0 50
0 0 53
0 0 51
0 0 45
0 0 46
0 0 49
0 0 51
0 0 71
10 33 61
41 71 18
42 58 14
49 65 19
61 72 31
65 76 35
78 81 45
106 102 71
124 112 84
121 105 83
77 80 50
75 79 44
72 81 39
43 68 12
68 85 30
68 82 29
33 46 49
0 0 44
0 0 42
0 0 41
0 0 41
0 0 42
0 0 42
0 0 42
0 0 42
0 0 42
0 0 45
0 0 45
0 0 42
0 0 45
0 0 42
0 0 46
0 0 53
0 0 53
0 6 57
6 14 56
3 12 56
0 10 51
0 6 46
0 0 45
0 0 36
0 0 39
0 0 42
21 30 36
22 36 46
11 19 68
16 30 58
4 15 69
5 25 65
12 19 36
21 32 31
25 41 21
41 67 12
48 78 19
47 79 30
40 67 41
32 49 61
3 13 49
0 0 41
0 0 44
0 0 46
0 0 42
0 0 43
0 0 45
0 0 47
0 0 42
0 0 39
0 0 46
0 0 45
0 0 40
0 0 41
0 0 42
0 0 42
0 0 42
0 0 42
0 0 42
0 0 42
0 0 42
0 0 42
0 0 42
0 0 42
0 0 42
0 0 42
0 0 42
0 0 42
0 0 42
0 0 42
0 0 42
0 0 42
0 0 42
0 0 42
0 0 42
0 0 42
0 0 42
0 0 42
0 0 42
0 0 42
0 0 42
0 0 42
0 0 42
0 0 42
0 0 42
0 0 42
0 0 42
0 0 42
0 0 42
0 0 42
0 0 42
0 0 42
0 0 42
0 0 42
0 0 42
0 0 42
0 0 42
0 0 42
0 0 42
0 0 42
0 0 42
0 0 42
0 0 42
0 0 42
0 0 42
0 0 42
0 0 42
0 0 42
0 0 42
0 0 42
0 0 41
92 94 94
218 232 250
219 234 255
219 234 255
219 234 255
219 234 255
219 234 255
219 234 255
219 234 255
219 234 255
219 234 255
219 234 255
219 234 255
219 234 255
219 234 255
219 234 255
219 234 255
219 234 255
219 234 255
219 234 255
219 234 255
219 234 255
219 234 255
219 234 255
219 234 255
219 234 255
219 234 255
219 234 255
219 234 255
219 234 255
219 234 255
219 234 255
219 234 255
219 234 255
219 234 255
219 234 255
219 234 255
219 234 255
219 234 255
219 234 255
219 234 255
219 234 255
219 234 255
219 234 255
219 234 255
219 234 255
219 234 255
219 234 255
219 234 255
219 234 255
219 234 255
219 234 255
219 234 255
219 234 255
219 234 255
219 234 255
219 234 255
219 234 255
219 234 255
219 234 255
219 234 255
219 234 255
219 234 255
219 234 255
219 234 255
219 234 255
219 234 255
219 234 255
219 234 255
219 234 255
219 234 255
219 234 255
219 234 255
219 234 255
219 234 255
219 234 255
219 234 255
219 234 255
219 234 255
219 234 255
219 234 255
219 234 255
219 234 255
219 234 255
219 234 255
219 234 255
219 234 255
219 234 255
219 234 255
219 234 255
219 234 255
219 234 255
219 234 255
219 234 255
219 234 255
219 234 255
219 234 255
219 234 255
219 234 255
219 234 255
219 234 255
219 234 255
219 234 255
219 234 255
219 234 255
219 234 255
219 234 255
219 234 255
219 234 255
219 234 255
219 234 255
219 234 255
219 234 255
219 234 255
219 234 255
219 234 255
219 234 255
219 234 255
219 234 255
219 234 255
219 234 255
219 234 255
219 234 255
219 234 255
219 234 255
219 234 255
219 234 255
219 234 255
219 234 255
219 234 255
219 234 255
219 234 255
219 234 255
219 234 255
219 234 255
219 234 255
219 234 255
219 234 255
219 234 255
219 234 255
219 234 255
219 234 255
219 234 255
219 234 255
219 234 255
219 234 255
219 234 255
219 234 255
219 234 255
219 234 255
219 234 255
219 234 255
219 234 255
219 234 255
219 234 255
219 234 255
219 234 255
219 234 255
219 234 255
219 234 255
219 234 255
219 234 255
219 234 255
219 234 255
219 234 255
219 234 255
219 234 255
219 234 255
219 234 255
219 234 255
219 234 255
219 234 255
219 234 255
219 234 255
219 234 255
219 234 255
219 234 255
219 234 255
219 234 255
219 234 255
219 234 255
219 234 255
219 234 255
219 234 255
219 234 255
219 234 255
219 234 255
219 234 255
219 234 255
219 234 255
219 234 255
219 234 255
219 234 255
219 234 255
219 234 255
219 234 255
219 234 255
219 234 255
219 234 255
219 234 255
219 234 255
219 234 255
219 234 255
219 234 255
219 234 255
219 234 255
162 173 191
0 0 42
0 0 42
0 0 42
0 0 42
0 0 42
0 0 42
0 0 42
0 0 42
0 0 42
0 0 42
0 0 42
0 0 42
0 0 42
0 0 42
0 0 42
0 0 42
0 0 42
0 0 42
0 0 42
0 0 42
0 0 42
0 0 42
0 0 42
0 0 42
0 0 42
0 0 42
0 0 42
0 0 42
0 0 42
0 0 42
0 0 42
0 0 42
0 0 42
0 0 42
0 0 42
0 0 42
0 0 42
0 0 42
0 0 42
0 0 42
0 0 42
0 0 42
0 0 42
0 0 42
0 0 42
0 0 42
0 0 42
0 0 42
0 0 42
0 0 42
0 0 42
0 0 42
0 0 42
0 0 45
0 0 44
0 0 48
0 0 49
0 0 48
0 0 49
0 0 47
0 0 45
0 0 48
0 0 53
0 9 55
0 4 62
0 26 88
30 65 36
35 65 8
49 67 16
52 71 25
53 72 21
63 79 29
79 88 45
93 94 56
104 95 67
91 93 64
76 75 46
57 66 24
38 67 7
45 74 5
51 79 14
39 64 41
0 0 47
0 0 43
0 0 42
0 0 39
0 0 42
0 0 42
0 0 42
0 0 42
0 0 42
0 0 40
0 0 41
0 0 39
0 0 47
0 0 49
0 0 56
15 27 47
20 36 45
24 46 44
32 62 34
30 60 41
24 48 45
19 34 39
0 0 43
0 0 42
0 0 40
0 0 36
0 0 41
0 0 46
0 6 42
23 38 33
0 8 49
0 0 53
0 0 42
0 0 46
0 0 44
8 12 38
20 29 39
22 34 43
45 64 23
44 70 12
41 65 28
24 36 40
11 16 47
0 0 38
0 0 43
0 0 41
0 0 42
0 0 45
8 10 37
0 0 40
5 5 44
10 11 48
2 2 36
0 0 39
0 0 42
0 0 42
0 0 42
0 0 42
0 0 42
0 0 42
0 0 42
0 0 42
0 0 42
0 0 42
0 0 42
0 0 42
0 0 42
0 0 42
0 0 42
0 0 42
0 0 42
0 0 42
0 0 42
0 0 42
0 0 42
0 0 42
0 0 42
0 0 42
0 0 42
0 0 42
0 0 42
0 0 42
0 0 42
0 0 42
0 0 42
0 0 42
0 0 42
0 0 42
0 0 42
0 0 42
0 0 42
0 0 42
0 0 42
0 0 42
0 0 42
0 0 42
0 0 42
0 0 42
0 0 42
0 0 42
0 0 42
0 0 42
0 0 42
0 0 42
0 0 42
0 0 42
0 0 42
0 0 42
0 0 42
0 0 42
0 0 42
0 0 43
192 204 216
219 234 255
219 234 255
219 234 255
219 234 255
219 234 255
219 234 255
219 234 255
219 234 255
219 234 255
219 234 255
219 234 255
219 234 255
219 234 255
219 234 255
219 234 255
219 234 255
219 234 255
219 234 255
219 234 255
219 234 255
219 234 255
219 234 255
219 234 255
219 234 255
219 234 255
219 234 255
219 234 255
219 234 255
219 234 255
219 234 255
219 234 255
219 234 255
219 234 255
219 234 255
219 234 255
219 234 255
219 234 255
219 234 255
219 234 255
219 234 255
219 234 255
219 234 255
219 234 255
219 234 255
219 234 255
219 234 255
219 234 255
219 234 255
219 234 255
219 234 255
219 234 255
219 234 255
219 234 255
219 234 255
219 234 255
219 234 255
219 234 255
219 234 255
219 234 255
219 234 255
219 234 255
219 234 255
219 234 255
219 234 255
219 234 255
219 234 255
219 234 255
219 234 255
219 234 255
219 234 255
219 234 255
219 234 255
219 234 255
219 234 255
219 234 255
219 234 255
219 234 255
219 234 255
219 234 255
219 234 255
219 234 255
219 234 255
219 234 255
219 234 255
219 234 255
219 234 255
219 234 255
219 234 255
219 234 255
219 234 255
219 234 255
219 234 255
219 234 255
219 234 255
219 234 255
219 234 255
219 234 255
219 234 255
219 234 255
219 234 255
219 234 255
219 234 255
219 234 255
219 234 255
219 234 255
219 234 255
219 234 255
219 234 255
219 234 255
219 234 255
219 234 255
219 234 255
219 234 255
219 234 255
219 234 255
219 234 255
219 234 255
219 234 255
219 234 255
219 234 255
219 234 255
219 234 255
219 234 255
219 234 255
219 234 255
219 234 255
219 234 255
219 234 255
219 234 255
219 234 255
219 234 255
219 234 255
219 234 255
219 234 255
219 234 255
219 234 255
219 234 255
219 234 255
219 234 255
219 234 255
219 234 255
219 234 255
219 234 255
219 234 255
219 234 255
219 234 255
219 234 255
219 234 255
219 234 255
219 234 255
219 234 255
219 234 255
219 234 255
219 234 255
219 234 255
219 234 255
219 234 255
219 234 255
219 234 255
219 234 255
219 234 255
219 234 255
219 234 255
219 234 255
219 234 255
219 234 255
219 234 255
219 234 255
219 234 255
219 234 255
219 234 255
219 234 255
219 234 255
219 234 255
219 234 255
219 234 255
219 234 255
219 234 255
219 234 255
219 234 255
219 234 255
219 234 255
219 234 255
219 234 255
219 234 255
219 234 255
219 234 255
219 234 255
219 234 255
219 234 255
219 234 255
219 234 255
219 234 255
219 234 255
219 234 255
219 234 255
219 234 255
219 234 255
219 234 255
219 234 255
219 234 255
219 234 255
219 234 255
210 224 245
43 46 65
0 0 42
0 0 42
0 0 42
0 0 42
0 0 42
0 0 42
0 0 42
0 0 42
0 0 42
0 0 42
0 0 42
0 0 42
0 0 42
0 0 42
0 0 42
0 0 42
0 0 42
0 0 42
0 0 42
0 0 42
0 0 42
0 0 42
0 0 42
0 0 42
0 0 42
0 0 42
0 0 42
0 0 42
0 0 42
0 0 42
0 0 42
0 0 42
0 0 42
0 0 42
0 0 42
0 0 42
0 0 42
0 0 42
0 0 42
0 0 42
0 0 42
0 0 42
0 0 42
0 0 42
0 0 42
0 0 42
0 0 42
0 0 42
0 0 42
0 0 42
0 0 42
0 0 42
0 0 42
0 0 40
0 0 42
0 0 44
0 0 45
0 0 45
0 0 44
0 0 45
0 0 47
0 0 52
0 0 57
0 0 63
0 16 73
5 28 101
28 55 34
42 66 17
46 66 18
50 72 20
48 71 14
54 76 16
62 79 28
68 80 35
86 88 50
85 88 54
83 81 52
71 76 43
47 63 18
44 64 12
43 74 6
44 75 11
12 20 40
0 0 48
0 0 46
0 0 39
0 0 42
0 0 42
0 0 42
0 0 42
0 0 42
0 0 45
0 0 43
0 0 44
0 0 45
0 16 61
25 42 37
41 65 18
39 67 16
38 68 11
36 67 0
35 67 0
33 61 8
22 37 33
0 0 41
0 0 46
0 0 48
0 0 40
0 0 42
0 0 37
0 0 39
0 0 42
0 0 39
0 0 44
0 0 42
0 0 42
0 0 38
0 0 37
0 0 44
4 6 51
25 41 38
46 72 8
53 79 12
52 73 17
51 67 30
39 55 35
7 12 46
0 0 39
0 0 45
6 7 44
23 28 38
0 0 43
0 0 41
0 0 45
0 0 41
0 0 41
0 0 42
0 0 42
0 0 42
0 0 42
0 0 42
0 0 42
0 0 42
0 0 42
0 0 42
0 0 42
0 0 42
0 0 42
0 0 42
0 0 42
0 0 42
0 0 42
0 0 42
0 0 42
0 0 42
0 0 42
0 0 42
0 0 42
0 0 42
0 0 42
0 0 42
0 0 42
0 0 42
0 0 42
0 0 42
0 0 42
0 0 42
0 0 42
0 0 42
0 0 42
0 0 42
0 0 42
0 0 42
0 0 42
0 0 42
0 0 42
0 0 42
0 0 42
0 0 42
0 0 42
0 0 42
0 0 42
0 0 42
0 0 42
0 0 42
0 0 42
0 0 42
0 0 42
0 0 42
0 0 42
0 0 42
0 0 42
0 0 41
0 0 43
137 142 134
219 233 251
219 234 255
219 234 255
219 234 255
219 234 255
219 234 255
219 234 255
219 234 255
219 234 255
219 234 255
219 234 255
219 234 255
219 234 255
219 234 255
219 234 255
219 234 255
219 234 255
219 234 255
219 234 255
219 234 255
219 234 255
219 234 255
219 234 255
219 234 255
219 234 255
219 234 255
219 234 255
219 234 255
219 234 255
219 234 255
219 234 255
219 234 255
219 234 255
219 234 255
219 234 255
219 234 255
219 234 255
219 234 255
219 234 255
219 234 255
219 234 255
219 234 255
219 234 255
219 234 255
219 234 255
219 234 255
219 234 255
219 234 255
219 234 255
219 234 255
219 234 255
219 234 255
219 234 255
219 234 255
219 234 255
219 234 255
219 234 255
219 234 255
219 234 255
219 234 255
219 234 255
219 234 255
219 234 255
219 234 255
219 234 255
219 234 255
219 234 255
219 234 255
219 234 255
219 234 255
219 234 255
219 234 255
219 234 255
219 234 255
219 234 255
219 234 255
219 234 255
219 234 255
219 234 255
219 234 255
219 234 255
219 234 255
219 234 255
219 234 255
219 234 255
219 234 255
219 234 255
219 234 255
219 234 255
219 234 255
219 234 255
219 234 255
219 234 255
219 234 255
219 234 255
219 234 255
219 234 255
219 234 255
219 234 255
219 234 255
219 234 255
219 234 255
219 234 255
219 234 255
219 234 255
219 234 255
219 234 255
219 234 255
219 234 255
219 234 255
219 234 255
219 234 255
219 234 255
219 234 255
219 234 255
219 234 255
219 234 255
219 234 255
219 234 255
219 234 255
219 234 255
219 234 255
219 234 255
219 234 255
219 234 255
219 234 255
219 234 255
219 234 255
219 234 255
219 234 255
219 234 255
219 234 255
219 234 255
219 234 255
219 234 255
219 234 255
219 234 255
219 234 255
219 234 255
219 234 255
219 234 255
219 234 255
219 234 255
219 234 255
219 234 255
219 234 255
219 234 255
219 234 255
219 234 255
219 234 255
219 234 255
219 234 255
219 234 255
219 234 255
219 234 255
219 234 255
219 234 255
219 234 255
219 234 255
219 234 255
219 234 255
219 234 255
219 234 255
219 234 255
219 234 255
219 234 255
219 234 255
219 234 255
219 234 255
219 234 255
219 234 255
219 234 255
219 234 255
219 234 255
219 234 255
219 234 255
219 234 255
219 234 255
219 234 255
219 234 255
219 234 255
219 234 255
219 234 255
219 234 255
219 234 255
219 234 255
219 234 255
219 234 255
219 234 255
219 234 255
219 234 255
219 234 255
219 234 255
219 234 255
219 234 255
219 234 255
219 234 255
219 234 255
219 234 255
219 234 255
219 234 255
219 234 255
219 234 255
164 175 193
0 0 42
0 0 42
0 0 42
0 0 42
0 0 42
0 0 42
0 0 42
0 0 42
0 0 42
0 0 42
0 0 42
0 0 42
0 0 42
0 0 42
0 0 42
0 0 42
0 0 42
0 0 42
0 0 42
0 0 42
0 0 42
0 0 42
0 0 42
0 0 42
0 0 42
0 0 42
0 0 42
0 0 42
0 0 42
0 0 42
0 0 42
0 0 42
0 0 42
0 0 42
0 0 42
0 0 42
0 0 42
0 0 42
0 0 42
0 0 42
0 0 42
0 0 42
0 0 42
0 0 42
0 0 42
0 0 42
0 0 42
0 0 42
0 0 42
0 0 42
0 0 42
0 0 42
0 0 42
0 0 40
0 0 41
0 0 42
0 0 43
0 0 45
0 0 44
0 0 44
0 0 45
0 0 49
0 0 54
0 0 59
0 0 59
0 24 85
12 44 79
33 53 16
43 63 9
44 66 13
52 75 19
49 74 16
43 67 2
50 73 14
50 72 15
59 73 21
62 73 27
76 81 45
86 91 58
78 84 51
62 70 31
44 66 7
50 75 13
31 47 25
10 17 37
0 0 47
0 0 42
0 0 42
0 0 42
0 0 42
0 0 42
0 0 42
0 0 41
0 0 40
0 0 45
0 0 48
5 33 76
36 64 45
35 59 0
35 62 0
32 61 0
30 59 0
32 60 0
19 37 25
7 11 37
0 0 36
0 0 34
0 0 42
0 0 45
0 0 40
0 0 43
0 0 45
0 0 42
0 0 39
0 0 44
0 0 45
0 0 46
0 0 45
0 0 44
0 0 43
0 0 40
2 4 50
9 18 42
19 31 51
44 68 28
61 78 23
54 72 17
33 54 22
27 42 15
10 17 34
3 3 43
14 16 44
0 0 43
0 0 34
0 0 39
0 0 50
0 0 43
0 0 41
0 0 42
0 0 42
0 0 42
0 0 42
0 0 42
0 0 42
0 0 42
0 0 42
0 0 42
0 0 42
0 0 42
0 0 42
0 0 42
0 0 42
0 0 42
0 0 42
0 0 42
0 0 42
0 0 42
0 0 42
0 0 42
0 0 42
0 0 42
0 0 42
0 0 42
0 0 42
0 0 42
0 0 42
0 0 42
0 0 42
0 0 42
0 0 42
0 0 42
0 0 42
0 0 42
0 0 42
0 0 42
0 0 42
0 0 42
0 0 42
0 0 42
0 0 42
0 0 42
0 0 42
0 0 42
0 0 42
0 0 42
0 0 42
0 0 42
0 0 42
0 0 42
0 0 42
0 0 42
0 0 42
0 0 42
0 0 42
0 0 41
65 76 87
209 218 220
219 234 255
219 234 255
219 234 255
219 234 255
219 234 255
219 234 255
219 234 255
219 234 255
219 234 255
219 234 255
219 234 255
219 234 255
219 234 255
219 234 255
219 234 255
219 234 255
219 234 255
219 234 255
219 234 255
219 234 255
219 234 255
219 234 255
219 234 255
219 234 255
219 234 255
219 234 255
219 234 255
219 234 255
219 234 255
219 234 255
219 234 255
219 234 255
219 234 255
219 234 255
219 234 255
219 234 255
219 234 255
219 234 255
219 234 255
219 234 255
219 234 255
219 234 255
219 234 255
219 234 255
219 234 255
219 234 255
219 234 255
219 234 255
219 234 255
219 234 255
219 234 255
219 234 255
219 234 255
219 234 255
219 234 255
219 234 255
219 234 255
219 234 255
219 234 255
219 234 255
219 234 255
219 234 255
219 234 255
219 234 255
219 234 255
219 234 255
219 234 255
219 234 255
219 234 255
219 234 255
219 234 255
219 234 255
219 234 255
219 234 255
219 234 255
219 234 255
219 234 255
219 234 255
219 234 255
219 234 255
219 234 255
219 234 255
219 234 255
219 234 255
219 234 255
219 234 255
219 234 255
219 234 255
219 234 255
219 234 255
219 234 255
219 234 255
219 234 255
219 234 255
219 234 255
219 234 255
219 234 255
219 234 255
219 234 255
219 234 255
219 234 255
219 234 255
219 234 255
219 234 255
219 234 255
219 234 255
219 234 255
219 234 255
219 234 255
219 234 255
219 234 255
219 234 255
219 234 255
219 234 255
219 234 255
219 234 255
219 234 255
219 234 255
219 234 255
219 234 255
219 234 255
219 234 255
219 234 255
219 234 255
219 234 255
219 234 255
219 234 255
219 234 255
219 234 255
219 234 255
219 234 255
219 234 255
219 234 255
219 234 255
219 234 255
219 234 255
219 234 255
219 234 255
219 234 255
219 234 255
219 234 255
219 234 255
219 234 255
219 234 255
219 234 255
219 234 255
219 234 255
219 234 255
219 234 255
219 234 255
219 234 255
219 234 255
219 234 255
219 234 255
219 234 255
219 234 255
219 234 255
219 234 255
219 234 255
219 234 255
219 234 255
219 234 255
219 234 255
219 234 255
219 234 255
219 234 255
219 234 255
219 234 255
219 234 255
219 234 255
219 234 255
219 234 255
219 234 255
219 234 255
219 234 255
219 234 255
219 234 255
219 234 255
219 234 255
219 234 255
219 234 255
219 234 255
219 234 255
219 234 255
219 234 255
219 234 255
219 234 255
219 234 255
219 234 255
219 234 255
219 234 255
219 234 255
219 234 255
219 234 255
219 234 255
219 234 255
219 234 255
219 234 255
219 234 255
219 234 255
219 234 255
215 231 252
87 93 109
3 6 42
0 0 39
0 0 42
0 0 42
0 0 42
0 0 42
0 0 42
0 0 42
0 0 42
0 0 42
0 0 42
0 0 42
0 0 42
0 0 42
0 0 42
0 0 42
0 0 42
0 0 42
0 0 42
0 0 42
0 0 42
0 0 42
0 0 42
0 0 42
0 0 42
0 0 42
0 0 42
0 0 42
0 0 42
0 0 42
0 0 42
0 0 42
0 0 42
0 0 42
0 0 42
0 0 42
0 0 42
0 0 42
0 0 42
0 0 42
0 0 42
0 0 42
0 0 42
0 0 42
0 0 42
0 0 42
0 0 42
0 0 42
0 0 42
0 0 42
0 0 42
0 0 42
0 0 42
0 0 40
0 0 42
0 0 42
0 0 43
0 0 45
0 0 45
0 0 45
0 0 45
0 0 48
0 0 54
0 0 56
0 0 58
1 12 74
21 53 62
40 62 19
43 68 12
48 72 15
50 72 16
45 67 13
44 66 4
42 63 0
44 67 9
46 68 0
52 69 13
57 71 23
64 72 29
84 91 50
72 82 40
56 69 30
48 67 8
44 69 15
20 37 34
0 0 46
0 0 39
0 0 42
0 0 42
0 0 42
0 0 42
0 0 42
0 0 42
0 0 48
0 0 46
0 7 50
10 44 71
35 66 40
31 60 0
33 62 0
32 62 0
30 59 0
33 60 10
12 24 34
0 0 41
0 0 46
0 0 39
0 0 42
0 0 37
0 0 44
0 0 46
0 0 37
0 0 40
0 0 44
0 0 42
0 0 40
0 0 38
0 0 40
0 0 43
0 0 41
0 0 39
0 0 43
0 0 43
15 27 42
30 51 24
34 52 17
36 54 28
37 57 22
36 52 31
21 33 30
2 3 40
10 11 38
29 37 35
10 13 39
5 8 42
14 20 38
10 15 40
0 0 41
0 0 42
0 0 42
0 0 42
0 0 42
0 0 42
0 0 42
0 0 42
0 0 42
0 0 42
0 0 42
0 0 42
0 0 42
0 0 42
0 0 42
0 0 42
0 0 42
0 0 42
0 0 42
0 0 42
0 0 42
0 0 42
0 0 42
0 0 42
0 0 42
0 0 42
0 0 42
0 0 42
0 0 42
0 0 42
0 0 42
0 0 42
0 0 42
0 0 42
0 0 42
0 0 42
0 0 42
0 0 42
0 0 42
0 0 42
0 0 42
0 0 42
0 0 42
0 0 42
0 0 42
0 0 42
0 0 42
0 0 42
0 0 42
0 0 42
0 0 42
0 0 42
0 0 42
0 0 42
0 0 42
0 0 42
0 0 42
0 0 42
0 1 49
180 180 162
218 233 254
219 234 255
219 234 255
219 234 255
219 234 255
219 234 255
219 234 255
219 234 255
219 234 255
219 234 255
219 234 255
219 234 255
219 234 255
219 234 255
219 234 255
219 234 255
219 234 255
219 234 255
219 234 255
219 234 255
219 234 255
219 234 255
219 234 255
219 234 255
219 234 255
219 234 255
219 234 255
219 234 255
219 234 255
219 234 255
219 234 255
219 234 255
219 234 255
219 234 255
219 234 255
219 234 255
219 234 255
219 234 255
219 234 255
219 234 255
219 234 255
219 234 255
219 234 255
219 234 255
219 234 255
219 234 255
219 234 255
219 234 255
219 234 255
219 234 255
219 234 255
219 234 255
219 234 255
219 234 255
219 234 255
219 234 255
219 234 255
219 234 255
219 234 255
219 234 255
219 234 255
219 234 255
219 234 255
219 234 255
219 234 255
219 234 255
219 234 255
219 234 255
219 234 255
219 234 255
219 234 255
219 234 255
219 234 255
219 234 255
219 234 255
219 234 255
219 234 255
219 234 255
219 234 255
219 234 255
219 234 255
219 234 255
219 234 255
219 234 255
219 234 255
219 234 255
219 234 255
219 234 255
219 234 255
219 234 255
219 234 255
219 234 255
219 234 255
219 234 255
219 234 255
219 234 255
219 234 255
219 234 255
219 234 255
219 234 255
219 234 255
219 234 255
219 234 255
219 234 255
219 234 255
219 234 255
219 234 255
219 234 255
219 234 255
219 234 255
219 234 255
219 234 255
219 234 255
219 234 255
219 234 255
219 234 255
219 234 255
219 234 255
219 234 255
219 234 255
219 234 255
219 234 255
219 234 255
219 234 255
219 234 255
219 234 255
219 234 255
219 234 255
219 234 255
219 234 255
219 234 255
219 234 255
219 234 255
219 234 255
219 234 255
219 234 255
219 234 255
219 234 255
219 234 255
219 234 255
219 234 255
219 234 255
219 234 255
219 234 255
219 234 255
219 234 255
219 234 255
219 234 255
219 234 255
219 234 255
219 234 255
219 234 255
219 234 255
219 234 255
219 234 255
219 234 255
219 234 255
219 234 255
219 234 255
219 234 255
219 234 255
219 234 255
219 234 255
219 234 255
219 234 255
219 234 255
219 234 255
219 234 255
219 234 255
219 234 255
219 234 255
219 234 255
219 234 255
219 234 255
219 234 255
219 234 255
219 234 255
219 234 255
219 234 255
219 234 255
219 234 255
219 234 255
219 234 255
219 234 255
219 234 255
219 234 255
219 234 255
219 234 255
219 234 255
219 234 255
219 234 255
219 234 255
219 234 255
219 234 255
219 234 255
219 234 255
219 234 255
219 234 255
219 234 255
219 234 255
219 234 255
184 197 216
0 0 42
11 15 43
0 0 42
0 0 42
0 0 42
0 0 42
0 0 42
0 0 42
0 0 42
0 0 42
0 0 42
0 0 42
0 0 42
0 0 42
0 0 42
0 0 42
0 0 42
0 0 42
0 0 42
0 0 42
0 0 42
0 0 42
0 0 42
0 0 42
0 0 42
0 0 42
0 0 42
0 0 42
0 0 42
0 0 42
0 0 42
0 0 42
0 0 42
0 0 42
0 0 42
0 0 42
0 0 42
0 0 42
0 0 42
0 0 42
0 0 42
0 0 42
0 0 42
0 0 42
0 0 42
0 0 42
0 0 42
0 0 42
0 0 42
0 0 42
0 0 42
0 0 42
0 0 42
0 0 42
0 0 41
0 0 43
0 0 44
0 0 44
0 0 43
0 0 43
0 0 45
0 0 45
0 0 46
0 0 48
0 0 47
0 0 47
0 2 56
14 28 64
35 64 35
42 73 13
46 70 17
46 68 4
46 65 8
43 62 12
41 59 0
47 69 12
39 62 0
41 61 4
50 66 13
51 64 16
75 88 45
61 75 28
63 73 32
80 86 51
59 74 27
34 58 33
8 16 45
0 0 40
0 0 45
0 0 44
0 0 43
0 0 43
0 0 39
0 0 50
0 0 47
0 0 44
6 14 59
22 50 47
36 63 7
33 60 0
33 59 0
32 61 0
32 65 0
35 60 27
12 20 36
0 0 42
0 0 42
0 0 42
0 0 42
0 0 42
0 0 42
0 0 42
0 0 41
0 0 42
0 0 42
0 0 42
0 0 43
0 0 42
0 0 41
0 0 42
0 0 42
0 0 42
0 0 42
0 0 40
8 12 38
7 11 41
0 7 39
0 4 40
9 14 39
7 8 44
0 0 38
0 0 38
8 11 42
39 47 45
52 66 32
40 55 30
44 62 30
48 66 24
31 47 24
12 27 34
0 0 42
0 0 43
0 0 43
0 0 40
0 0 43
0 0 41
0 0 43
0 0 42
0 0 41
0 0 42
0 0 42
0 0 42
0 0 42
0 0 42
0 0 42
0 0 42
0 0 42
0 0 42
0 0 42
0 0 42
0 0 42
0 0 42
0 0 42
0 0 42
0 0 42
0 0 42
0 0 42
0 0 42
0 0 42
0 0 42
0 0 42
0 0 42
0 0 42
0 0 42
0 0 42
0 0 42
0 0 42
0 0 42
0 0 42
0 0 42
0 0 42
0 0 42
0 0 42
0 0 42
0 0 42
0 0 42
0 0 42
0 0 42
0 0 42
0 0 42
0 0 42
0 0 42
0 0 42
0 0 42
0 0 42
0 0 42
0 0 44
131 130 122
215 223 231
219 234 255
219 234 255
219 234 255
219 234 255
219 234 255
219 234 255
219 234 255
219 234 255
219 234 255
219 234 255
219 234 255
219 234 255
219 234 255
219 234 255
219 234 255
219 234 255
219 234 255
219 234 255
219 234 255
219 234 255
219 234 255
219 234 255
219 234 255
219 234 255
219 234 255
219 234 255
219 234 255
219 234 255
219 234 255
219 234 255
219 234 255
219 234 255
219 234 255
219 234 255
219 234 255
219 234 255
219 234 255
219 234 255
219 234 255
219 234 255
219 234 255
219 234 255
219 234 255
219 234 255
219 234 255
219 234 255
219 234 255
219 234 255
219 234 255
219 234 255
219 234 255
219 234 255
219 234 255
219 234 255
219 234 255
219 234 255
219 234 255
219 234 255
219 234 255
219 234 255
219 234 255
219 234 255
219 234 255
219 234 255
219 234 255
219 234 255
219 234 255
219 234 255
219 234 255
219 234 255
219 234 255
219 234 255
219 234 255
219 234 255
219 234 255
219 234 255
219 234 255
219 234 255
219 234 255
219 234 255
219 234 255
219 234 255
219 234 255
219 234 255
219 234 255
219 234 255
219 234 255
219 234 255
219 234 255
219 234 255
219 234 255
219 234 255
219 234 255
219 234 255
219 234 255
219 234 255
219 234 255
219 234 255
219 234 255
219 234 255
219 234 255
219 234 255
219 234 255
219 234 255
219 234 255
219 234 255
219 234 255
219 234 255
219 234 255
219 234 255
219 234 255
219 234 255
219 234 255
219 234 255
219 234 255
219 234 255
219 234 255
219 234 255
219 234 255
219 234 255
219 234 255
219 234 255
219 234 255
219 234 255
219 234 255
219 234 255
219 234 255
219 234 255
219 234 255
219 234 255
219 234 255
219 234 255
219 234 255
219 234 255
219 234 255
219 234 255
219 234 255
219 234 255
219 234 255
219 234 255
219 234 255
219 234 255
219 234 255
219 234 255
219 234 255
219 234 255
219 234 255
219 234 255
219 234 255
219 234 255
219 234 255
219 234 255
219 234 255
219 234 255
219 234 255
219 234 255
219 234 255
219 234 255
219 234 255
219 234 255
219 234 255
219 234 255
219 234 255
219 234 255
219 234 255
219 234 255
219 234 255
219 234 255
219 234 255
219 234 255
219 234 255
219 234 255
219 234 255
219 234 255
219 234 255
219 234 255
219 234 255
219 234 255
219 234 255
219 234 255
219 234 255
219 234 255
219 234 255
219 234 255
219 234 255
219 234 255
219 234 255
219 234 255
219 234 255
219 234 255
219 234 255
219 234 255
219 234 255
219 234 255
219 234 255
219 234 255
219 234 255
219 234 255
219 234 255
219 234 255
102 110 125
0 0 43
8 10 42
5 7 41
0 0 42
0 0 42
0 0 42
0 0 42
0 0 42
0 0 42
0 0 42
0 0 42
0 0 42
0 0 42
0 0 42
0 0 42
0 0 42
0 0 42
0 0 42
0 0 42
0 0 42
0 0 42
0 0 42
0 0 42
0 0 42
0 0 42
0 0 42
0 0 42
0 0 42
0 0 42
0 0 42
0 0 42
0 0 42
0 0 42
0 0 42
0 0 42
0 0 42
0 0 42
0 0 42
0 0 42
0 0 42
0 0 42
0 0 42
0 0 42
0 0 42
0 0 42
0 0 42
0 0 42
0 0 42
0 0 42
0 0 42
0 0 42
0 0 42
0 0 42
0 0 42
0 0 42
0 0 44
0 0 45
0 0 45
0 0 42
0 0 42
0 0 43
0 0 45
0 0 45
0 0 45
0 0 45
0 0 51
0 0 44
0 0 49
10 24 82
27 47 61
37 66 33
42 73 15
45 72 26
48 72 10
46 66 14
45 67 3
39 67 0
38 63 3
42 63 9
42 61 8
47 67 14
50 68 21
72 80 37
72 78 33
46 62 12
43 73 20
25 46 28
8 15 41
0 0 43
0 0 42
0 0 46
0 0 56
0 0 57
0 12 66
0 11 56
0 15 66
15 40 43
38 67 13
37 65 0
30 62 0
32 62 0
30 64 2
34 67 16
31 58 22
10 19 44
0 0 42
0 0 42
0 0 42
0 0 42
0 0 42
0 0 42
0 0 42
0 0 42
0 0 42
0 0 42
0 0 42
0 0 42
0 0 42
0 0 42
0 0 42
0 0 42
0 0 42
0 0 40
0 0 43
0 0 45
0 0 42
0 0 42
0 0 43
0 0 43
0 0 40
0 0 40
0 0 47
0 1 40
14 16 43
50 65 34
59 77 29
47 66 12
47 64 18
50 72 15
41 68 17
22 35 40
14 20 41
3 3 41
0 0 46
0 0 39
0 0 38
0 0 43
0 0 42
0 0 42
0 0 42
0 0 42
0 0 42
0 0 42
0 0 42
0 0 43
0 0 41
0 0 41
0 0 42
0 0 42
0 0 42
0 0 42
0 0 42
0 0 42
0 0 42
0 0 42
0 0 42
0 0 42
0 0 42
0 0 42
0 0 42
0 0 42
0 0 42
0 0 42
0 0 42
0 0 42
0 0 42
0 0 42
0 0 42
0 0 42
0 0 42
0 0 42
0 0 42
0 0 42
0 0 42
0 0 42
0 0 42
0 0 42
0 0 42
0 0 42
0 0 42
0 0 42
0 0 42
0 0 42
0 0 42
0 0 42
0 0 42
0 0 43
35 40 70
200 203 186
219 234 255
219 234 255
219 234 255
219 234 255
219 234 255
219 234 255
219 234 255
219 234 255
219 234 255
219 234 255
219 234 255
219 234 255
219 234 255
219 234 255
219 234 255
219 234 255
219 234 255
219 234 255
219 234 255
219 234 255
219 234 255
219 234 255
219 234 255
219 234 255
219 234 255
219 234 255
219 234 255
219 234 255
219 234 255
219 234 255
219 234 255
219 234 255
219 234 255
219 234 255
219 234 255
219 234 255
219 234 255
219 234 255
219 234 255
219 234 255
219 234 255
219 234 255
219 234 255
219 234 255
219 234 255
219 234 255
219 234 255
219 234 255
219 234 255
219 234 255
219 234 255
219 234 255
219 234 255
219 234 255
219 234 255
219 234 255
219 234 255
219 234 255
219 234 255
219 234 255
219 234 255
219 234 255
219 234 255
219 234 255
219 234 255
219 234 255
219 234 255
219 234 255
219 234 255
219 234 255
219 234 255
219 234 255
219 234 255
219 234 255
219 234 255
219 234 255
219 234 255
219 234 255
219 234 255
219 234 255
219 234 255
219 234 255
219 234 255
219 234 255
219 234 255
219 234 255
219 234 255
219 234 255
219 234 255
219 234 255
219 234 255
219 234 255
219 234 255
219 234 255
219 234 255
219 234 255
219 234 255
219 234 255
219 234 255
219 234 255
219 234 255
219 234 255
219 234 255
219 234 255
219 234 255
219 234 255
219 234 255
219 234 255
219 234 255
219 234 255
219 234 255
219 234 255
219 234 255
219 234 255
219 234 255
219 234 255
219 234 255
219 234 255
219 234 255
219 234 255
219 234 255
219 234 255
219 234 255
219 234 255
219 234 255
219 234 255
219 234 255
219 234 255
219 234 255
219 234 255
219 234 255
219 234 255
219 234 255
219 234 255
219 234 255
219 234 255
219 234 255
219 234 255
219 234 255
219 234 255
219 234 255
219 234 255
219 234 255
219 234 255
219 234 255
219 234 255
219 234 255
219 234 255
219 234 255
219 234 255
219 234 255
219 234 255
219 234 255
219 234 255
219 234 255
219 234 255
219 234 255
219 234 255
219 234 255
219 234 255
219 234 255
219 234 255
219 234 255
219 234 255
219 234 255
219 234 255
219 234 255
219 234 255
219 234 255
219 234 255
219 234 255
219 234 255
219 234 255
219 234 255
219 234 255
219 234 255
219 234 255
219 234 255
219 234 255
219 234 255
219 234 255
219 234 255
219 234 255
219 234 255
219 234 255
219 234 255
219 234 255
219 234 255
219 234 255
219 234 255
219 234 255
219 234 255
219 234 255
219 234 255
219 234 255
219 234 255
219 234 255
219 234 255
219 234 255
208 222 243
0 0 42
0 0 42
9 10 41
0 0 43
0 0 42
0 0 42
0 0 42
0 0 42
0 0 42
0 0 42
0 0 42
0 0 42
0 0 42
0 0 42
0 0 42
0 0 42
0 0 42
0 0 42
0 0 42
0 0 42
0 0 42
0 0 42
0 0 42
0 0 42
0 0 42
0 0 42
0 0 42
0 0 42
0 0 42
0 0 42
0 0 42
0 0 42
0 0 42
0 0 42
0 0 42
0 0 42
0 0 42
0 0 42
0 0 42
0 0 42
0 0 42
0 0 42
0 0 42
0 0 42
0 0 42
0 0 42
0 0 42
0 0 42
0 0 42
0 0 42
0 0 42
0 0 42
0 0 42
0 0 42
0 0 42
0 0 42
0 0 42
0 0 42
0 0 42
0 0 42
0 0 42
0 0 43
0 0 45
0 0 45
0 0 45
0 0 46
0 0 47
0 0 45
0 0 46
0 0 55
0 7 68
22 42 51
37 65 19
42 69 9
44 65 0
50 68 17
50 70 16
44 75 0
44 73 0
43 69 3
43 67 4
44 68 9
54 71 22
76 82 44
83 89 55
51 69 16
41 72 9
41 73 15
45 70 22
31 51 21
13 24 36
12 20 51
15 29 40
17 35 42
28 55 41
28 57 21
27 53 47
33 66 27
38 70 0
31 61 0
33 65 0
35 67 0
38 71 7
34 64 32
19 37 36
3 10 41
0 0 42
0 0 42
0 0 42
0 0 42
0 0 42
0 0 42
0 0 42
0 0 42
0 0 42
0 0 42
0 0 42
0 0 42
0 0 42
0 0 41
0 0 40
0 0 42
0 0 42
0 0 38
7 16 33
16 26 31
10 16 32
0 0 39
0 0 43
0 0 45
0 0 42
10 14 38
30 43 40
27 39 34
15 24 38
34 47 35
63 80 33
63 77 29
58 74 30
47 66 11
42 67 15
50 74 23
55 77 25
28 36 33
0 0 43
4 7 44
12 20 37
12 17 39
10 13 40
0 0 43
0 0 42
0 0 42
0 0 42
0 0 42
0 0 42
0 0 40
0 0 41
0 0 42
0 0 42
0 0 42
0 0 42
0 0 42
0 0 42
0 0 42
0 0 42
0 0 42
0 0 42
0 0 42
0 0 42
0 0 42
0 0 42
0 0 42
0 0 42
0 0 42
0 0 42
0 0 42
0 0 42
0 0 42
0 0 42
0 0 42
0 0 42
0 0 42
0 0 42
0 0 42
0 0 42
0 0 42
0 0 42
0 0 42
0 0 42
0 0 42
0 0 42
0 0 42
0 0 42
0 0 42
0 0 42
0 0 42
0 0 42
0 0 43
0 3 58
151 161 146
218 230 246
219 234 255
219 234 255
219 234 255
219 234 255
219 234 255
219 234 255
219 234 255
219 234 255
219 234 255
219 234 255
219 234 255
219 234 255
219 234 255
219 234 255
219 234 255
219 234 255
219 234 255
219 234 255
219 234 255
219 234 255
219 234 255
219 234 255
219 234 255
219 234 255
219 234 255
219 234 255
219 234 255
219 234 255
219 234 255
219 234 255
219 234 255
219 234 255
219 234 255
219 234 255
219 234 255
219 234 255
219 234 255
219 234 255
219 234 255
219 234 255
219 234 255
219 234 255
219 234 255
219 234 255
219 234 255
219 234 255
219 234 255
219 234 255
219 234 255
219 234 255
219 234 255
219 234 255
219 234 255
219 234 255
219 234 255
219 234 255
219 234 255
219 234 255
219 234 255
219 234 255
219 234 255
219 234 255
219 234 255
219 234 255
219 234 255
219 234 255
219 234 255
219 234 255
219 234 255
219 234 255
219 234 255
219 234 255
219 234 255
219 234 255
219 234 255
219 234 255
219 234 255
219 234 255
219 234 255
219 234 255
219 234 255
219 234 255
219 234 255
219 234 255
219 234 255
219 234 255
219 234 255
219 234 255
219 234 255
219 234 255
219 234 255
219 234 255
219 234 255
219 234 255
219 234 255
219 234 255
219 234 255
219 234 255
219 234 255
219 234 255
219 234 255
219 234 255
219 234 255
219 234 255
219 234 255
219 234 255
219 234 255
219 234 255
219 234 255
219 234 255
219 234 255
219 234 255
219 234 255
219 234 255
219 234 255
219 234 255
219 234 255
219 234 255
219 234 255
219 234 255
219 234 255
219 234 255
219 234 255
219 234 255
219 234 255
219 234 255
219 234 255
219 234 255
219 234 255
219 234 255
219 234 255
219 234 255
219 234 255
219 234 255
219 234 255
219 234 255
219 234 255
219 234 255
219 234 255
219 234 255
219 234 255
219 234 255
219 234 255
219 234 255
219 234 255
219 234 255
219 234 255
219 234 255
219 234 255
219 234 255
219 234 255
219 234 255
219 234 255
219 234 255
219 234 255
219 234 255
219 234 255
219 234 255
219 234 255
219 234 255
219 234 255
219 234 255
219 234 255
219 234 255
219 234 255
219 234 255
219 234 255
219 234 255
219 234 255
219 234 255
219 234 255
219 234 255
219 234 255
219 234 255
219 234 255
219 234 255
219 234 255
219 234 255
219 234 255
219 234 255
219 234 255
219 234 255
219 234 255
219 234 255
219 234 255
219 234 255
219 234 255
219 234 255
219 234 255
219 234 255
219 234 255
219 234 255
219 234 255
219 234 255
219 234 255
219 234 255
219 234 255
219 234 255
148 159 176
0 0 42
0 0 42
25 33 39
0 0 43
0 0 42
0 0 42
0 0 42
0 0 42
0 0 42
0 0 42
0 0 42
0 0 42
0 0 42
0 0 42
0 0 42
0 0 42
0 0 42
0 0 42
0 0 42
0 0 42
0 0 42
0 0 42
0 0 42
0 0 42
0 0 42
0 0 42
0 0 42
0 0 42
0 0 42
0 0 42
0 0 42
0 0 42
0 0 42
0 0 42
0 0 42
0 0 42
0 0 42
0 0 42
0 0 42
0 0 42
0 0 42
0 0 42
0 0 42
0 0 42
0 0 42
0 0 42
0 0 42
0 0 42
0 0 42
0 0 42
0 0 42
0 0 42
0 0 42
0 0 42
0 0 42
0 0 42
0 0 42
0 0 42
0 0 42
0 0 42
0 0 42
0 0 44
0 0 45
0 0 45
0 0 45
0 0 51
0 0 42
0 0 41
0 0 46
0 0 47
0 0 53
5 9 56
7 16 59
19 32 43
33 50 41
38 61 34
40 68 2
40 65 0
41 66 7
44 67 14
50 72 19
47 68 13
52 69 15
72 82 37
79 88 48
57 72 25
36 65 5
38 70 7
49 78 20
48 78 16
43 72 16
41 72 15
41 73 0
45 77 13
50 70 11
42 71 11
47 73 12
46 70 11
37 67 6
33 59 0
36 65 0
38 64 0
43 71 10
32 58 28
9 18 45
0 0 41
0 0 42
0 0 42
0 0 42
0 0 42
0 0 42
0 0 42
0 0 42
0 0 42
0 0 42
0 0 42
0 0 42
0 0 42
0 0 42
0 0 40
0 0 41
0 0 42
0 0 42
0 0 40
9 19 36
34 54 20
46 71 20
28 44 26
11 16 36
0 0 40
0 0 44
4 5 37
17 24 33
21 30 34
11 21 39
21 30 39
34 43 35
56 66 32
48 59 37
26 36 41
22 34 34
17 23 46
32 44 34
24 32 41
0 0 45
6 9 43
37 55 15
39 58 23
22 34 33
0 5 44
0 0 41
0 0 42
0 0 42
0 0 42
0 0 42
0 0 40
0 0 41
0 0 42
0 0 40
0 0 42
0 0 42
0 0 42
0 0 42
0 0 42
0 0 42
0 0 42
0 0 42
0 0 42
0 0 42
0 0 42
0 0 42
0 0 42
0 0 42
0 0 42
0 0 42
0 0 42
0 0 42
0 0 42
0 0 42
0 0 42
0 0 42
0 0 42
0 0 42
0 0 42
0 0 42
0 0 42
0 0 42
0 0 42
0 0 42
0 0 42
0 0 42
0 0 42
0 0 42
0 0 42
0 0 42
0 0 42
0 0 42
0 0 42
0 0 57
55 77 106
206 214 201
219 234 255
219 234 255
219 234 255
219 234 255
219 234 255
219 234 255
219 234 255
219 234 255
219 234 255
219 234 255
219 234 255
219 234 255
219 234 255
219 234 255
219 234 255
219 234 255
219 234 255
219 234 255
219 234 255
219 234 255
219 234 255
219 234 255
219 234 255
219 234 255
219 234 255
219 234 255
219 234 255
219 234 255
219 234 255
219 234 255
219 234 255
219 234 255
219 234 255
219 234 255
219 234 255
219 234 255
219 234 255
219 234 255
219 234 255
219 234 255
219 234 255
219 234 255
219 234 255
219 234 255
219 234 255
219 234 255
219 234 255
219 234 255
219 234 255
219 234 255
219 234 255
219 234 255
219 234 255
219 234 255
219 234 255
219 234 255
219 234 255
219 234 255
219 234 255
219 234 255
219 234 255
219 234 255
219 234 255
219 234 255
219 234 255
219 234 255
219 234 255
219 234 255
219 234 255
219 234 255
219 234 255
219 234 255
219 234 255
219 234 255
219 234 255
219 234 255
219 234 255
219 234 255
219 234 255
219 234 255
219 234 255
219 234 255
219 234 255
219 234 255
219 234 255
219 234 255
219 234 255
219 234 255
219 234 255
219 234 255
219 234 255
219 234 255
219 234 255
219 234 255
219 234 255
219 234 255
219 234 255
219 234 255
219 234 255
219 234 255
219 234 255
219 234 255
219 234 255
219 234 255
219 234 255
219 234 255
219 234 255
219 234 255
219 234 255
219 234 255
219 234 255
219 234 255
219 234 255
219 234 255
219 234 255
219 234 255
219 234 255
219 234 255
219 234 255
219 234 255
219 234 255
219 234 255
219 234 255
219 234 255
219 234 255
219 234 255
219 234 255
219 234 255
219 234 255
219 234 255
219 234 255
219 234 255
219 234 255
219 234 255
219 234 255
219 234 255
219 234 255
219 234 255
219 234 255
219 234 255
219 234 255
219 234 255
219 234 255
219 234 255
219 234 255
219 234 255
219 234 255
219 234 255
219 234 255
219 234 255
219 234 255
219 234 255
219 234 255
219 234 255
219 234 255
219 234 255
219 234 255
219 234 255
219 234 255
219 234 255
219 234 255
219 234 255
219 234 255
219 234 255
219 234 255
219 234 255
219 234 255
219 234 255
219 234 255
219 234 255
219 234 255
219 234 255
219 234 255
219 234 255
219 234 255
219 234 255
219 234 255
219 234 255
219 234 255
219 234 255
219 234 255
219 234 255
219 234 255
219 234 255
219 234 255
219 234 255
219 234 255
219 234 255
219 234 255
219 234 255
219 234 255
219 234 255
219 234 255
219 234 255
219 234 255
219 234 255
219 234 255
216 231 252
69 74 90
0 0 42
0 0 42
28 33 35
0 0 42
0 0 42
0 0 42
0 0 42
0 0 42
0 0 42
0 0 42
0 0 42
0 0 42
0 0 42
0 0 42
0 0 42
0 0 42
0 0 42
0 0 42
0 0 42
0 0 42
0 0 42
0 0 42
0 0 42
0 0 42
0 0 42
0 0 42
0 0 42
0 0 42
0 0 42
0 0 42
0 0 42
0 0 42
0 0 42
0 0 42
0 0 42
0 0 42
0 0 42
0 0 42
0 0 42
0 0 42
0 0 42
0 0 42
0 0 42
0 0 42
0 0 42
0 0 42
0 0 42
0 0 42
0 0 42
0 0 42
0 0 42
0 0 42
0 0 42
0 0 42
0 0 42
0 0 42
0 0 42
0 0 42
0 0 42
0 0 42
0 0 42
0 0 44
0 0 45
0 0 45
0 0 45
0 0 46
0 0 42
0 0 44
0 0 45
0 0 47
0 0 49
0 0 48
0 0 50
0 0 63
0 6 58
12 29 54
32 60 28
38 61 12
37 60 0
39 61 7
44 65 10
50 69 16
51 69 13
61 74 29
73 84 35
61 74 29
31 52 0
36 63 0
41 70 9
43 75 16
45 79 10
45 79 0
40 70 0
39 68 7
43 67 3
35 66 7
40 71 9
42 71 11
35 69 5
30 63 0
33 61 0
35 62 0
39 66 0
30 54 31
0 5 53
0 0 38
0 0 42
0 0 42
0 0 42
0 0 42
0 0 42
0 0 42
0 0 42
0 0 42
0 0 42
0 0 42
0 0 42
0 0 42
0 0 42
0 0 42
0 0 42
0 0 42
0 0 42
0 0 43
0 0 42
0 6 39
0 9 46
0 0 46
0 0 42
0 0 41
0 0 38
0 0 41
0 0 45
0 0 44
0 0 48
0 0 44
0 0 39
19 23 39
8 14 43
0 0 38
0 0 47
0 0 44
0 0 43
0 0 47
0 0 36
0 0 40
18 26 40
24 35 47
16 25 40
0 4 41
0 0 43
0 0 42
0 0 40
0 0 42
0 0 42
0 0 41
0 0 39
0 0 42
0 0 42
0 0 41
0 0 42
0 0 42
0 0 42
0 0 42
0 0 42
0 0 42
0 0 42
0 0 42
0 0 42
0 0 42
0 0 42
0 0 42
0 0 42
0 0 42
0 0 42
0 0 42
0 0 42
0 0 42
0 0 42
0 0 42
0 0 42
0 0 42
0 0 42
0 0 42
0 0 42
0 0 42
0 0 42
0 0 42
0 0 42
0 0 42
0 0 42
0 0 42
0 0 42
0 0 42
0 0 42
0 0 42
0 0 42
0 0 43
0 0 51
0 27 85
165 170 154
219 234 254
219 234 255
219 234 255
219 234 255
219 234 255
219 234 255
219 234 255
219 234 255
219 234 255
219 234 255
219 234 255
219 234 255
219 234 255
219 234 255
219 234 255
219 234 255
219 234 255
219 234 255
219 234 255
219 234 255
219 234 255
219 234 255
219 234 255
219 234 255
219 234 255
219 234 255
219 234 255
219 234 255
219 234 255
219 234 255
219 234 255
219 234 255
219 234 255
219 234 255
219 234 255
219 234 255
219 234 255
219 234 255
219 234 255
219 234 255
219 234 255
219 234 255
219 234 255
219 234 255
219 234 255
219 234 255
219 234 255
219 234 255
219 234 255
219 234 255
219 234 255
219 234 255
219 234 255
219 234 255
219 234 255
219 234 255
219 234 255
219 234 255
219 234 255
219 234 255
219 234 255
219 234 255
219 234 255
219 234 255
219 234 255
219 234 255
219 234 255
219 234 255
219 234 255
219 234 255
219 234 255
219 234 255
219 234 255
219 234 255
219 234 255
219 234 255
219 234 255
219 234 255
219 234 255
219 234 255
219 234 255
219 234 255
219 234 255
219 234 255
219 234 255
219 234 255
219 234 255
219 234 255
219 234 255
219 234 255
219 234 255
219 234 255
219 234 255
219 234 255
219 234 255
219 234 255
219 234 255
219 234 255
219 234 255
219 234 255
219 234 255
219 234 255
219 234 255
219 234 255
219 234 255
219 234 255
219 234 255
219 234 255
219 234 255
219 234 255
219 234 255
219 234 255
219 234 255
219 234 255
219 234 255
219 234 255
219 234 255
219 234 255
219 234 255
219 234 255
219 234 255
219 234 255
219 234 255
219 234 255
219 234 255
219 234 255
219 234 255
219 234 255
219 234 255
219 234 255
219 234 255
219 234 255
219 234 255
219 234 255
219 234 255
219 234 255
219 234 255
219 234 255
219 234 255
219 234 255
219 234 255
219 234 255
219 234 255
219 234 255
219 234 255
219 234 255
219 234 255
219 234 255
219 234 255
219 234 255
219 234 255
219 234 255
219 234 255
219 234 255
219 234 255
219 234 255
219 234 255
219 234 255
219 234 255
219 234 255
219 234 255
219 234 255
219 234 255
219 234 255
219 234 255
219 234 255
219 234 255
219 234 255
219 234 255
219 234 255
219 234 255
219 234 255
219 234 255
219 234 255
219 234 255
219 234 255
219 234 255
219 234 255
219 234 255
219 234 255
219 234 255
219 234 255
219 234 255
219 234 255
219 234 255
219 234 255
219 234 255
219 234 255
219 234 255
219 234 255
219 234 255
219 234 255
219 234 255
219 234 255
219 234 255
219 234 255
219 234 255
174 186 204
0 0 42
0 0 42
3 2 41
10 11 40
0 0 42
0 0 42
0 0 42
0 0 42
0 0 42
0 0 42
0 0 42
0 0 42
0 0 42
0 0 42
0 0 42
0 0 42
0 0 42
0 0 42
0 0 42
0 0 42
0 0 42
0 0 42
0 0 42
0 0 42
0 0 42
0 0 42
0 0 42
0 0 42
0 0 42
0 0 42
0 0 42
0 0 42
0 0 42
0 0 42
0 0 42
0 0 42
0 0 42
0 0 42
0 0 42
0 0 42
0 0 42
0 0 42
0 0 42
0 0 42
0 0 42
0 0 42
0 0 42
0 0 42
0 0 42
0 0 42
0 0 42
0 0 42
0 0 42
0 0 42
0 0 42
0 0 42
0 0 42
0 0 42
0 0 42
0 0 42
0 0 42
0 0 42
0 0 45
0 0 45
0 0 45
0 0 44
0 0 38
0 0 44
0 0 41
0 0 38
0 0 44
0 0 46
0 0 41
0 0 45
0 0 42
0 0 50
0 3 52
9 15 51
13 26 52
24 43 29
36 59 24
42 64 16
43 63 13
41 60 15
48 65 12
59 71 22
63 73 29
56 71 26
41 62 6
31 58 3
37 64 8
29 58 2
31 58 5
39 65 12
41 66 8
40 65 7
35 59 0
29 58 0
33 56 0
47 66 0
42 72 0
36 66 0
35 63 0
34 63 0
28 51 27
0 0 48
0 0 46
0 0 40
0 0 41
0 0 41
0 0 43
0 0 43
0 0 42
0 0 41
0 0 40
0 0 42
0 0 42
0 0 42
0 0 42
0 0 42
0 0 42
0 0 42
0 0 42
0 0 42
0 0 41
0 0 42
0 0 42
0 0 40
0 0 38
0 0 41
0 0 40
0 0 43
0 0 40
0 0 38
0 0 43
0 0 38
0 0 40
0 0 45
0 0 41
0 0 48
0 0 42
0 0 40
0 0 36
0 0 43
0 0 42
0 0 39
0 0 40
0 0 40
0 0 40
0 0 46
0 0 46
0 0 39
0 0 40
0 0 39
0 0 41
0 0 43
0 0 43
0 0 40
0 0 41
0 0 43
0 0 40
0 0 41
0 0 42
0 0 42
0 0 42
0 0 42
0 0 42
0 0 42
0 0 42
0 0 42
0 0 42
0 0 42
0 0 42
0 0 42
0 0 42
0 0 42
0 0 42
0 0 42
0 0 42
0 0 42
0 0 42
0 0 42
0 0 42
0 0 42
0 0 42
0 0 42
0 0 42
0 0 42
0 0 42
0 0 42
0 0 42
0 0 42
0 0 42
0 0 42
0 0 42
0 0 42
0 0 42
0 0 42
0 0 42
0 0 44
0 10 67
123 125 125
215 220 224
219 234 255
219 234 255
219 234 255
219 234 255
219 234 255
219 234 255
219 234 255
219 234 255
219 234 255
219 234 255
219 234 255
219 234 255
219 234 255
219 234 255
219 234 255
219 234 255
219 234 255
219 234 255
219 234 255
219 234 255
219 234 255
219 234 255
219 234 255
219 234 255
219 234 255
219 234 255
219 234 255
219 234 255
219 234 255
219 234 255
219 234 255
219 234 255
219 234 255
219 234 255
219 234 255
219 234 255
219 234 255
219 234 255
219 234 255
219 234 255
219 234 255
219 234 255
219 234 255
219 234 255
219 234 255
219 234 255
219 234 255
219 234 255
219 234 255
219 234 255
219 234 255
219 234 255
219 234 255
219 234 255
219 234 255
219 234 255
219 234 255
219 234 255
219 234 255
219 234 255
219 234 255
219 234 255
219 234 255
219 234 255
219 234 255
219 234 255
219 234 255
219 234 255
219 234 255
219 234 255
219 234 255
219 234 255
219 234 255
219 234 255
219 234 255
219 234 255
219 234 255
219 234 255
219 234 255
219 234 255
219 234 255
219 234 255
219 234 255
219 234 255
219 234 255
219 234 255
219 234 255
219 234 255
219 234 255
219 234 255
219 234 255
219 234 255
219 234 255
219 234 255
219 234 255
219 234 255
219 234 255
219 234 255
219 234 255
219 234 255
219 234 255
219 234 255
219 234 255
219 234 255
219 234 255
219 234 255
219 234 255
219 234 255
219 234 255
219 234 255
219 234 255
219 234 255
219 234 255
219 234 255
219 234 255
219 234 255
219 234 255
219 234 255
219 234 255
219 234 255
219 234 255
219 234 255
219 234 255
219 234 255
219 234 255
219 234 255
219 234 255
219 234 255
219 234 255
219 234 255
219 234 255
219 234 255
219 234 255
219 234 255
219 234 255
219 234 255
219 234 255
219 234 255
219 234 255
219 234 255
219 234 255
219 234 255
219 234 255
219 234 255
219 234 255
219 234 255
219 234 255
219 234 255
219 234 255
219 234 255
219 234 255
219 234 255
219 234 255
219 234 255
219 234 255
219 234 255
219 234 255
219 234 255
219 234 255
219 234 255
219 234 255
219 234 255
219 234 255
219 234 255
219 234 255
219 234 255
219 234 255
219 234 255
219 234 255
219 234 255
219 234 255
219 234 255
219 234 255
219 234 255
219 234 255
219 234 255
219 234 255
219 234 255
219 234 255
219 234 255
219 234 255
219 234 255
219 234 255
219 234 255
219 234 255
219 234 255
219 234 255
219 234 255
219 234 255
219 234 255
219 234 255
219 234 255
219 234 255
219 234 255
219 234 255
219 234 255
128 136 153
0 0 42
0 0 42
0 0 39
0 0 42
0 0 42
0 0 42
0 0 42
0 0 42
0 0 42
0 0 42
0 0 42
0 0 42
0 0 42
0 0 42
0 0 42
0 0 42
0 0 42
0 0 42
0 0 42
0 0 42
0 0 42
0 0 42
0 0 42
0 0 42
0 0 42
0 0 42
0 0 42
0 0 42
0 0 42
0 0 42
0 0 42
0 0 42
0 0 42
0 0 42
0 0 42
0 0 42
0 0 42
0 0 42
0 0 42
0 0 42
0 0 42
0 0 42
0 0 42
0 0 42
0 0 42
0 0 42
0 0 42
0 0 42
0 0 42
0 0 42
0 0 43
0 0 44
0 0 43
0 0 42
0 0 42
0 0 42
0 0 42
0 0 42
0 0 42
0 0 42
0 0 42
0 0 42
0 0 42
0 0 42
0 0 42
0 0 42
0 0 42
0 0 42
0 0 42
0 0 42
0 0 42
0 0 42
0 0 44
0 0 45
0 0 45
0 0 45
0 0 45
0 0 44
0 0 47
0 0 51
12 23 55
22 41 41
33 58 42
41 69 26
42 70 0
41 62 0
59 72 29
66 79 36
49 65 18
46 70 14
48 73 31
39 67 23
47 73 10
49 71 21
47 71 19
48 67 11
39 59 13
30 53 5
27 54 0
35 65 0
40 71 0
42 72 0
40 69 0
34 61 2
21 33 34
0 0 47
0 0 39
0 0 41
0 0 44
0 0 44
0 0 44
0 0 44
0 0 44
0 0 40
0 0 37
0 0 45
0 0 42
0 0 40
0 0 42
0 0 42
0 0 42
0 0 42
0 0 42
0 0 42
0 0 42
0 0 42
0 0 42
0 0 42
0 0 42
0 0 42
0 0 42
0 0 42
0 0 42
0 0 42
0 0 42
0 0 42
0 0 41
0 0 42
0 0 41
0 0 41
0 0 42
0 0 42
0 0 41
0 0 43
0 0 41
0 0 42
0 0 44
0 0 44
0 0 41
0 0 41
0 0 43
0 0 40
0 0 41
0 0 40
0 0 42
0 0 44
0 0 42
0 0 42
0 0 42
0 0 43
0 0 40
0 0 40
0 0 42
0 0 42
0 0 42
0 0 42
0 0 42
0 0 42
0 0 42
0 0 42
0 0 42
0 0 42
0 0 42
0 0 42
0 0 42
0 0 42
0 0 42
0 0 42
0 0 42
0 0 42
0 0 42
0 0 42
0 0 42
0 0 42
0 0 42
0 0 42
0 0 42
0 0 42
0 0 42
0 0 42
0 0 42
0 0 42
0 0 42
0 0 42
0 0 42
0 0 42
0 0 42
0 0 41
0 0 41
0 0 42
0 0 55
36 48 90
206 210 197
219 234 255
219 234 255
219 234 255
219 234 255
219 234 255
219 234 255
219 234 255
219 234 255
219 234 255
219 234 255
219 234 255
219 234 255
219 234 255
219 234 255
219 234 255
219 234 255
219 234 255
219 234 255
219 234 255
219 234 255
219 234 255
219 234 255
219 234 255
219 234 255
219 234 255
219 234 255
219 234 255
219 234 255
219 234 255
219 234 255
219 234 255
219 234 255
219 234 255
219 234 255
219 234 255
219 234 255
219 234 255
219 234 255
219 234 255
219 234 255
219 234 255
219 234 255
219 234 255
219 234 255
219 234 255
219 234 255
219 234 255
219 234 255
219 234 255
219 234 255
219 234 255
219 234 255
219 234 255
219 234 255
219 234 255
219 234 255
219 234 255
219 234 255
219 234 255
219 234 255
219 234 255
219 234 255
219 234 255
219 234 255
219 234 255
219 234 255
219 234 255
219 234 255
219 234 255
219 234 255
219 234 255
219 234 255
219 234 255
219 234 255
219 234 255
219 234 255
219 234 255
219 234 255
219 234 255
219 234 255
219 234 255
219 234 255
219 234 255
219 234 255
219 234 255
219 234 255
219 234 255
219 234 255
219 234 255
219 234 255
219 234 255
219 234 255
219 234 255
219 234 255
219 234 255
219 234 255
219 234 255
219 234 255
219 234 255
219 234 255
219 234 255
219 234 255
219 234 255
219 234 255
219 234 255
219 234 255
219 234 255
219 234 255
219 234 255
219 234 255
219 234 255
219 234 255
219 234 255
219 234 255
219 234 255
219 234 255
219 234 255
219 234 255
219 234 255
219 234 255
219 234 255
219 234 255
219 234 255
219 234 255
219 234 255
219 234 255
219 234 255
219 234 255
219 234 255
219 234 255
219 234 255
219 234 255
219 234 255
219 234 255
219 234 255
219 234 255
219 234 255
219 234 255
219 234 255
219 234 255
219 234 255
219 234 255
219 234 255
219 234 255
219 234 255
219 234 255
219 234 255
219 234 255
219 234 255
219 234 255
219 234 255
219 234 255
219 234 255
219 234 255
219 234 255
219 234 255
219 234 255
219 234 255
219 234 255
219 234 255
219 234 255
219 234 255
219 234 255
219 234 255
219 234 255
219 234 255
219 234 255
219 234 255
219 234 255
219 234 255
219 234 255
219 234 255
219 234 255
219 234 255
219 234 255
219 234 255
219 234 255
219 234 255
219 234 255
219 234 255
219 234 255
219 234 255
219 234 255
219 234 255
219 234 255
219 234 255
219 234 255
219 234 255
219 234 255
219 234 255
219 234 255
219 234 255
219 234 255
219 234 255
219 234 255
217 232 253
38 40 60
0 0 42
0 0 42
0 0 40
0 0 42
0 0 42
0 0 42
0 0 42
0 0 42
0 0 42
0 0 42
0 0 42
0 0 42
0 0 42
0 0 42
0 0 42
0 0 42
0 0 42
0 0 42
0 0 42
0 0 42
0 0 42
0 0 42
0 0 42
0 0 42
0 0 42
0 0 42
0 0 42
0 0 42
0 0 42
0 0 42
0 0 42
0 0 42
0 0 42
0 0 42
0 0 42
0 0 42
0 0 42
0 0 42
0 0 42
0 0 42
0 0 42
0 0 42
0 0 42
0 0 42
0 0 42
0 0 42
0 0 42
0 0 42
0 0 42
0 0 42
0 0 45
0 0 45
0 0 43
0 0 42
0 0 42
0 0 42
0 0 42
0 0 42
0 0 42
0 0 42
0 0 42
0 0 42
0 0 42
0 0 42
0 0 42
0 0 42
0 0 42
0 0 42
0 0 42
0 0 42
0 0 42
0 0 42
0 0 42
0 0 43
0 0 44
0 0 45
0 0 45
0 0 45
0 0 47
0 0 48
0 0 50
0 0 46
8 12 51
24 38 63
28 51 32
32 55 12
44 64 19
46 66 15
37 60 20
22 54 55
28 53 75
23 40 64
28 51 26
35 60 9
37 64 10
41 65 8
44 68 21
40 61 14
29 52 0
32 61 0
39 71 0
38 70 10
34 66 0
23 45 27
7 13 43
5 9 41
5 9 43
5 9 43
3 5 39
0 10 40
0 10 35
3 11 37
0 6 38
0 0 53
0 0 33
0 0 50
0 0 45
0 0 42
0 0 39
0 0 42
0 0 42
0 0 42
0 0 42
0 0 42
0 0 42
0 0 42
0 0 42
0 0 42
0 0 42
0 0 42
0 0 42
0 0 42
0 0 42
0 0 42
0 0 42
0 0 42
0 0 42
0 0 42
0 0 42
0 0 42
0 0 42
0 0 42
0 0 42
0 0 42
0 0 42
0 0 42
0 0 42
0 0 42
0 0 42
0 0 42
0 0 42
0 0 42
0 0 42
0 0 42
0 0 42
0 0 42
0 0 42
11 19 37
4 7 46
0 0 44
0 0 38
0 0 39
0 0 41
0 0 42
0 0 40
0 0 42
0 0 41
0 0 40
0 0 42
0 0 42
0 0 42
0 0 42
0 0 42
0 0 42
0 0 42
0 0 42
0 0 42
0 0 42
0 0 42
0 0 42
0 0 42
0 0 42
0 0 42
0 0 42
0 0 42
0 0 42
0 0 42
0 0 42
0 0 42
0 0 42
0 0 42
0 0 42
0 0 42
0 0 42
0 0 42
0 0 42
0 0 42
0 0 42
0 0 42
0 0 43
0 0 51
0 13 64
164 165 142
219 232 250
219 234 255
219 234 255
219 234 255
219 234 255
219 234 255
219 234 255
219 234 255
219 234 255
219 234 255
219 234 255
219 234 255
219 234 255
219 234 255
219 234 255
219 234 255
219 234 255
219 234 255
219 234 255
219 234 255
219 234 255
219 234 255
219 234 255
219 234 255
219 234 255
219 234 255
219 234 255
219 234 255
219 234 255
219 234 255
219 234 255
219 234 255
219 234 255
219 234 255
219 234 255
219 234 255
219 234 255
219 234 255
219 234 255
219 234 255
219 234 255
219 234 255
219 234 255
219 234 255
219 234 255
219 234 255
219 234 255
219 234 255
219 234 255
219 234 255
219 234 255
219 234 255
219 234 255
219 234 255
219 234 255
219 234 255
219 234 255
219 234 255
219 234 255
219 234 255
219 234 255
219 234 255
219 234 255
219 234 255
219 234 255
219 234 255
219 234 255
219 234 255
219 234 255
219 234 255
219 234 255
219 234 255
219 234 255
219 234 255
219 234 255
219 234 255
219 234 255
219 234 255
219 234 255
219 234 255
219 234 255
219 234 255
219 234 255
219 234 255
219 234 255
219 234 255
219 234 255
219 234 255
219 234 255
219 234 255
219 234 255
219 234 255
219 234 255
219 234 255
219 234 255
219 234 255
219 234 255
219 234 255
219 234 255
219 234 255
219 234 255
219 234 255
219 234 255
219 234 255
219 234 255
219 234 255
219 234 255
219 234 255
219 234 255
219 234 255
219 234 255
219 234 255
219 234 255
219 234 255
219 234 255
219 234 255
219 234 255
219 234 255
219 234 255
219 234 255
219 234 255
219 234 255
219 234 255
219 234 255
219 234 255
219 234 255
219 234 255
219 234 255
219 234 255
219 234 255
219 234 255
219 234 255
219 234 255
219 234 255
219 234 255
219 234 255
219 234 255
219 234 255
219 234 255
219 234 255
219 234 255
219 234 255
219 234 255
219 234 255
219 234 255
219 234 255
219 234 255
219 234 255
219 234 255
219 234 255
219 234 255
219 234 255
219 234 255
219 234 255
219 234 255
219 234 255
219 234 255
219 234 255
219 234 255
219 234 255
219 234 255
219 234 255
219 234 255
219 234 255
219 234 255
219 234 255
219 234 255
219 234 255
219 234 255
219 234 255
219 234 255
219 234 255
219 234 255
219 234 255
219 234 255
219 234 255
219 234 255
219 234 255
219 234 255
219 234 255
219 234 255
219 234 255
219 234 255
219 234 255
219 234 255
219 234 255
219 234 255
219 234 255
219 234 255
219 234 255
219 234 255
219 234 255
219 234 255
219 234 255
219 234 255
173 184 203
0 0 42
0 0 42
0 0 42
0 0 41
0 0 42
0 0 42
0 0 42
0 0 42
0 0 42
0 0 42
0 0 42
0 0 42
0 0 42
0 0 42
0 0 42
0 0 42
0 0 42
0 0 42
0 0 42
0 0 42
0 0 42
0 0 42
0 0 42
0 0 42
0 0 42
0 0 42
0 0 42
0 0 42
0 0 42
0 0 42
0 0 42
0 0 42
0 0 42
0 0 42
0 0 42
0 0 42
0 0 42
0 0 42
0 0 42
0 0 42
0 0 42
0 0 42
0 0 42
0 0 42
0 0 42
0 0 42
0 0 42
0 0 42
0 0 42
0 0 42
0 0 42
0 0 45
0 0 45
0 0 43
0 0 42
0 0 42
0 0 42
0 0 42
0 0 42
0 0 42
0 0 42
0 0 42
0 0 42
0 0 42
0 0 42
0 0 42
0 0 42
0 0 42
0 0 42
0 0 42
0 0 42
0 0 42
0 0 42
0 0 42
0 0 42
0 0 42
0 0 43
0 0 45
0 0 45
0 0 44
0 0 43
0 0 45
0 0 45
0 0 47
0 0 41
3 8 52
3 7 65
13 21 52
13 25 40
2 14 64
0 25 95
0 24 83
0 10 63
0 0 58
10 22 45
31 57 24
33 58 0
38 59 8
46 64 7
45 63 9
36 58 5
39 65 0
35 62 0
29 55 0
33 58 11
31 57 0
40 65 10
35 59 8
38 57 17
35 57 9
40 66 0
35 62 0
31 58 0
34 60 3
25 39 31
13 18 47
5 6 40
0 0 40
0 0 45
0 0 46
0 0 42
0 0 42
0 0 42
0 0 42
0 0 42
0 0 42
0 0 42
0 0 42
0 0 42
0 0 42
0 0 42
0 0 42
0 0 42
0 0 42
0 0 42
0 0 42
0 0 42
0 0 42
0 0 42
0 0 42
0 0 42
0 0 42
0 0 42
0 0 42
0 0 42
0 0 42
0 0 42
0 0 42
0 0 42
0 0 42
0 0 42
0 0 42
0 0 42
0 0 42
0 0 42
0 0 42
0 0 42
0 0 42
3 10 39
0 0 34
0 0 38
0 0 40
0 0 41
0 0 42
0 0 42
0 0 42
0 0 42
0 0 42
0 0 42
0 0 42
0 0 42
0 0 42
0 0 42
0 0 42
0 0 42
0 0 42
0 0 42
0 0 42
0 0 42
0 0 42
0 0 42
0 0 42
0 0 42
0 0 42
0 0 42
0 0 42
0 0 42
0 0 42
0 0 42
0 0 42
0 0 42
0 0 42
0 0 42
0 0 42
0 0 42
0 0 42
0 0 42
0 0 42
0 0 42
0 0 42
8 8 43
0 0 46
0 0 51
105 105 108
215 215 212
219 234 255
219 234 255
219 234 255
219 234 255
219 234 255
219 234 255
219 234 255
219 234 255
219 234 255
219 234 255
219 234 255
219 234 255
219 234 255
219 234 255
219 234 255
219 234 255
219 234 255
219 234 255
219 234 255
219 234 255
219 234 255
219 234 255
219 234 255
219 234 255
219 234 255
219 234 255
219 234 255
219 234 255
219 234 255
219 234 255
219 234 255
219 234 255
219 234 255
219 234 255
219 234 255
219 234 255
219 234 255
219 234 255
219 234 255
219 234 255
219 234 255
219 234 255
219 234 255
219 234 255
219 234 255
219 234 255
219 234 255
219 234 255
219 234 255
219 234 255
219 234 255
219 234 255
219 234 255
219 234 255
219 234 255
219 234 255
219 234 255
219 234 255
219 234 255
219 234 255
219 234 255
219 234 255
219 234 255
219 234 255
219 234 255
219 234 255
219 234 255
219 234 255
219 234 255
219 234 255
219 234 255
219 234 255
219 234 255
219 234 255
219 234 255
219 234 255
219 234 255
219 234 255
219 234 255
219 234 255
219 234 255
219 234 255
219 234 255
219 234 255
219 234 255
219 234 255
219 234 255
219 234 255
219 234 255
219 234 255
219 234 255
219 234 255
219 234 255
219 234 255
219 234 255
219 234 255
219 234 255
219 234 255
219 234 255
219 234 255
219 234 255
219 234 255
219 234 255
219 234 255
219 234 255
219 234 255
219 234 255
219 234 255
219 234 255
219 234 255
219 234 255
219 234 255
219 234 255
219 234 255
219 234 255
219 234 255
219 234 255
219 234 255
219 234 255
219 234 255
219 234 255
219 234 255
219 234 255
219 234 255
219 234 255
219 234 255
219 234 255
219 234 255
219 234 255
219 234 255
219 234 255
219 234 255
219 234 255
219 234 255
219 234 255
219 234 255
219 234 255
219 234 255
219 234 255
219 234 255
219 234 255
219 234 255
219 234 255
219 234 255
219 234 255
219 234 255
219 234 255
219 234 255
219 234 255
219 234 255
219 234 255
219 234 255
219 234 255
219 234 255
219 234 255
219 234 255
219 234 255
219 234 255
219 234 255
219 234 255
219 234 255
219 234 255
219 234 255
219 234 255
219 234 255
219 234 255
219 234 255
219 234 255
219 234 255
219 234 255
219 234 255
219 234 255
219 234 255
219 234 255
219 234 255
219 234 255
219 234 255
219 234 255
219 234 255
219 234 255
219 234 255
219 234 255
219 234 255
219 234 255
219 234 255
219 234 255
219 234 255
219 234 255
219 234 255
219 234 255
219 234 255
219 234 255
219 234 255
219 234 255
114 122 137
0 0 42
0 0 42
0 0 40
0 0 41
0 0 42
0 0 42
0 0 42
0 0 42
0 0 42
0 0 42
0 0 42
0 0 42
0 0 42
0 0 42
0 0 42
0 0 42
0 0 42
0 0 42
0 0 42
0 0 42
0 0 42
0 0 42
0 0 42
0 0 42
0 0 42
0 0 42
0 0 42
0 0 42
0 0 42
0 0 42
0 0 42
0 0 42
0 0 42
0 0 42
0 0 42
0 0 42
0 0 42
0 0 42
0 0 42
0 0 42
0 0 42
0 0 42
0 0 42
0 0 42
0 0 42
0 0 42
0 0 42
0 0 42
0 0 42
0 0 42
0 0 43
0 0 45
0 0 45
0 0 43
0 0 42
0 0 42
0 0 42
0 0 42
0 0 42
0 0 42
0 0 42
0 0 42
0 0 42
0 0 42
0 0 42
0 0 42
0 0 42
0 0 42
0 0 42
0 0 42
0 0 42
0 0 42
0 0 42
0 0 42
0 0 42
0 0 42
0 0 42
0 0 43
0 0 40
0 0 43
0 0 45
0 0 47
0 0 43
0 0 43
0 0 45
0 0 46
0 0 44
0 0 47
0 0 53
0 0 60
0 12 67
0 10 64
0 3 58
0 0 55
0 0 47
7 19 41
33 53 21
39 58 7
45 61 0
44 59 10
43 60 8
42 62 0
46 67 11
45 67 9
46 68 11
42 65 10
41 63 0
43 63 0
47 65 0
45 65 7
45 67 15
40 65 16
32 57 0
39 63 0
41 61 20
40 57 32
19 29 48
0 0 51
0 0 47
0 0 41
0 0 42
0 0 42
0 0 42
0 0 42
0 0 42
0 0 42
0 0 42
0 0 42
0 0 42
0 0 42
0 0 42
0 0 42
0 0 42
0 0 42
0 0 42
0 0 42
0 0 42
0 0 42
0 0 42
0 0 42
0 0 42
0 0 42
0 0 42
0 0 42
0 0 42
0 0 42
0 0 42
0 0 42
0 0 42
0 0 42
0 0 42
0 0 42
0 0 42
0 0 42
0 0 42
0 0 41
0 0 40
0 0 42
2 2 40
7 8 46
0 0 44
0 0 43
0 0 39
0 0 42
0 0 44
0 0 46
0 0 43
0 0 40
0 0 42
0 0 42
0 0 42
0 0 42
0 0 42
0 0 42
0 0 42
0 0 42
0 0 42
0 0 42
0 0 42
0 0 42
0 0 42
0 0 42
0 0 42
0 0 42
0 0 42
0 0 42
0 0 42
0 0 42
0 0 42
0 0 42
0 0 42
0 0 42
0 0 42
0 0 42
0 0 42
0 0 42
0 0 42
0 0 42
0 0 42
0 0 42
7 7 44
0 0 43
0 0 49
27 43 79
201 190 179
219 234 255
219 234 255
219 234 255
219 234 255
219 234 255
219 234 255
219 234 255
219 234 255
219 234 255
219 234 255
219 234 255
219 234 255
219 234 255
219 234 255
219 234 255
219 234 255
219 234 255
219 234 255
219 234 255
219 234 255
219 234 255
219 234 255
219 234 255
219 234 255
219 234 255
219 234 255
219 234 255
219 234 255
219 234 255
219 234 255
219 234 255
219 234 255
219 234 255
219 234 255
219 234 255
219 234 255
219 234 255
219 234 255
219 234 255
219 234 255
219 234 255
219 234 255
219 234 255
219 234 255
219 234 255
219 234 255
219 234 255
219 234 255
219 234 255
219 234 255
219 234 255
219 234 255
219 234 255
219 234 255
219 234 255
219 234 255
219 234 255
219 234 255
219 234 255
219 234 255
219 234 255
219 234 255
219 234 255
219 234 255
219 234 255
219 234 255
219 234 255
219 234 255
219 234 255
219 234 255
219 234 255
219 234 255
219 234 255
219 234 255
219 234 255
219 234 255
219 234 255
219 234 255
219 234 255
219 234 255
219 234 255
219 234 255
219 234 255
219 234 255
219 234 255
219 234 255
219 234 255
219 234 255
219 234 255
219 234 255
219 234 255
219 234 255
219 234 255
219 234 255
219 234 255
219 234 255
219 234 255
219 235 255
219 235 255
219 235 255
219 235 255
219 235 255
219 235 255
219 235 255
219 235 255
219 235 255
219 235 255
219 235 255
219 235 255
219 235 255
219 235 255
219 235 255
219 235 255
219 235 255
219 235 255
219 235 255
219 235 255
219 235 255
219 235 255
219 235 255
219 235 255
219 235 255
219 235 255
219 235 255
219 235 255
219 235 255
219 235 255
219 235 255
219 235 255
219 235 255
219 235 255
219 235 255
219 235 255
219 235 255
219 235 255
219 235 255
219 235 255
219 235 255
219 235 255
219 235 255
219 235 255
219 235 255
219 235 255
219 235 255
219 235 255
219 235 255
219 235 255
219 235 255
219 235 255
219 235 255
219 235 255
219 235 255
219 234 255
219 234 255
219 235 255
219 234 255
219 234 255
219 235 255
219 234 255
219 234 255
219 234 255
219 234 255
219 234 255
219 234 255
219 234 255
219 234 255
219 234 255
219 234 255
219 234 255
219 234 255
219 234 255
219 234 255
219 234 255
219 234 255
219 234 255
219 234 255
219 234 255
219 234 255
219 234 255
219 234 255
219 234 255
219 234 255
219 234 255
219 234 255
219 234 255
219 234 255
219 234 255
219 234 255
219 234 255
219 234 255
219 234 255
219 234 255
219 234 255
217 232 253
49 52 70
0 0 42
0 0 42
0 0 42
0 0 42
0 0 42
0 0 42
0 0 42
0 0 42
0 0 42
0 0 42
0 0 42
0 0 42
0 0 42
0 0 42
0 0 42
0 0 42
0 0 42
0 0 42
0 0 42
0 0 42
0 0 42
0 0 43
0 0 43
0 0 42
0 0 42
0 0 42
0 0 42
0 0 42
0 0 42
0 0 42
0 0 42
0 0 42
0 0 42
0 0 42
0 0 42
0 0 42
0 0 42
0 0 42
0 0 42
0 0 42
0 0 42
0 0 42
0 0 42
0 0 42
0 0 42
0 0 42
0 0 42
0 0 42
0 0 42
0 0 42
0 0 43
0 0 45
0 0 45
0 0 42
0 0 42
0 0 42
0 0 42
0 0 42
0 0 42
0 0 42
0 0 42
0 0 42
0 0 42
0 0 42
0 0 42
0 0 42
0 0 42
0 0 42
0 0 42
0 0 42
0 0 42
0 0 42
0 0 42
0 0 42
0 0 42
0 0 42
0 0 42
0 0 42
0 0 39
0 0 42
0 0 45
0 0 44
0 0 43
0 0 45
0 0 51
0 0 40
0 0 42
0 0 46
0 0 44
0 0 47
0 0 49
0 0 58
0 0 51
0 0 52
0 0 54
2 3 40
17 26 46
34 53 24
43 64 8
34 55 0
42 63 0
43 63 0
52 73 15
48 69 14
44 64 9
42 61 8
44 59 14
49 65 8
55 70 18
52 71 11
52 76 15
42 70 10
33 58 0
37 60 11
47 69 8
50 71 16
21 30 45
0 0 47
0 0 47
0 0 40
0 0 42
0 0 42
0 0 42
0 0 42
0 0 42
0 0 42
0 0 42
0 0 42
0 0 42
0 0 42
0 0 42
0 0 42
0 0 42
0 0 42
0 0 42
0 0 42
0 0 42
0 0 42
0 0 42
0 0 42
0 0 42
0 0 42
0 0 42
0 0 42
0 0 42
0 0 42
0 0 42
0 0 42
0 0 42
0 0 42
0 0 42
0 0 42
0 0 42
0 0 42
0 0 42
0 0 42
0 0 42
0 0 42
0 0 32
4 4 40
3 4 39
0 0 40
0 0 40
0 0 42
0 0 46
0 0 49
0 0 44
0 0 41
0 0 42
0 0 42
0 0 41
0 0 39
0 0 41
0 0 42
0 0 42
0 0 42
0 0 42
0 0 42
0 0 42
0 0 42
0 0 42
0 0 42
0 0 42
0 0 42
0 0 42
0 0 42
0 0 42
0 0 42
0 0 42
0 0 42
0 0 42
0 0 42
0 0 42
0 0 42
0 0 42
0 0 42
0 0 42
0 0 42
0 0 42
0 0 42
0 0 42
0 0 44
5 6 50
0 5 63
149 137 123
218 233 253
219 234 255
219 234 255
219 234 255
219 234 255
219 234 255
219 234 255
219 234 255
219 234 255
219 234 255
219 234 255
219 234 255
219 234 255
219 234 255
219 234 255
219 234 255
219 234 255
219 234 255
219 234 255
219 234 255
219 234 255
219 234 255
219 234 255
219 234 255
219 234 255
219 234 255
219 234 255
219 234 255
219 234 255
219 234 255
219 234 255
219 234 255
219 234 255
219 234 255
219 234 255
219 234 255
219 234 255
219 234 255
219 235 255
219 234 255
219 235 255
219 235 255
219 235 255
219 235 255
219 235 255
219 235 255
219 235 255
219 235 255
219 235 255
219 235 255
219 235 255
219 235 255
219 235 255
219 235 255
219 235 255
219 235 255
219 235 255
219 235 255
219 235 255
219 235 255
219 235 255
219 235 255
219 235 255
219 235 255
219 235 255
219 235 255
219 235 255
219 235 255
219 235 255
219 235 255
219 235 255
219 235 255
219 235 255
219 235 255
219 235 255
219 235 255
219 235 255
219 235 255
219 235 255
219 235 255
219 235 255
219 235 255
219 235 255
219 235 255
219 235 255
219 235 255
219 235 255
219 235 255
219 235 255
219 235 255
219 235 255
219 235 255
219 235 255
219 235 255
219 235 255
219 235 255
219 235 255
219 235 255
219 235 255
219 235 255
219 235 255
219 235 255
219 235 255
219 235 255
219 235 255
219 235 255
219 235 255
219 235 255
219 235 255
219 235 255
219 235 255
219 235 255
219 235 255
219 235 255
219 235 255
219 235 255
219 235 255
219 235 255
219 235 255
219 235 255
219 235 255
219 235 255
219 235 255
219 235 255
219 235 255
219 235 255
219 235 255
219 235 255
219 235 255
219 235 255
219 235 255
219 235 255
219 235 255
219 235 255
219 235 255
219 235 255
219 235 255
219 235 255
219 235 255
219 235 255
219 235 255
219 235 255
219 235 255
219 235 255
219 235 255
219 235 255
219 235 255
219 235 255
219 235 255
219 235 255
219 235 255
219 235 255
219 235 255
219 235 255
219 235 255
219 235 255
219 235 255
219 235 255
219 235 255
219 235 255
219 235 255
219 235 255
219 235 255
219 235 255
219 235 255
219 235 255
219 235 255
219 235 255
219 235 255
219 235 255
219 235 255
219 235 255
219 235 255
219 235 255
219 235 255
219 235 255
219 235 255
219 235 255
219 235 255
219 235 255
219 235 255
219 235 255
219 235 255
219 235 255
219 235 255
219 235 255
219 235 255
219 235 255
219 235 255
219 235 255
219 235 255
219 235 255
219 235 255
182 195 213
0 0 42
0 0 42
0 0 42
0 0 42
0 0 42
0 0 42
0 0 42
0 0 42
0 0 42
0 0 42
0 0 42
0 0 42
0 0 42
0 0 42
0 0 42
0 0 42
0 0 42
0 0 42
0 0 42
0 0 42
0 0 42
0 0 42
0 0 45
0 0 44
0 0 42
0 0 42
0 0 42
0 0 42
0 0 42
0 0 42
0 0 42
0 0 42
0 0 42
0 0 42
0 0 42
0 0 42
0 0 42
0 0 42
0 0 42
0 0 42
0 0 42
0 0 42
0 0 42
0 0 42
0 0 42
0 0 42
0 0 42
0 0 42
0 0 42
0 0 42
0 0 42
0 0 44
0 0 45
0 0 45
0 0 42
0 0 42
0 0 42
0 0 42
0 0 42
0 0 42
0 0 42
0 0 42
0 0 42
0 0 42
0 0 42
0 0 42
0 0 42
0 0 42
0 0 42
0 0 42
0 0 42
0 0 42
0 0 42
0 0 42
0 0 42
0 0 42
0 0 42
0 0 42
0 0 42
0 0 47
0 0 43
0 0 40
0 0 40
0 0 42
0 0 44
0 0 48
0 0 37
0 0 45
0 0 50
0 0 43
0 0 46
0 0 54
0 0 58
0 0 54
0 0 49
0 0 50
0 0 48
0 0 45
7 16 47
31 52 36
35 61 24
35 59 15
39 64 14
46 67 16
42 64 0
40 65 0
39 60 0
46 62 9
52 65 20
55 72 14
52 71 18
51 77 13
41 72 7
37 68 6
38 68 0
43 64 9
46 66 19
22 35 33
0 1 49
0 0 38
0 0 43
0 0 42
0 0 42
0 0 42
0 0 42
0 0 42
0 0 42
0 0 42
0 0 42
0 0 42
0 0 42
0 0 42
0 0 42
0 0 43
0 0 42
0 0 42
0 0 42
0 0 42
0 0 42
0 0 42
0 0 42
0 0 42
0 0 42
0 0 42
0 0 42
0 0 42
0 0 42
0 0 42
0 0 42
0 0 42
0 0 42
0 0 42
0 0 42
0 0 42
0 0 42
0 0 42
0 0 42
0 0 42
0 0 42
0 0 42
10 13 41
11 14 38
0 0 41
0 0 47
0 0 42
0 0 47
0 0 52
0 0 46
0 0 43
0 0 44
0 0 44
0 0 42
0 0 41
0 0 41
0 0 42
0 0 42
0 0 42
0 0 42
0 0 42
0 0 42
0 0 42
0 0 42
0 0 42
0 0 42
0 0 42
0 0 42
0 0 42
0 0 42
0 0 42
0 0 42
0 0 42
0 0 42
0 0 42
0 0 42
0 0 42
0 0 42
0 0 42
0 0 42
0 0 42
0 0 42
0 0 42
0 0 42
0 0 41
12 12 49
0 4 56
110 116 113
206 210 218
219 235 255
219 235 255
219 235 255
219 235 255
219 235 255
219 235 255
219 235 255
219 235 255
219 235 255
219 235 255
219 235 255
219 235 255
219 235 255
219 235 255
219 235 255
219 235 255
219 235 255
219 235 255
219 235 255
219 235 255
219 235 255
219 235 255
219 235 255
219 235 255
219 235 255
219 235 255
219 235 255
219 235 255
219 235 255
219 235 255
219 235 255
219 235 255
219 235 255
219 235 255
219 235 255
219 235 255
219 235 255
219 235 255
219 235 255
219 235 255
219 235 255
219 235 255
219 235 255
219 235 255
219 235 255
219 235 255
219 235 255
219 235 255
219 235 255
219 235 255
219 235 255
219 235 255
219 235 255
219 235 255
219 235 255
219 235 255
219 235 255
219 235 255
219 235 255
219 235 255
219 235 255
219 235 255
219 235 255
219 235 255
219 235 255
219 235 255
219 235 255
219 235 255
219 235 255
219 235 255
219 235 255
219 235 255
219 235 255
219 235 255
219 235 255
219 235 255
219 235 255
219 235 255
219 235 255
219 235 255
219 235 255
219 235 255
219 235 255
219 235 255
219 235 255
219 235 255
219 235 255
219 235 255
219 235 255
219 235 255
219 235 255
219 235 255
219 235 255
219 235 255
219 235 255
219 235 255
220 235 255
220 235 255
220 235 255
220 235 255
220 235 255
220 235 255
220 235 255
220 235 255
220 235 255
220 235 255
220 235 255
220 235 255
220 235 255
220 235 255
220 235 255
220 235 255
220 235 255
220 235 255
220 235 255
220 235 255
220 235 255
220 235 255
220 235 255
220 235 255
220 235 255
220 235 255
220 235 255
220 235 255
220 235 255
220 235 255
220 235 255
220 235 255
220 235 255
220 235 255
220 235 255
220 235 255
220 235 255
220 235 255
220 235 255
220 235 255
220 235 255
220 235 255
220 235 255
220 235 255
220 235 255
220 235 255
220 235 255
220 235 255
220 235 255
220 235 255
220 235 255
220 235 255
220 235 255
220 235 255
220 235 255
220 235 255
220 235 255
220 235 255
220 235 255
220 235 255
219 235 255
220 235 255
220 235 255
219 235 255
220 235 255
219 235 255
219 235 255
219 235 255
219 235 255
219 235 255
219 235 255
219 235 255
219 235 255
219 235 255
219 235 255
219 235 255
219 235 255
219 235 255
219 235 255
219 235 255
219 235 255
219 235 255
219 235 255
219 235 255
219 235 255
219 235 255
219 235 255
219 235 255
219 235 255
219 235 255
219 235 255
219 235 255
219 235 255
219 235 255
219 235 255
219 235 255
147 157 174
0 0 42
0 0 42
0 0 42
0 0 42
0 0 42
0 0 42
0 0 42
0 0 42
0 0 42
0 0 42
0 0 42
0 0 42
0 0 42
0 0 42
0 0 42
0 0 42
0 0 42
0 0 42
0 0 42
0 0 42
0 0 42
0 0 43
0 0 45
0 0 43
0 0 42
0 0 42
0 0 42
0 0 42
0 0 42
0 0 42
0 0 42
0 0 42
0 0 42
0 0 42
0 0 42
0 0 42
0 0 42
0 0 43
0 0 43
0 0 42
0 0 42
0 0 42
0 0 43
0 0 43
0 0 42
0 0 42
0 0 42
0 0 42
0 0 42
0 0 42
0 0 42
0 0 44
0 0 45
0 0 44
0 0 42
0 0 42
0 0 43
0 0 44
0 0 45
0 0 42
0 0 42
0 0 42
0 0 42
0 0 42
0 0 41
0 0 39
0 0 39
0 0 40
0 0 42
0 0 42
0 0 42
0 0 42
0 0 42
0 0 42
0 0 42
0 0 42
0 0 42
0 0 42
0 0 42
0 0 40
0 0 42
0 0 42
0 0 44
0 0 43
0 0 42
0 0 45
0 0 45
0 0 45
0 0 45
0 0 45
0 0 45
0 0 50
0 0 54
0 0 53
0 0 51
0 0 49
0 0 47
0 0 44
0 0 46
0 0 49
9 14 52
11 23 45
18 32 47
28 45 28
34 60 8
37 66 0
37 73 8
44 69 21
43 70 16
55 73 25
54 73 21
49 76 12
48 82 19
45 79 14
51 83 12
46 72 5
37 59 22
9 17 38
0 0 47
0 0 44
0 0 39
0 0 41
0 0 42
0 0 42
0 0 42
0 0 42
0 0 42
0 0 42
0 0 42
0 0 42
0 0 42
0 0 42
0 0 42
0 0 44
0 0 42
0 0 42
0 0 42
0 0 41
0 0 39
0 0 42
0 0 38
0 0 43
0 0 42
0 0 41
0 0 43
0 0 45
0 0 41
0 0 38
0 0 44
0 0 46
0 0 44
0 0 42
0 0 42
0 0 42
0 0 42
0 0 42
0 0 42
0 0 40
0 0 41
0 0 43
0 2 43
0 9 44
0 0 41
0 0 44
0 0 42
0 0 46
0 0 49
0 0 47
0 0 44
0 0 47
0 0 47
0 0 45
0 0 44
0 0 41
0 0 42
0 0 42
0 0 42
0 0 42
0 0 42
0 0 42
0 0 42
0 0 42
0 0 42
0 0 42
0 0 42
0 0 42
0 0 42
0 0 42
0 0 42
0 0 42
0 0 42
0 0 42
0 0 42
0 0 42
0 0 42
0 0 42
0 0 42
0 0 42
0 0 42
0 0 42
0 0 42
0 0 42
0 0 43
5 6 46
0 0 52
69 77 96
182 180 168
219 235 255
219 235 255
219 235 255
219 235 255
219 235 255
219 235 255
219 235 255
219 235 255
219 235 255
219 235 255
219 235 255
219 235 255
219 235 255
219 235 255
219 235 255
219 235 255
219 235 255
219 235 255
219 235 255
219 235 255
219 235 255
219 235 255
219 235 255
219 235 255
219 235 255
219 235 255
219 235 255
219 235 255
219 235 255
219 235 255
219 235 255
220 235 255
220 235 255
219 235 255
220 235 255
219 235 255
220 235 255
220 235 255
220 235 255
220 235 255
220 235 255
220 235 255
220 235 255
220 235 255
220 235 255
220 235 255
220 235 255
220 235 255
220 235 255
220 235 255
220 235 255
220 235 255
220 235 255
220 235 255
220 235 255
220 235 255
220 235 255
220 235 255
220 235 255
220 235 255
220 235 255
220 235 255
220 235 255
220 235 255
220 235 255
220 235 255
220 235 255
220 235 255
220 235 255
220 235 255
220 235 255
220 235 255
220 235 255
220 235 255
220 235 255
220 235 255
220 235 255
220 235 255
220 235 255
220 235 255
220 235 255
220 235 255
220 235 255
220 235 255
220 235 255
220 235 255
220 235 255
220 235 255
220 235 255
220 235 255
220 235 255
220 235 255
220 235 255
220 235 255
220 235 255
220 235 255
220 235 255
220 235 255
220 235 255
220 235 255
220 235 255
220 235 255
220 235 255
220 235 255
220 235 255
220 235 255
220 235 255
220 235 255
220 235 255
220 235 255
220 235 255
220 235 255
220 235 255
220 235 255
220 235 255
220 235 255
220 235 255
220 235 255
220 235 255
220 235 255
220 235 255
220 235 255
220 235 255
220 235 255
220 235 255
220 235 255
220 235 255
220 235 255
220 235 255
220 235 255
220 235 255
220 235 255
220 235 255
220 235 255
220 235 255
220 235 255
220 235 255
220 235 255
220 235 255
220 235 255
220 235 255
220 235 255
220 235 255
220 235 255
220 235 255
220 235 255
220 235 255
220 235 255
220 235 255
220 235 255
220 235 255
220 235 255
220 235 255
220 235 255
220 235 255
220 235 255
220 235 255
220 235 255
220 235 255
220 235 255
220 235 255
220 235 255
220 235 255
220 235 255
220 235 255
220 235 255
220 235 255
220 235 255
220 235 255
220 235 255
220 235 255
220 235 255
220 235 255
220 235 255
220 235 255
220 235 255
220 235 255
220 235 255
220 235 255
220 235 255
220 235 255
220 235 255
220 235 255
220 235 255
220 235 255
220 235 255
220 235 255
220 235 255
220 235 255
220 235 255
220 235 255
220 235 255
72 77 93
0 0 42
0 0 42
0 0 42
0 0 42
0 0 42
0 0 42
0 0 42
0 0 42
0 0 42
0 0 42
0 0 42
0 0 42
0 0 42
0 0 42
0 0 42
0 0 42
0 0 42
0 0 42
0 0 42
0 0 42
0 0 42
0 0 42
0 0 43
0 0 42
0 0 42
0 0 42
0 0 44
0 0 45
0 0 45
0 0 45
0 0 42
0 0 42
0 0 42
0 0 42
0 0 42
0 0 42
0 0 43
0 0 45
0 0 45
0 0 42
0 0 42
0 0 42
0 0 45
0 0 44
0 0 42
0 0 42
0 0 42
0 0 42
0 0 42
0 0 42
0 0 42
0 0 44
0 0 44
0 0 42
0 0 42
0 0 42
0 0 44
0 0 45
0 0 45
0 0 42
0 0 42
0 0 42
0 0 42
0 0 42
0 0 42
0 0 41
0 0 39
0 0 41
0 0 42
0 0 42
0 0 42
0 0 42
0 0 42
0 0 42
0 0 42
0 0 42
0 0 42
0 0 42
0 0 42
0 0 41
0 0 42
0 0 42
0 0 42
0 0 42
0 0 42
0 0 45
0 0 45
0 0 45
0 0 45
0 0 45
0 0 46
0 0 51
0 0 53
0 0 50
0 0 48
0 0 48
0 0 47
0 0 42
0 0 43
0 0 47
0 0 49
0 0 49
0 0 49
5 11 52
8 17 52
18 29 45
24 46 26
24 47 50
26 65 50
51 71 20
53 71 17
53 73 24
50 80 12
56 91 21
56 90 21
49 78 5
37 58 18
1 10 35
0 0 44
0 0 44
0 0 41
0 0 42
0 0 42
0 0 42
0 0 42
0 0 42
0 0 42
0 0 42
0 0 42
0 0 42
0 0 42
0 0 42
0 0 42
0 0 42
0 0 42
0 0 42
0 0 41
0 0 40
0 0 43
0 0 42
0 0 40
0 0 42
0 0 39
0 0 45
0 0 40
0 0 38
0 0 41
0 0 45
0 0 42
0 0 42
0 0 43
0 0 43
0 0 42
0 0 42
0 0 42
0 0 42
0 0 42
0 0 41
0 0 42
0 0 43
0 0 45
0 3 39
0 0 37
0 0 45
0 0 43
0 0 45
0 0 45
0 0 45
0 0 45
0 0 46
0 0 49
0 0 49
0 0 50
0 0 43
0 0 42
0 0 42
0 0 42
0 0 42
0 0 42
0 0 42
0 0 42
0 0 42
0 0 42
0 0 42
0 0 42
0 0 42
0 0 42
0 0 42
0 0 42
0 0 42
0 0 42
0 0 42
0 0 42
0 0 42
0 0 42
0 0 42
0 0 42
0 0 42
0 0 42
0 0 42
0 0 42
0 0 42
0 0 42
8 11 45
0 0 50
6 27 72
152 159 136
220 235 255
220 235 255
220 235 255
220 235 255
220 235 255
220 235 255
220 235 255
220 235 255
220 235 255
220 235 255
220 235 255
220 235 255
220 235 255
220 235 255
220 235 255
220 235 255
220 235 255
220 235 255
220 235 255
220 235 255
220 235 255
220 235 255
220 235 255
220 235 255
220 235 255
220 235 255
220 235 255
220 235 255
220 235 255
220 235 255
220 235 255
220 235 255
220 235 255
220 235 255
220 235 255
220 235 255
220 235 255
220 235 255
220 235 255
220 235 255
220 235 255
220 235 255
220 235 255
220 235 255
220 235 255
220 235 255
220 235 255
220 235 255
220 235 255
220 235 255
220 235 255
220 235 255
220 235 255
220 235 255
220 235 255
220 235 255
220 235 255
220 235 255
220 235 255
220 235 255
220 235 255
220 235 255
220 235 255
220 235 255
220 235 255
220 235 255
220 235 255
220 235 255
220 235 255
220 235 255
220 235 255
220 235 255
220 235 255
220 235 255
220 235 255
220 235 255
220 235 255
220 235 255
220 235 255
220 235 255
220 235 255
220 235 255
220 235 255
220 235 255
220 235 255
220 235 255
220 235 255
220 235 255
220 235 255
220 235 255
220 235 255
220 235 255
220 235 255
220 235 255
220 235 255
220 235 255
220 235 255
220 235 255
220 235 255
220 235 255
220 235 255
220 235 255
220 235 255
220 235 255
220 235 255
220 235 255
220 235 255
220 235 255
220 235 255
220 235 255
220 235 255
220 235 255
220 235 255
220 235 255
220 235 255
220 235 255
220 235 255
220 235 255
220 235 255
220 235 255
220 235 255
220 235 255
220 235 255
220 235 255
220 235 255
220 235 255
220 235 255
220 235 255
220 235 255
220 235 255
220 235 255
220 235 255
220 235 255
220 235 255
220 235 255
220 235 255
220 235 255
220 235 255
220 235 255
220 235 255
220 235 255
220 235 255
220 235 255
220 235 255
220 235 255
220 235 255
220 235 255
220 235 255
220 235 255
220 235 255
220 235 255
220 235 255
220 235 255
220 235 255
220 235 255
220 235 255
220 235 255
220 235 255
220 235 255
220 235 255
220 235 255
220 235 255
220 235 255
220 235 255
220 235 255
220 235 255
220 235 255
220 235 255
220 235 255
220 235 255
220 235 255
220 235 255
220 235 255
220 235 255
220 235 255
220 235 255
220 235 255
220 235 255
220 235 255
220 235 255
220 235 255
220 235 255
220 235 255
220 235 255
220 235 255
220 235 255
220 235 255
220 235 255
220 235 255
220 235 255
220 235 255
206 220 240
0 0 42
0 0 42
0 0 42
0 0 42
0 0 42
0 0 42
0 0 42
0 0 42
0 0 42
0 0 42
0 0 42
0 0 45
0 0 43
0 0 42
0 0 42
0 0 42
0 0 42
0 0 42
0 0 42
0 0 42
0 0 42
0 0 42
0 0 42
0 0 42
0 0 42
0 0 42
0 0 42
0 0 45
0 0 45
0 0 45
0 0 45
0 0 42
0 0 42
0 0 42
0 0 42
0 0 42
0 0 42
0 0 44
0 0 45
0 0 44
0 0 42
0 0 42
0 0 43
0 0 45
0 0 44
0 0 42
0 0 42
0 0 42
0 0 42
0 0 42
0 0 42
0 0 42
0 0 42
0 0 42
0 0 42
0 0 42
0 0 44
0 0 45
0 0 45
0 0 45
0 0 42
0 0 42
0 0 42
0 0 42
0 0 42
0 0 42
0 0 42
0 0 41
0 0 42
0 0 42
0 0 42
0 0 42
0 0 42
0 0 42
0 0 42
0 0 42
0 0 42
0 0 42
0 0 42
0 0 42
0 0 42
0 0 42
0 0 42
0 0 42
0 0 42
0 0 43
0 0 45
0 0 45
0 0 45
0 0 45
0 0 45
0 0 45
0 0 48
0 0 48
0 0 45
0 0 45
0 0 47
0 0 48
0 0 45
0 0 45
0 0 46
0 0 47
0 0 51
0 0 52
0 0 49
0 0 59
0 0 55
0 0 44
0 7 52
17 43 40
47 71 20
61 80 30
52 71 19
59 87 19
65 100 27
64 99 34
56 91 22
38 62 34
9 16 41
0 0 45
0 0 40
0 0 41
0 0 42
0 0 42
0 0 42
0 0 42
0 0 42
0 0 42
0 0 42
0 0 42
0 0 42
0 0 42
0 0 42
0 0 42
0 0 42
0 0 42
0 0 42
0 0 42
0 0 41
0 0 39
0 0 38
0 1 43
7 8 50
3 4 37
0 0 44
0 0 42
0 0 41
0 0 42
0 0 45
0 0 42
0 0 39
0 0 45
0 0 45
0 0 43
0 0 43
0 0 44
0 0 43
0 0 41
0 0 41
0 0 42
0 0 41
0 0 45
0 0 44
0 0 41
0 0 49
0 0 43
0 0 47
0 0 45
0 0 45
0 0 45
0 0 46
0 0 48
0 0 48
0 0 47
0 0 43
0 0 42
0 0 42
0 0 42
0 0 42
0 0 42
0 0 42
0 0 42
0 0 42
0 0 42
0 0 42
0 0 42
0 0 42
0 0 42
0 0 42
0 0 42
0 0 42
0 0 42
0 0 42
0 0 42
0 0 42
0 0 42
0 0 42
0 0 42
0 0 42
0 0 42
0 0 42
0 0 42
0 0 42
0 0 42
0 0 42
0 0 48
0 4 55
111 122 76
202 216 230
220 235 255
220 235 255
220 235 255
220 235 255
220 235 255
220 235 255
220 235 255
220 235 255
220 235 255
220 235 255
220 235 255
220 235 255
220 235 255
220 235 255
220 235 255
220 235 255
220 235 255
220 235 255
220 235 255
220 235 255
220 235 255
220 235 255
220 235 255
220 235 255
220 235 255
220 235 255
220 235 255
220 235 255
220 235 255
220 235 255
220 235 255
220 235 255
220 235 255
220 235 255
220 235 255
220 235 255
220 235 255
220 235 255
220 235 255
220 235 255
220 235 255
220 235 255
220 235 255
220 235 255
220 235 255
220 235 255
220 235 255
220 235 255
220 235 255
220 235 255
220 235 255
220 235 255
220 235 255
220 235 255
220 235 255
220 235 255
220 235 255
220 235 255
220 235 255
220 235 255
220 235 255
220 235 255
220 235 255
220 235 255
220 235 255
220 235 255
220 235 255
220 235 255
220 235 255
220 235 255
220 235 255
220 235 255
220 235 255
220 235 255
220 235 255
220 235 255
220 235 255
220 235 255
220 235 255
220 235 255
220 235 255
220 235 255
220 235 255
220 235 255
220 235 255
220 235 255
220 235 255
220 235 255
220 235 255
220 235 255
220 235 255
220 235 255
220 235 255
220 235 255
220 235 255
220 235 255
220 235 255
220 235 255
220 235 255
220 235 255
220 235 255
220 235 255
220 235 255
220 235 255
220 235 255
220 235 255
220 235 255
220 235 255
220 235 255
220 235 255
220 235 255
220 235 255
220 235 255
220 235 255
220 235 255
220 235 255
220 235 255
220 235 255
220 235 255
220 235 255
220 235 255
220 235 255
220 235 255
220 235 255
220 235 255
220 235 255
220 235 255
220 235 255
220 235 255
220 235 255
220 235 255
220 235 255
220 235 255
220 235 255
220 235 255
220 235 255
220 235 255
220 235 255
220 235 255
220 235 255
220 235 255
220 235 255
220 235 255
220 235 255
220 235 255
220 235 255
220 235 255
220 235 255
220 235 255
220 235 255
220 235 255
220 235 255
220 235 255
220 235 255
220 235 255
220 235 255
220 235 255
220 235 255
220 235 255
220 235 255
220 235 255
220 235 255
220 235 255
220 235 255
220 235 255
220 235 255
220 235 255
220 235 255
220 235 255
220 235 255
220 235 255
220 235 255
220 235 255
220 235 255
220 235 255
220 235 255
220 235 255
220 235 255
220 235 255
220 235 255
220 235 255
220 235 255
220 235 255
220 235 255
220 235 255
220 235 255
220 235 255
220 235 255
220 235 255
220 235 255
170 182 200
0 0 42
0 0 42
0 0 42
0 0 42
0 0 42
0 0 42
0 0 42
0 0 42
0 0 42
0 0 42
0 0 43
0 0 45
0 0 42
0 0 42
0 0 42
0 0 42
0 0 42
0 0 42
0 0 42
0 0 42
0 0 42
0 0 42
0 0 42
0 0 42
0 0 42
0 0 42
0 0 43
0 0 45
0 0 45
0 0 45
0 0 44
0 0 42
0 0 42
0 0 42
0 0 42
0 0 43
0 0 43
0 0 44
0 0 45
0 0 44
0 0 42
0 0 42
0 0 43
0 0 45
0 0 43
0 0 42
0 0 42
0 0 42
0 0 42
0 0 42
0 0 42
0 0 42
0 0 42
0 0 42
0 0 42
0 0 42
0 0 42
0 0 42
0 0 42
0 0 42
0 0 45
0 0 45
0 0 44
0 0 42
0 0 42
0 0 42
0 0 42
0 0 42
0 0 42
0 0 42
0 0 42
0 0 42
0 0 42
0 0 42
0 0 42
0 0 42
0 0 42
0 0 42
0 0 42
0 0 42
0 0 42
0 0 42
0 0 42
0 0 42
0 0 43
0 0 45
0 0 45
0 0 45
0 0 45
0 0 45
0 0 45
0 0 45
0 0 45
0 0 46
0 0 45
0 0 45
0 0 45
0 0 46
0 0 50
0 0 48
0 0 45
0 0 47
0 0 49
0 0 52
0 5 56
0 21 71
0 14 61
0 0 51
0 0 50
0 0 43
26 37 41
61 81 38
59 82 25
52 81 21
65 101 29
66 102 36
62 97 27
38 60 44
5 10 42
0 0 40
0 0 42
0 0 41
0 0 42
0 0 42
0 0 42
0 0 42
0 0 42
0 0 42
0 0 42
0 0 42
0 0 42
0 0 42
0 0 42
0 0 42
0 0 40
0 0 40
0 0 41
0 0 41
0 0 41
0 0 42
0 0 50
38 35 56
83 77 67
67 63 55
0 0 41
19 20 58
11 11 40
0 0 41
0 5 41
0 0 48
0 0 46
0 0 42
0 0 45
0 0 43
0 0 42
0 0 44
0 0 46
0 0 44
0 0 44
0 0 44
0 0 42
0 0 41
0 0 39
0 0 46
0 0 45
0 0 39
0 0 45
0 0 44
0 0 44
0 0 45
0 0 45
0 0 47
0 0 46
0 0 45
0 0 44
0 0 42
0 0 42
0 0 42
0 0 42
0 0 42
0 0 42
0 0 42
0 0 42
0 0 42
0 0 42
0 0 42
0 0 42
0 0 42
0 0 42
0 0 42
0 0 42
0 0 42
0 0 42
0 0 42
0 0 42
0 0 42
0 0 42
0 0 42
0 0 42
0 0 42
0 0 42
0 0 42
0 0 42
0 0 42
0 0 42
0 0 47
0 0 48
69 78 64
181 197 203
220 235 255
220 235 255
220 235 255
220 235 255
220 235 255
220 235 255
220 235 255
220 235 255
220 235 255
220 235 255
220 235 255
220 235 255
220 235 255
220 235 255
220 235 255
220 235 255
220 235 255
220 235 255
220 235 255
220 235 255
220 235 255
220 235 255
220 235 255
220 235 255
220 235 255
220 235 255
220 235 255
220 235 255
220 235 255
220 235 255
220 235 255
220 235 255
220 235 255
220 235 255
220 235 255
220 235 255
220 235 255
220 235 255
220 235 255
220 235 255
220 235 255
220 235 255
220 235 255
220 235 255
220 235 255
220 235 255
220 235 255
220 235 255
220 235 255
220 235 255
220 235 255
220 235 255
220 235 255
220 235 255
220 235 255
220 235 255
220 235 255
220 235 255
220 235 255
220 235 255
220 235 255
220 235 255
220 235 255
220 235 255
220 235 255
220 235 255
220 235 255
220 235 255
220 235 255
220 235 255
220 235 255
220 235 255
220 235 255
220 235 255
220 235 255
220 235 255
220 235 255
220 235 255
220 235 255
220 235 255
220 235 255
220 235 255
220 235 255
220 235 255
220 235 255
220 235 255
220 235 255
220 235 255
220 235 255
220 235 255
220 235 255
220 235 255
220 235 255
220 235 255
220 235 255
220 235 255
220 235 255
220 235 255
220 235 255
220 235 255
220 235 255
220 235 255
220 235 255
220 235 255
220 235 255
220 235 255
220 235 255
220 235 255
220 235 255
220 235 255
220 235 255
220 235 255
220 235 255
220 235 255
220 235 255
220 235 255
220 235 255
220 235 255
220 235 255
220 235 255
220 235 255
220 235 255
220 235 255
220 235 255
220 235 255
220 235 255
220 235 255
220 235 255
220 235 255
220 235 255
220 235 255
220 235 255
220 235 255
220 235 255
220 235 255
220 235 255
220 235 255
220 235 255
220 235 255
220 235 255
220 235 255
220 235 255
220 235 255
220 235 255
220 235 255
220 235 255
220 235 255
220 235 255
220 235 255
220 235 255
220 235 255
220 235 255
220 235 255
220 235 255
220 235 255
220 235 255
220 235 255
220 235 255
220 235 255
220 235 255
220 235 255
220 235 255
220 235 255
220 235 255
220 235 255
220 235 255
220 235 255
220 235 255
220 235 255
220 235 255
220 235 255
220 235 255
220 235 255
220 235 255
220 235 255
220 235 255
220 235 255
220 235 255
220 235 255
220 235 255
220 235 255
220 235 255
220 235 255
220 235 255
220 235 255
220 235 255
220 235 255
220 235 255
220 235 255
220 235 255
112 119 135
0 0 42
0 0 42
0 0 42
0 0 42
0 0 42
0 0 42
0 0 42
0 0 42
0 0 42
0 0 42
0 0 43
0 0 44
0 0 42
0 0 42
0 0 42
0 0 42
0 0 42
0 0 42
0 0 42
0 0 42
0 0 42
0 0 44
0 0 45
0 0 45
0 0 44
0 0 42
0 0 43
0 0 45
0 0 45
0 0 45
0 0 44
0 0 42
0 0 42
0 0 42
0 0 43
0 0 45
0 0 45
0 0 45
0 0 45
0 0 43
0 0 42
0 0 42
0 0 43
0 0 45
0 0 43
0 0 42
0 0 42
0 0 42
0 0 42
0 0 42
0 0 42
0 0 42
0 0 42
0 0 42
0 0 42
0 0 42
0 0 42
0 0 42
0 0 42
0 0 42
0 0 45
0 0 45
0 0 44
0 0 42
0 0 42
0 0 42
0 0 42
0 0 42
0 0 42
0 0 42
0 0 42
0 0 42
0 0 42
0 0 42
0 0 42
0 0 42
0 0 42
0 0 42
0 0 42
0 0 42
0 0 42
0 0 42
0 0 42
0 0 42
0 0 44
0 0 45
0 0 45
0 0 45
0 0 45
0 0 45
0 0 45
0 0 45
0 0 45
0 0 45
0 0 45
0 0 45
0 0 46
0 0 45
0 0 46
0 0 47
0 0 47
0 0 54
0 0 54
0 0 59
0 10 63
0 36 93
0 23 79
0 0 50
0 0 49
0 0 46
4 5 50
32 48 53
43 68 19
24 47 16
44 78 21
61 97 31
58 93 25
40 60 41
0 0 39
0 0 43
0 0 40
0 0 43
0 0 42
0 0 42
0 0 42
0 0 42
0 0 42
0 0 42
0 0 42
0 0 42
0 0 42
0 0 42
0 0 42
0 0 42
0 0 45
0 0 43
0 0 41
0 0 41
0 0 42
0 0 42
19 20 51
83 82 63
132 121 88
88 83 87
0 0 55
63 66 65
46 48 49
0 0 44
0 9 43
0 0 41
0 0 46
0 0 43
0 0 45
0 0 46
0 0 45
0 0 45
0 0 49
0 0 50
0 0 48
0 0 44
0 0 44
0 0 43
0 0 39
0 0 48
0 0 44
0 0 46
0 0 45
0 0 43
0 0 42
0 0 45
0 0 46
0 0 47
0 0 47
0 0 46
0 0 44
0 0 43
0 0 42
0 0 42
0 0 44
0 0 43
0 0 42
0 0 42
0 0 42
0 0 42
0 0 42
0 0 42
0 0 42
0 0 42
0 0 42
0 0 42
0 0 42
0 0 42
0 0 42
0 0 42
0 0 42
0 0 42
0 0 42
0 0 42
0 0 42
0 0 42
0 0 42
0 0 42
0 0 42
0 0 42
0 0 42
0 0 46
0 0 47
21 44 62
149 167 164
220 235 255
220 235 255
220 235 255
220 235 255
220 235 255
220 235 255
220 235 255
220 235 255
220 235 255
220 235 255
220 235 255
220 235 255
220 235 255
220 235 255
220 235 255
220 235 255
220 235 255
220 235 255
220 235 255
220 235 255
220 235 255
220 235 255
220 235 255
220 235 255
220 235 255
220 235 255
220 235 255
220 235 255
220 235 255
220 235 255
220 235 255
220 235 255
220 235 255
220 235 255
220 235 255
220 235 255
220 235 255
220 235 255
220 235 255
220 235 255
220 235 255
220 235 255
220 235 255
220 235 255
220 235 255
220 235 255
220 235 255
220 235 255
220 235 255
220 235 255
220 235 255
220 235 255
220 235 255
220 235 255
220 235 255
220 235 255
220 235 255
220 235 255
220 235 255
220 235 255
220 235 255
220 235 255
220 235 255
220 235 255
220 235 255
220 235 255
220 235 255
220 235 255
220 235 255
220 235 255
220 235 255
220 235 255
220 235 255
220 235 255
220 235 255
220 235 255
220 235 255
220 235 255
220 235 255
220 235 255
220 235 255
220 235 255
220 235 255
220 235 255
220 235 255
220 235 255
220 235 255
220 235 255
220 235 255
220 235 255
220 235 255
220 235 255
220 235 255
220 235 255
220 235 255
220 235 255
220 235 255
220 235 255
220 235 255
220 235 255
220 235 255
220 235 255
220 235 255
220 235 255
220 235 255
220 235 255
220 235 255
220 235 255
220 235 255
220 235 255
220 235 255
220 235 255
220 235 255
220 235 255
220 235 255
220 235 255
220 235 255
220 235 255
220 235 255
220 235 255
220 235 255
220 235 255
220 235 255
220 235 255
220 235 255
220 235 255
220 235 255
220 235 255
220 235 255
220 235 255
220 235 255
220 235 255
220 235 255
220 235 255
220 235 255
220 235 255
220 235 255
220 235 255
220 235 255
220 235 255
220 235 255
220 235 255
220 235 255
220 235 255
220 235 255
220 235 255
220 235 255
220 235 255
220 235 255
220 235 255
220 235 255
220 235 255
220 235 255
220 235 255
220 235 255
220 235 255
220 235 255
220 235 255
220 235 255
220 235 255
220 235 255
220 235 255
220 235 255
220 235 255
220 235 255
220 235 255
220 235 255
220 235 255
220 235 255
220 235 255
220 235 255
220 235 255
220 235 255
220 235 255
220 235 255
220 235 255
220 235 255
220 235 255
220 235 255
220 235 255
220 235 255
220 235 255
220 235 255
220 235 255
220 235 255
220 235 255
220 235 255
220 235 255
220 235 255
220 235 255
58 62 79
0 0 42
0 0 42
0 0 42
0 0 42
0 0 42
0 0 42
0 0 42
0 0 42
0 0 42
0 0 45
0 0 43
0 0 42
0 0 42
0 0 42
0 0 42
0 0 42
0 0 42
0 0 42
0 0 43
0 0 43
0 0 43
0 0 45
0 0 45
0 0 45
0 0 43
0 0 42
0 0 44
0 0 45
0 0 45
0 0 45
0 0 43
0 0 42
0 0 42
0 0 43
0 0 45
0 0 45
0 0 45
0 0 45
0 0 45
0 0 43
0 0 42
0 0 42
0 0 44
0 0 45
0 0 43
0 0 42
0 0 42
0 0 42
0 0 42
0 0 42
0 0 42
0 0 42
0 0 42
0 0 42
0 0 42
0 0 42
0 0 42
0 0 42
0 0 42
0 0 43
0 0 45
0 0 45
0 0 43
0 0 42
0 0 42
0 0 42
0 0 42
0 0 42
0 0 42
0 0 42
0 0 42
0 0 42
0 0 42
0 0 42
0 0 42
0 0 42
0 0 41
0 0 42
0 0 42
0 0 42
0 0 42
0 0 42
0 0 42
0 0 42
0 0 43
0 0 44
0 0 45
0 0 45
0 0 45
0 0 45
0 0 45
0 0 45
0 0 43
0 0 44
0 0 45
0 0 46
0 0 47
0 0 48
0 0 43
0 0 45
0 0 48
0 0 58
0 0 58
0 0 63
0 20 80
0 32 87
0 16 68
0 0 47
0 0 54
0 0 55
0 0 46
0 0 49
21 41 40
24 52 29
28 50 18
49 79 24
54 86 21
27 42 40
0 0 43
0 0 45
0 0 37
0 0 40
0 0 42
0 0 42
0 0 42
0 0 41
0 0 42
0 0 42
0 0 43
0 0 42
0 0 41
0 0 42
0 0 43
0 0 42
0 0 46
0 3 48
4 7 45
9 16 43
12 17 45
15 24 46
63 75 33
110 105 59
60 58 79
39 39 83
13 15 64
69 71 81
92 96 72
41 47 40
28 34 46
0 0 46
0 0 44
0 0 41
0 0 43
0 0 45
0 0 43
0 0 45
0 0 54
0 0 57
0 0 53
0 0 49
0 0 49
0 0 48
0 0 44
0 0 45
0 0 40
0 0 41
0 0 45
0 0 44
0 0 43
0 0 47
0 0 48
0 0 48
0 0 50
0 0 50
0 0 47
0 0 45
0 0 45
0 0 43
0 0 44
0 0 44
0 0 42
0 0 42
0 0 42
0 0 42
0 0 42
0 0 42
0 0 42
0 0 42
0 0 42
0 0 42
0 0 42
0 0 42
0 0 42
0 0 42
0 0 42
0 0 42
0 0 42
0 0 42
0 0 42
0 0 42
0 0 42
0 0 42
0 0 42
0 0 42
0 0 42
0 0 45
0 0 48
0 17 54
100 122 103
220 235 255
220 235 255
220 235 255
220 235 255
220 235 255
220 235 255
220 235 255
220 235 255
220 235 255
220 235 255
220 235 255
220 235 255
220 235 255
220 235 255
220 235 255
220 235 255
220 235 255
220 235 255
220 235 255
220 235 255
220 235 255
220 235 255
220 235 255
220 235 255
220 235 255
220 235 255
220 235 255
220 235 255
220 235 255
220 235 255
220 235 255
220 235 255
220 235 255
220 235 255
220 235 255
220 235 255
220 235 255
220 235 255
220 235 255
220 235 255
220 235 255
220 235 255
220 235 255
220 235 255
220 235 255
220 235 255
220 235 255
220 235 255
220 235 255
220 235 255
220 235 255
220 235 255
220 235 255
220 235 255
220 235 255
220 235 255
220 235 255
220 235 255
220 235 255
220 235 255
220 235 255
220 235 255
220 235 255
220 235 255
220 235 255
220 235 255
220 235 255
220 235 255
220 235 255
220 235 255
220 235 255
220 235 255
220 235 255
220 235 255
220 235 255
220 235 255
220 235 255
220 235 255
220 235 255
220 235 255
220 235 255
220 235 255
220 235 255
220 235 255
220 235 255
220 235 255
220 235 255
220 235 255
220 235 255
220 235 255
220 235 255
220 235 255
220 235 255
220 235 255
220 235 255
220 235 255
220 235 255
220 235 255
220 235 255
220 235 255
220 235 255
220 235 255
220 235 255
220 235 255
220 235 255
220 235 255
220 235 255
220 235 255
220 235 255
220 235 255
220 235 255
220 235 255
220 235 255
220 235 255
220 235 255
220 235 255
220 235 255
220 235 255
220 235 255
220 235 255
220 235 255
220 235 255
220 235 255
220 235 255
220 235 255
220 235 255
220 235 255
220 235 255
220 235 255
220 235 255
220 235 255
220 235 255
220 235 255
220 235 255
220 235 255
220 235 255
220 235 255
220 235 255
220 235 255
220 235 255
220 235 255
220 235 255
220 235 255
220 235 255
220 235 255
220 235 255
220 235 255
220 235 255
220 235 255
220 235 255
220 235 255
220 235 255
220 235 255
220 235 255
220 235 255
220 235 255
220 235 255
220 235 255
220 235 255
220 235 255
220 235 255
220 235 255
220 235 255
220 235 255
220 235 255
220 235 255
220 235 255
220 235 255
220 235 255
220 235 255
220 235 255
220 235 255
220 235 255
220 235 255
220 235 255
220 235 255
220 235 255
220 235 255
220 235 255
220 235 255
220 235 255
220 235 255
220 235 255
220 235 255
220 235 255
220 235 255
220 235 255
220 235 255
220 235 255
216 231 252
0 0 42
0 0 42
0 0 42
0 0 42
0 0 42
0 0 42
0 0 42
0 0 42
0 0 42
0 0 42
0 0 45
0 0 42
0 0 42
0 0 42
0 0 42
0 0 42
0 0 42
0 0 42
0 0 44
0 0 45
0 0 45
0 0 45
0 0 45
0 0 45
0 0 45
0 0 43
0 0 42
0 0 44
0 0 45
0 0 44
0 0 44
0 0 43
0 0 43
0 0 42
0 0 45
0 0 45
0 0 45
0 0 44
0 0 45
0 0 45
0 0 44
0 0 44
0 0 43
0 0 43
0 0 43
0 0 42
0 0 42
0 0 42
0 0 42
0 0 42
0 0 42
0 0 42
0 0 42
0 0 42
0 0 42
0 0 42
0 0 42
0 0 42
0 0 42
0 0 42
0 0 42
0 0 42
0 0 43
0 0 43
0 0 42
0 0 42
0 0 42
0 0 43
0 0 45
0 0 43
0 0 42
0 0 42
0 0 42
0 0 42
0 0 43
0 0 42
0 0 42
0 0 40
0 0 41
0 0 42
0 0 42
0 0 42
0 0 42
0 0 42
0 0 42
0 0 42
0 0 43
0 0 45
0 0 45
0 0 45
0 0 45
0 0 45
0 0 45
0 0 45
0 0 44
0 0 45
0 0 48
0 0 49
0 0 50
0 0 47
0 0 48
0 0 52
0 0 57
0 0 57
0 0 57
0 31 91
0 41 100
0 15 73
0 0 57
0 0 53
0 0 60
0 0 59
0 0 48
0 0 50
31 54 34
44 71 23
59 85 32
58 83 27
44 62 44
6 9 41
0 0 41
0 0 44
0 0 36
0 0 39
0 0 41
0 0 44
0 0 38
0 0 40
0 0 40
0 0 42
0 0 41
0 0 44
0 0 40
0 0 46
0 0 43
2 4 40
21 30 48
36 55 46
28 50 23
43 63 19
48 66 16
48 72 11
54 71 15
79 91 65
58 81 97
87 96 65
101 97 64
84 86 38
66 78 21
69 85 23
28 41 36
0 0 45
0 0 44
0 4 46
0 1 44
0 0 42
0 0 47
2 3 59
16 26 61
9 16 70
4 5 58
0 1 70
0 0 67
0 0 53
0 0 48
0 0 39
0 0 41
0 0 44
0 0 45
0 0 45
0 0 47
0 0 48
0 0 49
0 0 51
0 0 52
0 0 52
0 0 48
0 0 46
0 0 45
0 0 45
0 0 44
0 0 43
0 0 42
0 0 42
0 0 42
0 0 42
0 0 42
0 0 42
0 0 42
0 0 42
0 0 42
0 0 42
0 0 42
0 0 42
0 0 42
0 0 42
0 0 42
0 0 42
0 0 42
0 0 42
0 0 42
0 0 42
0 0 42
0 0 42
0 0 42
0 0 42
0 0 44
0 0 47
0 0 45
55 78 60
204 219 236
220 235 255
220 235 255
220 235 255
220 235 255
220 235 255
220 235 255
220 235 255
220 235 255
220 235 255
220 235 255
220 235 255
220 235 255
220 235 255
220 235 255
220 235 255
220 235 255
220 235 255
220 235 255
220 235 255
220 235 255
220 235 255
220 235 255
220 235 255
220 235 255
220 235 255
220 235 255
220 235 255
220 235 255
220 235 255
220 235 255
220 235 255
220 235 255
220 235 255
220 235 255
220 235 255
220 235 255
220 235 255
220 235 255
220 235 255
220 235 255
220 235 255
220 235 255
220 235 255
220 235 255
220 235 255
220 235 255
220 235 255
220 235 255
220 235 255
220 235 255
220 235 255
220 235 255
220 235 255
220 235 255
220 235 255
220 235 255
220 235 255
220 235 255
220 235 255
220 235 255
220 235 255
220 235 255
220 235 255
220 235 255
220 235 255
220 235 255
220 235 255
220 235 255
220 235 255
220 235 255
220 235 255
220 235 255
220 235 255
220 235 255
220 235 255
220 235 255
220 235 255
220 235 255
220 235 255
220 235 255
220 235 255
220 235 255
220 235 255
220 235 255
220 235 255
220 235 255
220 235 255
220 235 255
220 235 255
220 235 255
220 235 255
220 235 255
220 235 255
220 235 255
220 235 255
220 235 255
220 235 255
220 235 255
220 235 255
220 235 255
220 235 255
220 235 255
220 235 255
220 235 255
220 235 255
220 235 255
220 235 255
220 235 255
220 235 255
220 235 255
220 235 255
220 235 255
220 235 255
220 235 255
220 235 255
220 235 255
220 235 255
220 235 255
220 235 255
220 235 255
220 235 255
220 235 255
220 235 255
220 235 255
220 235 255
220 235 255
220 235 255
220 235 255
220 235 255
220 235 255
220 235 255
220 235 255
220 235 255
220 235 255
220 235 255
220 235 255
220 235 255
220 235 255
220 235 255
220 235 255
220 235 255
220 235 255
220 235 255
220 235 255
220 235 255
220 235 255
220 235 255
220 235 255
220 235 255
220 235 255
220 235 255
220 235 255
220 235 255
220 235 255
220 235 255
220 235 255
220 235 255
220 235 255
220 235 255
220 235 255
220 235 255
220 235 255
220 235 255
220 235 255
220 235 255
220 235 255
220 235 255
220 235 255
220 235 255
220 235 255
220 235 255
220 235 255
220 235 255
220 235 255
220 235 255
220 235 255
220 235 255
220 235 255
220 235 255
220 235 255
220 235 255
220 235 255
220 235 255
220 235 255
220 235 255
220 235 255
220 235 255
220 235 255
169 180 198
0 0 42
0 0 42
0 0 42
0 0 42
0 0 42
0 0 42
0 0 42
0 0 43
0 0 43
0 0 43
0 0 43
0 0 41
0 0 42
0 0 42
0 0 42
0 0 44
0 0 44
0 0 43
0 0 42
0 0 42
0 0 42
0 0 43
0 0 45
0 0 45
0 0 45
0 0 45
0 0 43
0 0 42
0 0 44
0 0 42
0 0 42
0 0 44
0 0 45
0 0 44
0 0 45
0 0 45
0 0 45
0 0 44
0 0 45
0 0 45
0 0 45
0 0 45
0 0 44
0 0 43
0 0 43
0 0 42
0 0 42
0 0 42
0 0 42
0 0 42
0 0 42
0 0 42
0 0 42
0 0 42
0 0 42
0 0 42
0 0 42
0 0 42
0 0 42
0 0 42
0 0 42
0 0 43
0 0 45
0 0 43
0 0 42
0 0 42
0 0 42
0 0 42
0 0 44
0 0 45
0 0 42
0 0 42
0 0 42
0 0 43
0 0 44
0 0 42
0 0 42
0 0 42
0 0 42
0 0 42
0 0 42
0 0 42
0 0 42
0 0 42
0 0 42
0 0 42
0 0 43
0 0 45
0 0 45
0 0 45
0 0 45
0 0 45
0 0 45
0 0 45
0 0 45
0 0 47
0 0 48
0 0 50
0 0 50
0 0 45
0 0 47
0 0 50
0 0 53
0 0 53
0 0 55
0 15 68
0 32 88
0 25 83
0 14 75
0 17 74
0 15 75
0 4 62
0 0 53
0 0 52
33 56 27
50 82 18
56 88 24
53 80 26
58 84 24
20 32 35
0 0 40
0 0 49
0 0 42
0 0 37
0 0 41
0 0 45
0 0 37
0 0 42
0 0 48
0 0 41
0 0 43
0 0 43
0 0 44
0 0 38
0 0 40
9 13 42
47 67 30
56 81 20
45 71 6
41 58 17
53 72 17
43 65 13
52 74 18
95 114 71
70 118 84
60 80 33
79 73 42
90 85 48
66 75 25
52 73 9
42 60 35
27 38 30
32 44 30
38 57 29
29 43 36
7 11 45
0 0 50
0 0 53
24 41 68
26 47 52
29 52 41
12 62 59
0 14 72
29 44 43
6 25 43
0 0 42
0 0 46
0 0 43
0 0 45
0 0 45
0 0 46
0 0 48
0 0 48
0 0 52
0 0 55
0 0 56
0 0 51
0 0 49
0 0 45
0 0 45
0 0 45
0 0 45
0 0 43
0 0 42
0 0 42
0 0 42
0 0 42
0 0 42
0 0 42
0 0 42
0 0 42
0 0 42
0 0 42
0 0 42
0 0 42
0 0 42
0 0 42
0 0 42
0 0 42
0 0 42
0 0 42
0 0 42
0 0 42
0 0 42
0 0 42
0 0 42
0 0 44
0 0 43
0 0 44
31 54 71
184 199 211
220 235 255
220 235 255
220 235 255
220 235 255
220 235 255
220 235 255
220 235 255
220 235 255
220 235 255
220 235 255
220 235 255
220 235 255
220 235 255
220 235 255
220 235 255
220 235 255
220 235 255
220 235 255
220 235 255
220 235 255
220 235 255
220 235 255
220 235 255
220 235 255
220 235 255
220 235 255
220 235 255
220 235 255
220 235 255
220 235 255
220 235 255
220 235 255
220 235 255
220 235 255
220 235 255
220 235 255
220 235 255
220 235 255
220 235 255
220 235 255
220 235 255
220 235 255
220 235 255
220 235 255
220 235 255
220 235 255
220 235 255
220 235 255
220 235 255
220 235 255
220 235 255
220 235 255
220 235 255
220 235 255
220 235 255
220 235 255
220 235 255
220 235 255
220 235 255
220 235 255
220 235 255
220 235 255
220 235 255
220 235 255
220 235 255
220 235 255
220 235 255
220 235 255
220 235 255
220 235 255
220 235 255
220 235 255
220 235 255
220 235 255
220 235 255
220 235 255
220 235 255
220 235 255
220 235 255
220 235 255
220 235 255
220 235 255
220 235 255
220 235 255
220 235 255
220 235 255
220 235 255
220 235 255
220 235 255
220 235 255
220 235 255
220 235 255
220 235 255
220 235 255
220 235 255
220 235 255
220 235 255
220 235 255
220 235 255
220 235 255
220 235 255
220 235 255
220 235 255
220 235 255
220 235 255
220 235 255
220 235 255
220 235 255
220 235 255
220 235 255
220 235 255
220 235 255
220 235 255
220 235 255
220 235 255
220 235 255
220 235 255
220 235 255
220 235 255
220 235 255
220 235 255
220 235 255
220 235 255
220 235 255
220 235 255
220 235 255
220 235 255
220 235 255
220 235 255
220 235 255
220 235 255
220 235 255
220 235 255
220 235 255
220 235 255
220 235 255
220 235 255
220 235 255
220 235 255
220 235 255
220 235 255
220 235 255
220 235 255
220 235 255
220 235 255
220 235 255
220 235 255
220 235 255
220 235 255
220 235 255
220 235 255
220 235 255
220 235 255
220 235 255
220 235 255
220 235 255
220 235 255
220 235 255
220 235 255
220 235 255
220 235 255
220 235 255
220 235 255
220 235 255
220 235 255
220 235 255
220 235 255
220 235 255
220 235 255
220 235 255
220 235 255
220 235 255
220 235 255
220 235 255
220 235 255
220 235 255
220 235 255
220 235 255
220 235 255
220 235 255
220 235 255
220 235 255
220 235 255
220 235 255
220 235 255
220 235 255
220 235 255
220 235 255
141 150 167
0 0 42
0 0 43
0 0 44
0 0 43
0 0 44
0 0 45
0 0 45
0 0 45
0 0 45
0 0 43
0 0 42
0 0 41
0 0 42
0 0 42
0 0 42
0 0 45
0 0 45
0 0 45
0 0 42
0 0 42
0 0 43
0 0 44
0 0 45
0 0 45
0 0 45
0 0 45
0 0 42
0 0 42
0 0 45
0 0 42
0 0 42
0 0 44
0 0 45
0 0 45
0 0 45
0 0 44
0 0 45
0 0 45
0 0 45
0 0 45
0 0 45
0 0 45
0 0 45
0 0 45
0 0 44
0 0 42
0 0 42
0 0 42
0 0 42
0 0 42
0 0 42
0 0 42
0 0 42
0 0 42
0 0 42
0 0 42
0 0 42
0 0 42
0 0 42
0 0 42
0 0 43
0 0 45
0 0 45
0 0 43
0 0 42
0 0 42
0 0 42
0 0 42
0 0 44
0 0 44
0 0 42
0 0 42
0 0 42
0 0 42
0 0 44
0 0 42
0 0 42
0 0 42
0 0 42
0 0 42
0 0 42
0 0 43
0 0 43
0 0 43
0 0 42
0 0 42
0 0 43
0 0 45
0 0 45
0 0 45
0 0 45
0 0 45
0 0 45
0 0 45
0 0 47
0 0 50
0 0 53
0 0 53
0 0 55
0 0 52
0 0 52
0 0 52
0 0 54
0 0 55
0 0 56
0 6 67
0 21 81
0 23 88
0 12 77
0 12 74
0 8 72
0 0 54
0 0 53
0 0 40
20 36 24
36 63 29
34 63 37
49 78 18
53 78 22
41 64 5
15 24 34
3 5 50
0 0 40
0 0 43
0 0 46
0 0 47
0 0 39
0 3 54
0 0 45
0 0 37
0 0 35
0 0 42
0 0 49
0 0 37
0 0 41
3 6 54
48 71 16
52 75 18
50 70 15
53 71 24
55 76 19
45 63 8
64 84 18
43 78 88
30 93 111
45 74 44
76 79 37
98 94 55
84 94 44
45 76 0
49 74 10
55 76 22
55 78 30
49 74 10
47 73 9
34 56 25
25 43 42
29 51 34
44 58 23
43 67 19
42 64 12
24 88 70
6 54 86
41 65 70
13 29 54
0 0 53
0 0 41
0 0 42
0 0 45
0 0 45
0 0 45
0 0 47
0 0 48
0 0 51
0 0 54
0 0 57
0 0 53
0 0 51
0 0 48
0 0 47
0 0 45
0 0 45
0 0 43
0 0 42
0 0 42
0 0 42
0 0 42
0 0 42
0 0 42
0 0 42
0 0 42
0 0 42
0 0 42
0 0 42
0 0 42
0 0 42
0 0 42
0 0 42
0 0 42
0 0 42
0 0 42
0 0 42
0 0 42
0 0 42
0 0 41
0 0 42
0 0 45
0 0 43
0 0 42
4 33 68
147 162 169
220 235 255
220 235 255
220 235 255
220 235 255
220 235 255
220 235 255
220 235 255
220 235 255
220 235 255
220 235 255
220 235 255
220 235 255
220 235 255
220 235 255
220 235 255
220 235 255
220 235 255
220 235 255
220 235 255
220 235 255
220 235 255
220 235 255
220 235 255
220 235 255
220 235 255
220 235 255
220 235 255
220 235 255
220 235 255
220 235 255
220 235 255
220 235 255
220 235 255
220 235 255
220 235 255
220 235 255
220 235 255
220 235 255
220 235 255
220 235 255
220 235 255
220 235 255
220 235 255
220 235 255
220 235 255
220 235 255
220 235 255
220 235 255
220 235 255
220 235 255
220 235 255
220 235 255
220 235 255
220 235 255
220 235 255
220 235 255
220 235 255
220 235 255
220 235 255
220 235 255
220 235 255
220 235 255
220 235 255
220 235 255
220 235 255
220 235 255
220 235 255
220 235 255
220 235 255
220 235 255
220 235 255
220 235 255
220 235 255
220 235 255
220 235 255
220 235 255
220 235 255
220 235 255
220 235 255
220 235 255
220 235 255
220 235 255
220 235 255
220 235 255
220 235 255
220 235 255
220 235 255
220 235 255
220 235 255
220 235 255
220 235 255
220 235 255
220 235 255
220 235 255
220 235 255
220 235 255
220 235 255
220 235 255
220 235 255
220 235 255
220 235 255
220 235 255
220 235 255
220 235 255
220 235 255
220 235 255
220 235 255
220 235 255
220 235 255
220 235 255
220 235 255
220 235 255
220 235 255
220 235 255
220 235 255
220 235 255
220 235 255
220 235 255
220 235 255
220 235 255
220 235 255
220 235 255
220 235 255
220 235 255
220 235 255
220 235 255
220 235 255
220 235 255
220 235 255
220 235 255
220 235 255
220 235 255
220 235 255
220 235 255
220 235 255
220 235 255
220 235 255
220 235 255
220 235 255
220 235 255
220 235 255
220 235 255
220 235 255
220 235 255
220 235 255
220 235 255
220 235 255
220 235 255
220 235 255
220 235 255
220 235 255
220 235 255
220 235 255
220 235 255
220 235 255
220 235 255
220 235 255
220 235 255
220 235 255
220 235 255
220 235 255
220 235 255
220 235 255
220 235 255
220 235 255
220 235 255
220 235 255
220 235 255
220 235 255
220 235 255
220 235 255
220 235 255
220 235 255
220 235 255
220 235 255
220 235 255
220 235 255
220 235 255
220 235 255
220 235 255
220 235 255
220 235 255
220 235 255
220 235 255
220 235 255
220 235 255
220 235 255
220 235 255
90 97 112
0 0 42
0 0 45
0 0 45
0 0 44
0 0 45
0 0 45
0 0 45
0 0 45
0 0 45
0 0 44
0 0 42
0 0 42
0 0 42
0 0 42
0 0 42
0 0 45
0 0 45
0 0 44
0 0 43
0 0 44
0 0 45
0 0 45
0 0 45
0 0 45
0 0 44
0 0 45
0 0 42
0 0 42
0 0 45
0 0 42
0 0 42
0 0 45
0 0 45
0 0 45
0 0 44
0 0 42
0 0 45
0 0 45
0 0 45
0 0 45
0 0 45
0 0 43
0 0 44
0 0 45
0 0 44
0 0 42
0 0 42
0 0 42
0 0 42
0 0 42
0 0 42
0 0 42
0 0 42
0 0 42
0 0 42
0 0 42
0 0 42
0 0 42
0 0 42
0 0 42
0 0 44
0 0 45
0 0 45
0 0 45
0 0 42
0 0 42
0 0 42
0 0 42
0 0 42
0 0 42
0 0 42
0 0 42
0 0 42
0 0 42
0 0 43
0 0 43
0 0 42
0 0 42
0 0 42
0 0 42
0 0 45
0 0 45
0 0 45
0 0 45
0 0 45
0 0 45
0 0 45
0 0 45
0 0 45
0 0 45
0 0 45
0 0 45
0 0 44
0 0 45
0 0 48
0 0 53
0 0 54
0 0 57
0 0 60
0 0 62
0 0 62
0 0 61
0 0 62
0 0 63
0 0 64
0 10 72
0 19 83
0 24 89
0 15 77
0 7 64
0 0 62
0 0 59
0 0 46
0 0 46
0 0 47
0 14 42
11 23 50
31 49 40
44 66 21
42 66 9
35 57 8
19 32 33
0 0 45
0 0 44
0 0 41
0 0 42
8 14 36
27 45 34
30 50 28
19 32 34
15 20 44
0 0 37
0 0 39
0 0 43
11 11 41
27 37 43
55 80 25
58 83 15
56 78 17
55 76 21
50 72 14
34 51 4
48 79 5
27 65 60
11 69 123
47 97 75
52 72 15
58 69 27
59 77 25
44 77 8
49 73 13
55 76 13
55 79 20
53 79 21
56 84 22
49 80 6
47 80 8
43 74 16
62 83 28
68 87 25
53 80 15
37 64 19
31 66 40
24 70 65
0 60 92
0 7 54
0 0 41
0 0 44
0 0 45
0 0 45
0 0 45
0 0 47
0 0 50
0 0 51
0 0 53
0 0 56
0 0 53
0 0 52
0 0 50
0 0 49
0 0 45
0 0 45
0 0 44
0 0 42
0 0 42
0 0 42
0 0 42
0 0 42
0 0 42
0 0 42
0 0 42
0 0 42
0 0 42
0 0 42
0 0 42
0 0 42
0 0 42
0 0 42
0 0 42
0 0 42
0 0 42
0 0 42
0 0 42
0 0 42
0 0 42
0 0 42
0 0 43
0 0 42
0 0 44
0 19 54
109 126 137
220 235 255
220 235 255
220 235 255
220 235 255
220 235 255
220 235 255
220 235 255
220 235 255
220 235 255
220 235 255
220 235 255
220 235 255
220 235 255
220 235 255
220 235 255
220 235 255
220 235 255
220 235 255
220 235 255
220 235 255
220 235 255
220 235 255
220 235 255
220 235 255
220 235 255
220 235 255
220 235 255
220 235 255
220 235 255
220 235 255
220 235 255
220 235 255
220 235 255
220 235 255
220 235 255
220 235 255
220 235 255
220 235 255
220 235 255
220 235 255
220 235 255
220 235 255
220 235 255
220 235 255
220 235 255
220 235 255
220 235 255
220 235 255
220 235 255
220 235 255
220 235 255
220 235 255
220 235 255
220 235 255
220 235 255
220 235 255
220 235 255
220 235 255
220 235 255
220 235 255
220 235 255
220 235 255
220 235 255
220 235 255
220 235 255
220 235 255
220 235 255
220 235 255
220 235 255
220 235 255
220 235 255
220 235 255
220 235 255
220 235 255
220 235 255
220 235 255
220 235 255
220 235 255
220 235 255
220 235 255
220 235 255
220 235 255
220 235 255
220 235 255
220 235 255
220 235 255
220 235 255
220 235 255
220 235 255
220 235 255
220 235 255
220 235 255
220 235 255
220 235 255
220 235 255
220 235 255
220 235 255
220 235 255
220 235 255
220 235 255
220 235 255
220 235 255
220 235 255
220 235 255
220 235 255
220 235 255
220 235 255
220 235 255
220 235 255
220 235 255
220 235 255
220 235 255
220 235 255
220 235 255
220 235 255
220 235 255
220 235 255
220 235 255
220 235 255
220 235 255
220 235 255
220 235 255
220 235 255
220 235 255
220 235 255
220 235 255
220 235 255
220 235 255
220 235 255
220 235 255
220 235 255
220 235 255
220 235 255
220 235 255
220 235 255
220 235 255
220 235 255
220 235 255
220 235 255
220 235 255
220 235 255
220 235 255
220 235 255
220 235 255
220 235 255
220 235 255
220 235 255
220 235 255
220 235 255
220 235 255
220 235 255
220 235 255
220 235 255
220 235 255
220 235 255
220 235 255
220 235 255
220 235 255
220 235 255
220 235 255
220 235 255
220 235 255
220 235 255
220 235 255
220 235 255
220 235 255
220 235 255
220 235 255
220 235 255
220 235 255
220 235 255
220 235 255
220 235 255
220 235 255
220 235 255
220 235 255
220 235 255
220 235 255
220 235 255
220 235 255
220 235 255
220 235 255
220 235 255
220 235 255
220 235 255
220 235 255
220 235 255
217 231 252
38 40 61
0 0 45
0 0 45
0 0 45
0 0 45
0 0 45
0 0 45
0 0 45
0 0 45
0 0 45
0 0 44
0 0 43
0 0 42
0 0 42
0 0 42
0 0 42
0 0 45
0 0 45
0 0 45
0 0 45
0 0 45
0 0 45
0 0 45
0 0 45
0 0 45
0 0 44
0 0 44
0 0 42
0 0 43
0 0 44
0 0 42
0 0 43
0 0 45
0 0 45
0 0 45
0 0 45
0 0 44
0 0 45
0 0 45
0 0 45
0 0 45
0 0 45
0 0 45
0 0 44
0 0 44
0 0 43
0 0 42
0 0 42
0 0 42
0 0 42
0 0 42
0 0 42
0 0 42
0 0 42
0 0 42
0 0 42
0 0 42
0 0 42
0 0 42
0 0 42
0 0 44
0 0 45
0 0 45
0 0 45
0 0 45
0 0 43
0 0 42
0 0 42
0 0 42
0 0 42
0 0 42
0 0 42
0 0 42
0 0 42
0 0 42
0 0 43
0 0 44
0 0 42
0 0 42
0 0 42
0 0 44
0 0 45
0 0 45
0 0 45
0 0 45
0 0 45
0 0 45
0 0 45
0 0 45
0 0 45
0 0 45
0 0 45
0 0 45
0 0 45
0 0 46
0 0 48
0 0 51
0 0 54
0 0 57
0 0 64
0 0 68
0 9 71
0 11 69
0 0 67
0 0 68
0 0 69
0 20 78
0 21 84
0 25 89
0 20 81
0 5 63
0 0 55
0 0 47
0 0 44
0 0 41
0 0 45
0 0 47
0 0 49
0 0 39
23 36 45
41 64 23
42 67 7
40 64 18
18 31 40
8 17 37
2 6 40
25 43 32
49 77 26
43 69 44
37 64 45
39 69 31
45 71 31
19 28 40
0 0 43
0 4 46
37 50 52
71 94 45
69 93 38
59 85 24
52 78 12
47 72 15
36 56 15
25 46 4
41 68 8
46 75 18
33 113 106
56 89 61
58 72 21
43 68 0
46 74 0
47 77 10
46 74 8
53 79 0
56 81 13
59 83 14
62 85 17
64 88 22
57 84 17
58 80 21
81 94 34
93 94 31
82 89 31
63 68 20
42 65 10
41 58 5
36 89 73
7 74 107
0 8 56
0 0 49
0 0 45
0 0 45
0 0 45
0 0 45
0 0 50
0 0 54
0 0 56
0 0 57
0 0 52
0 0 52
0 0 49
0 0 48
0 0 46
0 0 45
0 0 44
0 0 42
0 0 42
0 0 42
0 0 42
0 0 42
0 0 42
0 0 42
0 0 42
0 0 42
0 0 42
0 0 42
0 0 42
0 0 42
0 0 42
0 0 42
0 0 42
0 0 42
0 0 42
0 0 42
0 0 42
0 0 42
0 0 42
0 0 42
0 0 42
0 0 42
0 0 44
0 0 44
55 74 88
216 231 250
220 235 255
220 235 255
220 235 255
220 235 255
220 235 255
220 235 255
220 235 255
220 235 255
220 235 255
220 235 255
220 235 255
220 235 255
220 235 255
220 235 255
220 235 255
220 235 255
220 235 255
220 235 255
220 235 255
220 235 255
220 235 255
220 235 255
220 235 255
220 235 255
220 235 255
220 235 255
220 235 255
220 235 255
220 235 255
220 235 255
220 235 255
220 235 255
220 235 255
220 235 255
220 235 255
220 235 255
220 235 255
220 235 255
220 235 255
220 235 255
220 235 255
220 235 255
220 235 255
220 235 255
220 235 255
220 235 255
220 235 255
220 235 255
220 235 255
220 235 255
220 235 255
220 235 255
220 235 255
220 235 255
220 235 255
220 235 255
220 235 255
220 235 255
220 235 255
220 235 255
220 235 255
220 235 255
220 235 255
220 235 255
220 235 255
220 235 255
220 235 255
220 235 255
220 235 255
220 235 255
220 235 255
220 235 255
220 235 255
220 235 255
220 235 255
220 235 255
220 235 255
220 235 255
220 235 255
220 235 255
220 235 255
220 235 255
220 235 255
220 235 255
220 235 255
220 235 255
220 235 255
220 235 255
220 235 255
220 235 255
220 235 255
220 235 255
220 235 255
220 235 255
220 235 255
220 235 255
220 235 255
220 235 255
220 235 255
220 235 255
220 235 255
220 235 255
220 235 255
220 235 255
220 235 255
220 235 255
220 235 255
220 235 255
220 235 255
220 235 255
220 235 255
220 235 255
220 235 255
220 235 255
220 235 255
220 235 255
220 235 255
220 235 255
220 235 255
220 235 255
220 235 255
220 235 255
220 235 255
220 235 255
220 235 255
220 235 255
220 235 255
220 235 255
220 235 255
220 235 255
220 235 255
220 235 255
220 235 255
220 235 255
220 235 255
220 235 255
220 235 255
220 235 255
220 235 255
220 235 255
220 235 255
220 235 255
220 235 255
220 235 255
220 235 255
220 235 255
220 235 255
220 235 255
220 235 255
220 235 255
220 235 255
220 235 255
220 235 255
220 235 255
220 235 255
220 235 255
220 235 255
220 235 255
220 235 255
220 235 255
220 235 255
220 235 255
220 235 255
220 235 255
220 235 255
220 235 255
220 235 255
220 235 255
220 235 255
220 235 255
220 235 255
220 235 255
220 235 255
220 235 255
220 235 255
220 235 255
220 235 255
220 235 255
220 235 255
220 235 255
220 235 255
220 235 255
220 235 255
220 235 255
220 235 255
220 235 255
200 214 233
0 0 43
0 0 44
0 0 45
0 0 45
0 0 45
0 0 45
0 0 45
0 0 45
0 0 45
0 0 45
0 0 43
0 0 45
0 0 45
0 0 45
0 0 45
0 0 45
0 0 45
0 0 45
0 0 45
0 0 45
0 0 45
0 0 45
0 0 45
0 0 45
0 0 45
0 0 45
0 0 44
0 0 42
0 0 43
0 0 44
0 0 42
0 0 43
0 0 45
0 0 45
0 0 45
0 0 45
0 0 45
0 0 45
0 0 42
0 0 42
0 0 44
0 0 45
0 0 45
0 0 42
0 0 42
0 0 42
0 0 42
0 0 42
0 0 42
0 0 42
0 0 42
0 0 42
0 0 42
0 0 42
0 0 42
0 0 42
0 0 42
0 0 42
0 0 42
0 0 43
0 0 45
0 0 45
0 0 45
0 0 45
0 0 45
0 0 44
0 0 42
0 0 42
0 0 42
0 0 42
0 0 44
0 0 43
0 0 42
0 0 42
0 0 44
0 0 45
0 0 45
0 0 42
0 0 42
0 0 42
0 0 45
0 0 45
0 0 45
0 0 44
0 0 44
0 0 44
0 0 45
0 0 45
0 0 45
0 0 45
0 0 45
0 0 45
0 0 45
0 0 45
0 0 46
0 0 48
0 0 50
0 0 51
0 0 56
0 0 63
0 8 68
0 16 73
0 13 70
0 0 60
0 0 57
0 0 57
0 7 62
0 13 75
0 13 78
0 13 70
0 0 57
0 0 51
0 0 49
0 0 45
0 0 52
0 0 48
0 0 36
0 0 43
0 0 47
5 9 41
22 39 23
45 71 21
56 86 19
51 80 20
45 70 19
44 66 22
50 80 13
48 76 36
25 45 66
8 18 69
20 44 49
45 75 42
50 77 22
20 40 55
26 54 76
65 97 46
74 102 36
66 92 21
56 84 12
46 74 6
43 72 8
40 64 12
27 51 0
36 71 0
50 79 19
46 73 19
66 72 26
53 72 22
48 75 20
43 77 0
51 76 12
45 75 6
45 81 0
57 79 14
74 92 29
75 92 28
69 85 23
65 81 20
68 83 26
100 100 49
95 95 39
75 76 23
76 78 30
56 72 17
35 62 8
35 67 38
17 89 113
3 31 72
0 12 60
0 0 45
0 0 45
0 0 45
0 0 45
0 0 49
0 0 55
0 0 58
0 0 58
0 0 52
0 0 48
0 0 46
0 0 47
0 0 45
0 0 45
0 0 44
0 0 42
0 0 42
0 0 42
0 0 42
0 0 42
0 0 42
0 0 42
0 0 42
0 0 42
0 0 42
0 0 42
0 0 42
0 0 42
0 0 42
0 0 42
0 0 42
0 0 42
0 0 42
0 0 42
0 0 42
0 0 42
0 0 42
0 0 42
0 0 42
0 0 42
0 0 44
0 0 45
19 37 70
207 222 240
220 235 255
220 235 255
220 235 255
220 235 255
220 235 255
220 235 255
220 235 255
220 235 255
220 235 255
220 235 255
220 235 255
220 235 255
220 235 255
220 235 255
220 235 255
220 235 255
220 235 255
220 235 255
220 235 255
220 235 255
220 235 255
220 235 255
220 235 255
220 235 255
220 235 255
220 235 255
220 235 255
220 235 255
220 235 255
220 235 255
220 235 255
220 235 255
220 235 255
220 235 255
220 235 255
220 235 255
220 235 255
220 235 255
220 235 255
220 235 255
220 235 255
220 235 255
220 235 255
220 235 255
220 235 255
220 235 255
220 235 255
220 235 255
220 235 255
220 235 255
220 235 255
220 235 255
220 235 255
220 235 255
220 235 255
220 235 255
220 235 255
220 235 255
220 235 255
220 235 255
220 235 255
220 235 255
220 235 255
220 235 255
220 235 255
220 235 255
220 235 255
220 235 255
220 235 255
220 235 255
220 235 255
220 235 255
220 235 255
220 235 255
220 235 255
220 235 255
220 235 255
220 235 255
220 235 255
220 235 255
220 235 255
220 235 255
220 235 255
220 235 255
220 235 255
220 235 255
220 235 255
220 235 255
220 235 255
220 235 255
220 235 255
220 235 255
220 235 255
220 235 255
220 235 255
220 235 255
220 235 255
220 235 255
220 235 255
220 235 255
220 235 255
220 235 255
220 235 255
220 235 255
220 235 255
220 235 255
220 235 255
220 235 255
220 235 255
220 235 255
220 235 255
220 235 255
220 235 255
220 235 255
220 235 255
220 235 255
220 235 255
220 235 255
220 235 255
220 235 255
220 235 255
220 235 255
220 235 255
220 235 255
220 235 255
220 235 255
220 235 255
220 235 255
220 235 255
220 235 255
220 235 255
220 235 255
220 235 255
220 235 255
220 235 255
220 235 255
220 235 255
220 235 255
220 235 255
220 235 255
220 235 255
220 235 255
220 235 255
220 235 255
220 235 255
220 235 255
220 235 255
220 235 255
220 235 255
220 235 255
220 235 255
220 235 255
220 235 255
220 235 255
220 235 255
220 235 255
220 235 255
220 235 255
220 235 255
220 235 255
220 235 255
220 235 255
220 235 255
220 235 255
220 235 255
220 235 255
220 235 255
220 235 255
220 235 255
220 235 255
220 235 255
220 235 255
220 235 255
220 235 255
220 235 255
220 235 255
220 235 255
220 235 255
220 235 255
220 235 255
220 235 255
220 235 255
220 235 255
220 235 255
220 235 255
220 235 255
166 177 195
0 0 44
0 0 44
0 0 45
0 0 45
0 0 45
0 0 44
0 0 45
0 0 45
0 0 45
0 0 44
0 0 44
0 0 45
0 0 46
0 0 45
0 0 45
0 0 45
0 0 45
0 0 45
0 0 44
0 0 45
0 0 45
0 0 45
0 0 45
0 0 45
0 0 45
0 0 45
0 0 44
0 0 42
0 0 43
0 0 44
0 0 43
0 0 44
0 0 45
0 0 45
0 0 44
0 0 43
0 0 45
0 0 44
0 0 44
0 0 42
0 0 43
0 0 43
0 0 43
0 0 42
0 0 42
0 0 42
0 0 42
0 0 42
0 0 44
0 0 44
0 0 44
0 0 44
0 0 44
0 0 42
0 0 42
0 0 43
0 0 45
0 0 44
0 0 45
0 0 45
0 0 45
0 0 45
0 0 45
0 0 45
0 0 45
0 0 45
0 0 45
0 0 42
0 0 42
0 0 43
0 0 45
0 0 45
0 0 45
0 0 45
0 0 45
0 0 45
0 0 45
0 0 45
0 0 45
0 0 45
0 0 45
0 0 45
0 0 45
0 0 42
0 0 42
0 0 42
0 0 42
0 0 43
0 0 45
0 0 45
0 0 45
0 0 45
0 0 45
0 0 45
0 0 47
0 0 49
0 0 48
0 0 49
0 0 55
0 0 62
0 0 67
0 0 66
0 0 59
0 0 51
0 0 49
0 0 48
0 0 47
0 0 50
0 0 55
0 0 56
0 0 56
0 0 50
0 0 46
0 0 45
0 0 45
0 0 45
0 0 45
0 0 45
0 0 44
0 0 46
0 7 40
14 23 42
19 32 46
27 44 34
42 72 21
49 83 0
51 83 29
24 35 56
0 0 49
0 4 56
0 8 55
24 61 54
48 81 18
43 69 29
37 112 74
61 100 42
63 95 30
55 87 17
48 76 12
38 64 0
39 64 5
49 70 12
40 56 7
46 63 11
52 71 16
51 69 18
54 73 22
52 77 15
54 82 14
48 78 0
46 79 1
48 81 0
51 83 0
52 78 4
57 73 13
75 81 26
90 91 37
88 91 34
88 95 35
91 89 37
92 92 36
74 81 33
62 76 28
38 57 8
34 56 0
29 52 12
31 57 34
21 50 48
10 49 85
0 11 67
0 0 41
0 0 41
0 0 43
0 0 43
0 0 53
0 0 57
0 0 64
0 0 55
0 0 46
0 0 45
0 0 44
0 0 43
0 0 44
0 0 45
0 0 42
0 0 42
0 0 42
0 0 42
0 0 42
0 0 42
0 0 42
0 0 42
0 0 42
0 0 42
0 0 42
0 0 42
0 0 42
0 0 42
0 0 42
0 0 42
0 0 42
0 0 42
0 0 42
0 0 42
0 0 42
0 0 42
0 0 42
0 0 42
0 0 41
0 0 43
0 0 45
0 4 46
187 202 216
220 235 255
220 235 255
220 235 255
220 235 255
220 235 255
220 235 255
220 235 255
220 235 255
220 235 255
220 235 255
220 235 255
220 235 255
220 235 255
220 235 255
220 235 255
220 235 255
220 235 255
220 235 255
220 235 255
220 235 255
220 235 255
220 235 255
220 235 255
220 235 255
220 235 255
220 235 255
220 235 255
220 235 255
220 235 255
220 235 255
220 235 255
220 235 255
220 235 255
220 235 255
220 235 255
220 235 255
220 235 255
220 235 255
220 235 255
220 235 255
220 235 255
220 235 255
220 235 255
220 235 255
220 235 255
220 235 255
220 235 255
220 235 255
220 235 255
220 235 255
220 235 255
220 235 255
220 235 255
220 235 255
220 235 255
220 235 255
220 235 255
220 235 255
220 235 255
220 235 255
220 235 255
220 235 255
220 235 255
220 235 255
220 235 255
220 235 255
220 235 255
220 235 255
220 235 255
220 235 255
220 235 255
220 235 255
220 235 255
220 235 255
220 235 255
220 235 255
220 235 255
220 235 255
220 235 255
220 235 255
220 235 255
220 235 255
220 235 255
220 235 255
220 235 255
220 235 255
220 235 255
220 235 255
220 235 255
220 235 255
220 235 255
220 235 255
220 235 255
220 235 255
220 235 255
220 235 255
220 235 255
220 235 255
220 235 255
220 235 255
220 235 255
220 235 255
220 235 255
220 235 255
220 235 255
220 235 255
220 235 255
220 235 255
220 235 255
220 235 255
220 235 255
220 235 255
220 235 255
220 235 255
220 235 255
220 235 255
220 235 255
220 235 255
220 235 255
220 235 255
220 235 255
220 235 255
220 235 255
220 235 255
220 235 255
220 235 255
220 235 255
220 235 255
220 235 255
220 235 255
220 235 255
220 235 255
220 235 255
220 235 255
220 235 255
220 235 255
220 235 255
220 235 255
220 235 255
220 235 255
220 235 255
220 235 255
220 235 255
220 235 255
220 235 255
220 235 255
220 235 255
220 235 255
220 235 255
220 235 255
220 235 255
220 235 255
220 235 255
220 235 255
220 235 255
220 235 255
220 235 255
220 235 255
220 235 255
220 235 255
220 235 255
220 235 255
220 235 255
220 235 255
220 235 255
220 235 255
220 235 255
220 235 255
220 235 255
220 235 255
220 235 255
220 235 255
220 235 255
220 235 255
220 235 255
220 235 255
220 235 255
220 235 255
220 235 255
220 235 255
220 235 255
220 235 255
220 235 255
220 235 255
220 235 255
220 235 255
166 177 195
0 0 45
0 0 45
0 0 45
0 0 45
0 0 44
0 0 44
0 0 45
0 0 45
0 0 45
0 0 45
0 0 43
0 0 48
0 0 53
0 0 49
0 0 44
0 0 45
0 0 45
0 0 44
0 0 46
0 0 48
0 0 46
0 0 45
0 0 45
0 0 45
0 0 45
0 0 45
0 0 45
0 0 42
0 0 42
0 0 43
0 0 45
0 0 45
0 0 45
0 0 45
0 0 44
0 0 44
0 0 45
0 0 45
0 0 45
0 0 45
0 0 43
0 0 42
0 0 42
0 0 42
0 0 42
0 0 42
0 0 42
0 0 42
0 0 44
0 0 44
0 0 44
0 0 44
0 0 44
0 0 43
0 0 44
0 0 45
0 0 45
0 0 45
0 0 45
0 0 45
0 0 45
0 0 45
0 0 45
0 0 45
0 0 45
0 0 45
0 0 45
0 0 42
0 0 42
0 0 43
0 0 45
0 0 45
0 0 45
0 0 45
0 0 45
0 0 45
0 0 45
0 0 45
0 0 45
0 0 45
0 0 45
0 0 45
0 0 45
0 0 43
0 0 42
0 0 42
0 0 42
0 0 44
0 0 45
0 0 45
0 0 45
0 0 45
0 0 45
0 0 45
0 0 47
0 0 48
0 0 48
0 0 49
0 0 53
0 0 58
0 0 59
0 0 56
0 0 51
0 0 49
0 0 48
0 0 46
0 0 45
0 0 47
0 0 49
0 0 51
0 0 52
0 0 48
0 0 45
0 0 45
0 0 45
0 0 45
0 0 45
0 0 45
0 0 43
0 0 47
0 0 46
0 0 47
0 0 51
0 0 47
21 37 43
32 54 37
62 95 25
36 53 50
5 8 52
0 0 64
0 0 57
18 36 42
47 71 18
48 67 16
52 105 45
64 90 36
48 73 13
49 78 13
44 68 8
26 51 0
36 62 5
48 69 12
45 60 15
53 71 19
50 71 13
48 72 15
43 71 6
42 73 6
54 77 14
47 70 0
49 77 0
45 77 0
43 75 0
48 81 11
49 79 15
50 68 6
72 80 27
79 82 29
88 88 36
77 86 30
78 84 28
78 83 36
47 55 12
55 73 16
36 59 2
22 51 0
26 53 0
31 54 0
26 57 21
15 73 94
2 24 67
0 0 47
0 0 52
0 0 49
0 0 49
0 0 60
0 1 69
0 1 56
0 0 44
0 0 43
0 0 43
0 0 43
0 0 43
0 0 45
0 0 42
0 0 41
0 0 41
0 0 42
0 0 42
0 0 42
0 0 42
0 0 42
0 0 42
0 0 42
0 0 42
0 0 42
0 0 42
0 0 42
0 0 42
0 0 42
0 0 42
0 0 42
0 0 42
0 0 42
0 0 42
0 0 42
0 0 42
0 0 42
0 0 40
0 0 42
0 0 44
0 0 44
152 164 178
220 235 255
220 235 255
220 235 255
220 235 255
220 235 255
220 235 255
220 235 255
220 235 255
220 235 255
220 235 255
220 235 255
220 235 255
220 235 255
220 235 255
220 235 255
220 235 255
220 235 255
220 235 255
220 235 255
220 235 255
220 235 255
220 235 255
220 235 255
220 235 255
220 235 255
220 235 255
220 235 255
220 235 255
220 235 255
220 235 255
220 235 255
220 235 255
220 235 255
220 235 255
220 235 255
220 235 255
220 235 255
220 235 255
220 235 255
220 235 255
220 235 255
220 235 255
220 235 255
220 235 255
220 235 255
220 235 255
220 235 255
220 235 255
220 235 255
220 235 255
220 235 255
220 235 255
220 235 255
220 235 255
220 235 255
220 235 255
220 235 255
220 235 255
220 235 255
220 235 255
220 235 255
220 235 255
220 235 255
220 235 255
220 235 255
220 235 255
220 235 255
220 235 255
220 235 255
220 235 255
220 235 255
220 235 255
220 235 255
220 235 255
220 235 255
220 235 255
220 235 255
220 235 255
220 235 255
220 235 255
220 235 255
220 235 255
220 235 255
220 235 255
220 235 255
220 235 255
220 235 255
220 235 255
220 235 255
220 235 255
220 235 255
220 235 255
220 235 255
220 235 255
220 235 255
220 235 255
220 235 255
220 235 255
220 235 255
220 235 255
220 235 255
220 235 255
220 235 255
220 235 255
220 235 255
220 235 255
220 235 255
220 235 255
220 235 255
220 235 255
220 235 255
220 235 255
220 235 255
220 235 255
220 235 255
220 235 255
220 235 255
220 235 255
220 235 255
220 235 255
220 235 255
220 235 255
220 235 255
220 235 255
220 235 255
220 235 255
220 235 255
220 235 255
220 235 255
220 235 255
220 235 255
220 235 255
220 235 255
220 235 255
220 235 255
220 235 255
220 235 255
220 235 255
220 235 255
220 235 255
220 235 255
220 235 255
220 235 255
220 235 255
220 235 255
220 235 255
220 235 255
220 235 255
220 235 255
220 235 255
220 235 255
220 235 255
220 235 255
220 235 255
220 235 255
220 235 255
220 235 255
220 235 255
220 235 255
220 235 255
220 235 255
220 235 255
220 235 255
220 235 255
220 235 255
220 235 255
220 235 255
220 235 255
220 235 255
220 235 255
220 235 255
220 235 255
220 235 255
220 235 255
220 235 255
220 235 255
220 235 255
220 235 255
220 235 255
220 235 255
220 235 255
220 235 255
220 235 255
220 235 255
220 235 255
220 235 255
134 143 159
0 0 45
0 0 45
0 0 45
0 0 45
0 0 43
0 0 44
0 0 45
0 0 45
0 0 45
0 0 45
0 0 43
0 0 50
0 0 53
0 0 49
0 0 45
0 0 44
0 0 45
0 0 45
0 0 47
0 0 47
0 0 45
0 0 45
0 0 45
0 0 45
0 0 45
0 0 44
0 0 42
0 0 42
0 0 42
0 0 44
0 0 44
0 0 44
0 0 44
0 0 44
0 0 45
0 0 45
0 0 45
0 0 45
0 0 45
0 0 45
0 0 45
0 0 45
0 0 44
0 0 42
0 0 42
0 0 42
0 0 42
0 0 42
0 0 42
0 0 42
0 0 42
0 0 42
0 0 42
0 0 45
0 0 45
0 0 45
0 0 45
0 0 45
0 0 45
0 0 45
0 0 45
0 0 45
0 0 45
0 0 45
0 0 45
0 0 45
0 0 45
0 0 44
0 0 42
0 0 43
0 0 45
0 0 45
0 0 45
0 0 45
0 0 45
0 0 45
0 0 45
0 0 45
0 0 45
0 0 45
0 0 45
0 0 45
0 0 45
0 0 45
0 0 44
0 0 44
0 0 44
0 0 44
0 0 42
0 0 43
0 0 45
0 0 45
0 0 45
0 0 45
0 0 45
0 0 45
0 0 48
0 0 49
0 0 50
0 0 51
0 0 51
0 0 47
0 0 46
0 0 47
0 0 47
0 0 45
0 0 43
0 0 45
0 0 45
0 0 48
0 0 48
0 0 46
0 0 45
0 0 45
0 0 45
0 0 45
0 0 45
0 0 45
0 0 42
0 0 45
0 0 47
0 0 46
0 0 46
0 0 46
0 3 49
10 17 53
29 47 43
13 25 50
3 5 47
0 0 52
0 0 54
4 6 55
36 57 36
62 88 44
64 96 42
63 90 38
39 62 11
38 59 3
36 57 0
24 48 0
32 59 3
39 62 5
44 57 11
68 82 34
55 73 19
45 71 7
40 72 0
39 72 0
45 72 0
43 66 0
44 66 0
49 69 0
54 69 10
55 71 11
51 72 14
47 66 9
51 70 15
57 71 20
56 66 13
49 71 13
56 67 11
80 86 40
47 51 17
63 78 26
50 66 13
31 57 0
26 55 0
28 49 0
28 48 0
32 74 56
16 75 104
0 0 50
0 0 44
0 0 42
0 0 51
0 0 56
0 9 72
0 9 70
0 8 57
0 0 49
0 0 46
0 0 45
0 0 45
0 0 45
0 0 43
0 0 42
0 0 42
0 0 42
0 0 42
0 0 42
0 0 42
0 0 42
0 0 42
0 0 42
0 0 42
0 0 42
0 0 42
0 0 42
0 0 42
0 0 42
0 0 42
0 0 42
0 0 42
0 0 42
0 0 42
0 0 42
0 0 41
0 0 42
0 0 41
0 0 44
0 0 45
0 0 42
130 141 153
220 235 255
220 235 255
220 235 255
220 235 255
220 235 255
220 235 255
220 235 255
220 235 255
220 235 255
220 235 255
220 235 255
220 235 255
220 235 255
220 235 255
220 235 255
220 235 255
220 235 255
220 235 255
220 235 255
220 235 255
220 235 255
220 235 255
220 235 255
220 235 255
220 235 255
220 235 255
220 235 255
220 235 255
220 235 255
220 235 255
220 235 255
220 235 255
220 235 255
220 235 255
220 235 255
220 235 255
220 235 255
220 235 255
220 235 255
220 235 255
220 235 255
220 235 255
220 235 255
220 235 255
220 235 255
220 235 255
220 235 255
220 235 255
220 235 255
220 235 255
220 235 255
220 235 255
220 235 255
220 235 255
220 235 255
220 235 255
220 235 255
220 235 255
220 235 255
220 235 255
220 235 255
220 235 255
220 235 255
220 235 255
220 235 255
220 235 255
220 235 255
220 235 255
220 235 255
220 235 255
220 235 255
220 235 255
220 235 255
220 235 255
220 235 255
220 235 255
220 235 255
220 235 255
220 235 255
220 235 255
220 235 255
220 235 255
220 235 255
220 235 255
220 235 255
220 235 255
220 235 255
220 235 255
220 235 255
220 235 255
220 235 255
220 235 255
220 235 255
220 235 255
220 235 255
220 235 255
220 235 255
220 235 255
220 235 255
220 235 255
220 235 255
220 235 255
220 235 255
220 235 255
220 235 255
220 235 255
220 235 255
220 235 255
220 235 255
220 235 255
220 235 255
220 235 255
220 235 255
220 235 255
220 235 255
220 235 255
220 235 255
220 235 255
220 235 255
220 235 255
220 235 255
220 235 255
220 235 255
220 235 255
220 235 255
220 235 255
220 235 255
220 235 255
220 235 255
220 235 255
220 235 255
220 235 255
220 235 255
220 235 255
220 235 255
220 235 255
220 235 255
220 235 255
220 235 255
220 235 255
220 235 255
220 235 255
220 235 255
220 235 255
220 235 255
220 235 255
220 235 255
220 235 255
220 235 255
220 235 255
220 235 255
220 235 255
220 235 255
220 235 255
220 235 255
220 235 255
220 235 255
220 235 255
220 235 255
220 235 255
220 235 255
220 235 255
220 235 255
220 235 255
220 235 255
220 235 255
220 235 255
220 235 255
220 235 255
220 235 255
220 235 255
220 235 255
220 235 255
220 235 255
220 235 255
220 235 255
220 235 255
220 235 255
220 235 255
220 235 255
220 235 255
220 235 255
220 235 255
220 235 255
220 235 255
220 235 255
98 105 121
0 0 45
0 0 45
0 0 45
0 0 45
0 0 44
0 0 44
0 0 45
0 0 45
0 0 45
0 0 45
0 0 44
0 0 49
0 0 51
0 0 47
0 0 45
0 0 45
0 0 45
0 0 45
0 0 45
0 0 45
0 0 45
0 0 45
0 0 45
0 0 45
0 0 45
0 0 43
0 0 42
0 0 42
0 0 42
0 0 42
0 0 42
0 0 42
0 0 42
0 0 42
0 0 43
0 0 44
0 0 43
0 0 43
0 0 45
0 0 45
0 0 45
0 0 45
0 0 45
0 0 44
0 0 44
0 0 44
0 0 44
0 0 43
0 0 42
0 0 42
0 0 42
0 0 42
0 0 42
0 0 45
0 0 45
0 0 45
0 0 45
0 0 45
0 0 45
0 0 45
0 0 45
0 0 45
0 0 45
0 0 45
0 0 45
0 0 45
0 0 45
0 0 45
0 0 45
0 0 45
0 0 45
0 0 45
0 0 45
0 0 45
0 0 45
0 0 45
0 0 45
0 0 45
0 0 45
0 0 45
0 0 45
0 0 45
0 0 45
0 0 45
0 0 45
0 0 45
0 0 42
0 0 42
0 0 42
0 0 42
0 0 43
0 0 45
0 0 45
0 0 45
0 0 45
0 0 45
0 0 47
0 0 48
0 0 48
0 0 46
0 0 44
0 0 45
0 0 45
0 0 44
0 0 44
0 0 45
0 0 42
0 0 44
0 0 45
0 0 46
0 0 46
0 0 45
0 0 45
0 0 45
0 0 45
0 0 45
0 0 45
0 0 45
0 0 45
0 0 47
0 0 51
0 0 51
0 0 47
0 0 47
0 0 51
0 0 56
0 0 55
0 0 61
0 0 57
0 0 52
0 0 52
0 0 52
16 22 53
47 71 51
64 86 46
55 85 32
36 57 0
42 60 6
37 56 0
33 57 0
34 60 0
38 59 0
54 66 19
71 76 35
75 88 41
54 77 18
40 69 0
43 67 0
47 67 0
47 65 3
55 69 9
65 73 19
73 77 27
81 80 33
66 72 24
43 57 5
45 68 13
33 58 2
31 55 0
38 65 0
46 66 0
64 77 27
45 56 14
42 64 15
41 60 8
31 53 0
27 53 0
29 52 0
27 53 0
30 55 16
28 87 88
6 55 99
0 9 53
0 0 44
0 0 48
0 0 59
0 8 68
0 16 79
0 10 68
0 2 57
0 0 49
0 0 44
0 0 44
0 0 45
0 0 45
0 0 42
0 0 42
0 0 42
0 0 42
0 0 42
0 0 42
0 0 42
0 0 42
0 0 42
0 0 42
0 0 42
0 0 42
0 0 42
0 0 42
0 0 42
0 0 42
0 0 42
0 0 42
0 0 42
0 0 42
0 0 42
0 0 42
0 0 42
0 0 42
0 0 44
0 0 44
0 0 42
102 111 123
220 235 255
220 235 255
220 235 255
220 235 255
220 235 255
220 235 255
220 235 255
220 235 255
220 235 255
220 235 255
220 235 255
220 235 255
220 235 255
220 235 255
220 235 255
220 235 255
220 235 255
220 235 255
220 235 255
220 235 255
220 235 255
220 235 255
220 235 255
220 235 255
220 235 255
220 235 255
220 235 255
220 235 255
220 235 255
220 235 255
220 235 255
220 235 255
220 235 255
220 235 255
220 235 255
220 235 255
220 235 255
220 235 255
220 235 255
220 235 255
220 235 255
220 235 255
220 235 255
220 235 255
220 235 255
220 235 255
220 235 255
220 235 255
220 235 255
220 235 255
220 235 255
220 235 255
220 235 255
220 235 255
220 235 255
220 235 255
220 235 255
220 235 255
220 235 255
220 235 255
220 235 255
220 235 255
220 235 255
220 235 255
220 235 255
220 235 255
220 235 255
220 235 255
220 235 255
220 235 255
220 235 255
220 235 255
220 235 255
220 235 255
220 235 255
220 235 255
220 235 255
220 235 255
220 235 255
220 235 255
220 235 255
220 235 255
220 235 255
220 235 255
220 235 255
220 235 255
220 235 255
220 235 255
220 235 255
220 235 255
220 235 255
220 235 255
220 235 255
220 235 255
220 235 255
220 235 255
220 235 255
220 235 255
220 235 255
220 235 255
220 235 255
220 235 255
220 235 255
220 235 255
220 235 255
220 235 255
220 235 255
220 235 255
220 235 255
220 235 255
220 235 255
220 235 255
220 235 255
220 235 255
220 235 255
220 235 255
220 235 255
220 235 255
220 235 255
220 235 255
220 235 255
220 235 255
220 235 255
220 235 255
220 235 255
220 235 255
220 235 255
220 235 255
220 235 255
220 235 255
220 235 255
220 235 255
220 235 255
220 235 255
220 235 255
220 235 255
220 235 255
220 235 255
220 235 255
220 235 255
220 235 255
220 235 255
220 235 255
220 235 255
220 235 255
220 235 255
220 235 255
220 235 255
220 235 255
220 235 255
220 235 255
220 235 255
220 235 255
220 235 255
220 235 255
220 235 255
220 235 255
220 235 255
220 235 255
220 235 255
220 235 255
220 235 255
220 235 255
220 235 255
220 235 255
220 235 255
220 235 255
220 235 255
220 235 255
220 235 255
220 235 255
220 235 255
220 235 255
220 235 255
220 235 255
220 235 255
220 235 255
220 235 255
220 235 255
220 235 255
220 235 255
220 235 255
220 235 255
220 235 255
220 235 255
220 235 255
38 40 62
0 0 45
0 0 45
0 0 45
0 0 45
0 0 45
0 0 45
0 0 45
0 0 45
0 0 45
0 0 44
0 0 45
0 0 46
0 0 47
0 0 46
0 0 47
0 0 45
0 0 45
0 0 45
0 0 45
0 0 45
0 0 45
0 0 45
0 0 45
0 0 45
0 0 45
0 0 45
0 0 44
0 0 42
0 0 42
0 0 42
0 0 42
0 0 42
0 0 42
0 0 42
0 0 42
0 0 42
0 0 42
0 0 42
0 0 45
0 0 45
0 0 45
0 0 45
0 0 45
0 0 45
0 0 45
0 0 45
0 0 45
0 0 44
0 0 42
0 0 43
0 0 43
0 0 43
0 0 43
0 0 44
0 0 45
0 0 45
0 0 45
0 0 45
0 0 45
0 0 45
0 0 45
0 0 45
0 0 45
0 0 45
0 0 45
0 0 45
0 0 45
0 0 45
0 0 45
0 0 45
0 0 45
0 0 45
0 0 45
0 0 45
0 0 45
0 0 45
0 0 45
0 0 45
0 0 45
0 0 45
0 0 45
0 0 44
0 0 45
0 0 45
0 0 45
0 0 44
0 0 42
0 0 41
0 0 40
0 0 42
0 0 42
0 0 44
0 0 45
0 0 44
0 0 43
0 0 45
0 0 45
0 0 47
0 0 47
0 0 45
0 0 43
0 0 43
0 0 45
0 0 44
0 0 42
0 0 44
0 0 42
0 0 45
0 0 45
0 0 45
0 0 47
0 0 46
0 0 45
0 0 45
0 0 45
0 0 45
0 0 45
0 0 45
0 0 47
0 0 44
0 0 49
0 0 50
0 0 43
0 0 44
0 0 53
0 0 53
0 0 53
0 0 53
0 0 50
0 0 45
0 0 47
0 0 46
0 0 51
45 63 54
71 91 47
61 94 44
48 62 15
43 60 9
35 55 3
38 64 0
37 65 0
36 57 0
45 55 9
70 75 34
77 86 41
57 78 19
43 67 3
48 62 7
49 57 5
56 65 14
66 76 22
72 82 30
75 84 33
69 78 28
57 71 23
36 54 3
38 59 0
33 52 0
40 57 0
43 68 7
44 66 0
39 58 0
32 53 0
20 46 1
20 51 0
26 51 0
30 49 0
32 52 0
29 50 2
34 52 4
38 58 22
35 89 77
13 76 117
0 18 65
0 15 66
0 29 91
0 33 98
0 33 90
0 27 81
0 7 67
0 0 56
0 0 48
0 0 46
0 0 45
0 0 45
0 0 44
0 0 43
0 0 42
0 0 42
0 0 42
0 0 42
0 0 42
0 0 42
0 0 42
0 0 42
0 0 42
0 0 42
0 0 42
0 0 42
0 0 42
0 0 42
0 0 42
0 0 42
0 0 42
0 0 42
0 0 42
0 0 42
0 0 42
0 0 42
0 0 44
0 0 44
0 0 42
61 68 77
220 235 255
220 235 255
220 235 255
220 235 255
220 235 255
220 235 255
220 235 255
220 235 255
220 235 255
220 235 255
220 235 255
220 235 255
220 235 255
220 235 255
220 235 255
220 235 255
220 235 255
220 235 255
220 235 255
220 235 255
220 235 255
220 235 255
220 235 255
220 235 255
220 235 255
220 235 255
220 235 255
220 235 255
220 235 255
220 235 255
220 235 255
220 235 255
220 235 255
220 235 255
220 235 255
220 235 255
220 235 255
220 235 255
220 235 255
220 235 255
220 235 255
220 235 255
220 235 255
220 235 255
220 235 255
220 235 255
220 235 255
220 235 255
220 235 255
220 235 255
220 235 255
220 235 255
220 235 255
220 235 255
220 235 255
220 235 255
220 235 255
220 235 255
220 235 255
220 235 255
220 235 255
220 235 255
220 235 255
220 235 255
220 235 255
220 235 255
220 235 255
220 235 255
220 235 255
220 235 255
220 235 255
220 235 255
220 235 255
220 235 255
220 235 255
220 235 255
220 235 255
220 235 255
220 235 255
220 235 255
220 235 255
220 235 255
220 235 255
220 235 255
220 235 255
220 235 255
220 235 255
220 235 255
220 235 255
220 235 255
220 235 255
220 235 255
220 235 255
220 235 255
220 235 255
220 235 255
220 235 255
220 235 255
220 235 255
220 235 255
220 235 255
220 235 255
220 235 255
220 235 255
220 235 255
220 235 255
220 235 255
220 235 255
220 235 255
220 235 255
220 235 255
220 235 255
220 235 255
220 235 255
220 235 255
220 235 255
220 235 255
220 235 255
220 235 255
220 235 255
220 235 255
220 235 255
220 235 255
220 235 255
220 235 255
220 235 255
220 235 255
220 235 255
220 235 255
220 235 255
220 235 255
220 235 255
220 235 255
220 235 255
220 235 255
220 235 255
220 235 255
220 235 255
220 235 255
220 235 255
220 235 255
220 235 255
220 235 255
220 235 255
220 235 255
220 235 255
220 235 255
220 235 255
220 235 255
220 235 255
220 235 255
220 235 255
220 235 255
220 235 255
220 235 255
220 235 255
220 235 255
220 235 255
220 235 255
220 235 255
220 235 255
220 235 255
220 235 255
220 235 255
220 235 255
220 235 255
220 235 255
220 235 255
220 235 255
220 235 255
220 235 255
220 235 255
220 235 255
220 235 255
220 235 255
220 235 255
220 235 255
220 235 255
220 235 255
220 235 255
220 235 255
220 235 255
220 235 255
220 235 255
220 235 255
216 230 250
0 0 44
0 0 45
0 0 45
0 0 45
0 0 45
0 0 45
0 0 45
0 0 45
0 0 45
0 0 45
0 0 45
0 0 45
0 0 45
0 0 45
0 0 47
0 0 47
0 0 45
0 0 45
0 0 45
0 0 45
0 0 45
0 0 45
0 0 45
0 0 45
0 0 45
0 0 45
0 0 45
0 0 45
0 0 42
0 0 42
0 0 44
0 0 45
0 0 45
0 0 45
0 0 43
0 0 42
0 0 42
0 0 42
0 0 41
0 0 44
0 0 45
0 0 45
0 0 45
0 0 45
0 0 45
0 0 45
0 0 45
0 0 45
0 0 45
0 0 45
0 0 45
0 0 45
0 0 45
0 0 45
0 0 42
0 0 43
0 0 44
0 0 45
0 0 45
0 0 45
0 0 45
0 0 45
0 0 45
0 0 45
0 0 45
0 0 45
0 0 45
0 0 45
0 0 45
0 0 45
0 0 45
0 0 45
0 0 45
0 0 45
0 0 45
0 0 45
0 0 45
0 0 45
0 0 45
0 0 45
0 0 45
0 0 45
0 0 43
0 0 43
0 0 45
0 0 45
0 0 42
0 0 42
0 0 40
0 0 39
0 0 42
0 0 42
0 0 44
0 0 45
0 0 44
0 0 42
0 0 45
0 0 45
0 0 45
0 0 45
0 0 43
0 0 44
0 0 42
0 0 45
0 0 45
0 0 43
0 0 42
0 0 43
0 0 45
0 0 43
0 0 43
0 0 46
0 0 45
0 0 45
0 0 45
0 0 45
0 0 45
0 0 45
0 0 45
0 0 48
0 0 44
0 0 50
0 0 52
0 0 42
0 0 50
0 0 54
0 0 51
0 0 53
0 0 50
0 0 55
0 0 40
0 0 50
0 0 48
0 0 57
26 41 49
56 86 38
61 103 66
62 75 34
40 56 0
37 56 5
43 68 10
34 61 0
45 64 13
53 67 21
73 84 38
62 73 25
57 80 18
48 73 11
49 59 10
55 70 22
56 71 19
60 75 23
64 76 25
68 77 25
65 74 25
38 59 12
28 49 0
36 58 0
31 51 0
39 58 0
48 69 13
40 62 0
35 55 0
34 53 0
24 45 0
27 44 0
37 52 0
32 50 0
28 51 0
27 49 5
34 53 7
30 59 12
44 66 11
31 95 76
18 56 86
13 58 81
18 76 105
13 77 104
13 70 111
3 49 106
0 29 86
0 4 61
0 0 53
0 0 47
0 0 45
0 0 45
0 0 45
0 0 45
0 0 42
0 0 42
0 0 42
0 0 42
0 0 42
0 0 42
0 0 42
0 0 42
0 0 42
0 0 42
0 0 42
0 0 42
0 0 42
0 0 42
0 0 42
0 0 42
0 0 42
0 0 42
0 0 42
0 0 42
0 0 44
0 0 42
0 0 43
0 0 45
0 0 43
7 10 43
213 227 247
220 235 255
220 235 255
220 235 255
220 235 255
220 235 255
220 235 255
220 235 255
220 235 255
220 235 255
220 235 255
220 235 255
220 235 255
220 235 255
220 235 255
220 235 255
220 235 255
220 235 255
220 235 255
220 235 255
220 235 255
220 235 255
220 235 255
220 235 255
220 235 255
220 235 255
220 235 255
220 235 255
220 235 255
220 235 255
220 235 255
220 235 255
220 235 255
220 235 255
220 235 255
220 235 255
220 235 255
220 235 255
220 235 255
220 235 255
220 235 255
220 235 255
220 235 255
220 235 255
220 235 255
220 235 255
220 235 255
220 235 255
220 235 255
220 235 255
220 235 255
220 235 255
220 235 255
220 235 255
220 235 255
220 235 255
220 235 255
220 235 255
220 235 255
220 235 255
220 235 255
220 235 255
220 235 255
220 235 255
220 235 255
220 235 255
220 235 255
220 235 255
220 235 255
220 235 255
220 235 255
220 235 255
220 235 255
220 235 255
220 235 255
220 235 255
220 235 255
220 235 255
220 235 255
220 235 255
220 235 255
220 235 255
220 235 255
220 235 255
220 235 255
220 235 255
220 235 255
220 235 255
220 235 255
220 235 255
220 235 255
220 235 255
220 235 255
221 235 255
221 235 255
221 235 255
221 235 255
221 235 255
221 235 255
221 235 255
221 235 255
221 235 255
221 235 255
221 235 255
221 235 255
221 235 255
221 235 255
221 235 255
221 235 255
221 235 255
221 235 255
221 235 255
221 235 255
221 235 255
221 235 255
221 235 255
221 235 255
221 235 255
221 235 255
221 235 255
221 235 255
221 235 255
221 235 255
221 235 255
221 235 255
221 235 255
221 235 255
221 235 255
221 235 255
221 235 255
221 235 255
221 235 255
221 235 255
221 235 255
221 235 255
221 235 255
221 235 255
221 235 255
221 235 255
221 235 255
221 235 255
221 235 255
221 235 255
221 235 255
221 235 255
221 235 255
221 235 255
221 235 255
221 235 255
221 235 255
221 235 255
221 235 255
221 235 255
221 235 255
221 235 255
221 235 255
221 235 255
221 235 255
221 235 255
221 235 255
221 235 255
221 235 255
221 235 255
221 235 255
221 235 255
221 235 255
221 235 255
221 235 255
221 235 255
221 235 255
221 235 255
221 235 255
221 235 255
221 235 255
221 235 255
221 235 255
221 235 255
221 235 255
221 235 255
221 235 255
221 235 255
221 235 255
221 235 255
221 235 255
221 235 255
200 213 232
0 0 45
0 0 46
0 0 47
0 0 45
0 0 45
0 0 45
0 0 45
0 0 45
0 0 45
0 0 45
0 0 45
0 0 45
0 0 44
0 0 44
0 0 46
0 0 46
0 0 43
0 0 44
0 0 45
0 0 45
0 0 45
0 0 45
0 0 45
0 0 45
0 0 45
0 0 45
0 0 45
0 0 45
0 0 43
0 0 43
0 0 44
0 0 45
0 0 45
0 0 45
0 0 43
0 0 43
0 0 42
0 0 42
0 0 42
0 0 44
0 0 45
0 0 45
0 0 45
0 0 45
0 0 45
0 0 45
0 0 45
0 0 45
0 0 45
0 0 45
0 0 45
0 0 43
0 0 43
0 0 43
0 0 44
0 0 44
0 0 45
0 0 45
0 0 45
0 0 45
0 0 45
0 0 45
0 0 45
0 0 45
0 0 45
0 0 45
0 0 45
0 0 45
0 0 45
0 0 45
0 0 45
0 0 45
0 0 45
0 0 45
0 0 45
0 0 45
0 0 45
0 0 45
0 0 45
0 0 45
0 0 45
0 0 45
0 0 43
0 0 42
0 0 42
0 0 42
0 0 42
0 0 42
0 0 42
0 0 42
0 0 42
0 0 44
0 0 45
0 0 45
0 0 45
0 0 45
0 0 45
0 0 45
0 0 45
0 0 45
0 0 44
0 0 43
0 0 44
0 0 45
0 0 45
0 0 45
0 0 44
0 0 45
0 0 45
0 0 45
0 0 45
0 0 45
0 0 45
0 0 45
0 0 45
0 0 45
0 0 45
0 0 45
0 0 42
0 0 44
0 0 44
0 0 46
0 0 48
0 0 47
0 0 52
0 0 52
0 0 53
0 0 52
0 0 50
0 0 51
0 0 50
0 0 49
0 0 54
3 8 52
43 64 65
66 97 39
61 98 46
50 77 21
44 63 5
40 56 5
43 64 4
41 65 15
67 81 39
74 83 35
66 81 29
55 76 20
55 77 16
51 72 14
54 69 11
61 75 25
63 75 25
64 74 22
72 79 27
68 73 25
56 62 17
27 48 0
27 50 0
29 52 0
28 52 0
34 56 0
39 60 6
39 61 0
36 57 0
33 52 0
32 47 0
38 46 0
45 56 0
31 49 0
29 53 0
29 52 0
33 53 0
32 54 7
38 56 0
30 55 0
27 56 12
25 58 24
28 53 17
24 50 0
27 63 42
23 63 72
14 63 94
0 31 88
0 6 61
0 0 57
0 0 48
0 0 44
0 0 45
0 0 47
0 0 42
0 0 42
0 0 42
0 0 42
0 0 42
0 0 42
0 0 42
0 0 42
0 0 42
0 0 42
0 0 42
0 0 42
0 0 42
0 0 42
0 0 42
0 0 42
0 0 42
0 0 42
0 0 42
0 0 42
0 0 44
0 0 42
0 0 43
0 0 45
0 0 44
0 0 41
206 220 239
221 235 255
221 235 255
221 235 255
221 235 255
221 235 255
221 235 255
221 235 255
221 235 255
221 235 255
221 235 255
221 235 255
221 235 255
221 235 255
221 235 255
221 235 255
221 235 255
221 235 255
221 235 255
221 235 255
221 235 255
221 235 255
221 235 255
221 235 255
221 235 255
221 235 255
221 235 255
221 235 255
221 235 255
221 235 255
221 235 255
221 235 255
221 235 255
221 235 255
221 235 255
221 235 255
221 235 255
221 235 255
221 235 255
221 235 255
221 235 255
221 235 255
221 235 255
221 235 255
221 235 255
221 235 255
221 235 255
221 235 255
221 235 255
221 235 255
221 235 255
221 235 255
221 235 255
221 235 255
221 235 255
221 235 255
221 235 255
221 235 255
221 235 255
221 235 255
221 235 255
221 235 255
221 235 255
221 235 255
221 235 255
221 235 255
221 235 255
221 235 255
221 235 255
221 235 255
221 235 255
221 235 255
221 235 255
221 235 255
221 235 255
221 235 255
221 235 255
221 235 255
221 235 255
221 235 255
221 235 255
221 235 255
221 235 255
221 235 255
221 235 255
221 235 255
221 235 255
221 235 255
221 235 255
221 235 255
221 235 255
221 235 255
221 235 255
221 235 255
221 235 255
221 235 255
221 235 255
221 235 255
221 235 255
221 235 255
221 235 255
221 235 255
221 235 255
221 235 255
221 235 255
221 235 255
221 235 255
221 235 255
221 235 255
221 235 255
221 235 255
221 235 255
221 235 255
221 235 255
221 235 255
221 235 255
221 235 255
221 235 255
221 235 255
221 235 255
221 235 255
221 235 255
221 235 255
221 235 255
221 235 255
221 235 255
221 235 255
221 235 255
221 235 255
221 235 255
221 235 255
221 235 255
221 235 255
221 235 255
221 235 255
221 235 255
221 235 255
221 235 255
221 235 255
221 235 255
221 235 255
221 235 255
221 235 255
221 235 255
221 235 255
221 235 255
221 235 255
221 235 255
221 235 255
221 235 255
221 235 255
221 235 255
221 235 255
221 235 255
221 235 255
221 235 255
221 235 255
221 235 255
221 235 255
221 235 255
221 235 255
221 235 255
221 235 255
221 235 255
221 235 255
221 235 255
221 235 255
221 235 255
221 235 255
221 235 255
221 235 255
221 235 255
221 235 255
221 235 255
221 235 255
221 235 255
221 235 255
221 235 255
221 235 255
221 235 255
221 235 255
221 235 255
221 235 255
221 235 255
221 235 255
190 202 221
0 0 45
0 0 46
0 0 47
0 0 45
0 0 45
0 0 45
0 0 45
0 0 45
0 0 45
0 0 45
0 0 45
0 0 45
0 0 45
0 0 45
0 0 45
0 0 45
0 0 45
0 0 45
0 0 45
0 0 45
0 0 45
0 0 45
0 0 45
0 0 45
0 0 45
0 0 45
0 0 45
0 0 45
0 0 45
0 0 44
0 0 45
0 0 45
0 0 45
0 0 45
0 0 45
0 0 44
0 0 42
0 0 42
0 0 43
0 0 45
0 0 45
0 0 45
0 0 45
0 0 45
0 0 45
0 0 45
0 0 45
0 0 45
0 0 45
0 0 45
0 0 45
0 0 42
0 0 42
0 0 43
0 0 45
0 0 45
0 0 45
0 0 45
0 0 45
0 0 45
0 0 45
0 0 45
0 0 45
0 0 45
0 0 45
0 0 45
0 0 45
0 0 45
0 0 45
0 0 45
0 0 45
0 0 45
0 0 45
0 0 45
0 0 45
0 0 45
0 0 45
0 0 45
0 0 45
0 0 45
0 0 45
0 0 45
0 0 44
0 0 42
0 0 42
0 0 42
0 0 42
0 0 42
0 0 42
0 0 42
0 0 43
0 0 44
0 0 45
0 0 45
0 0 45
0 0 45
0 0 45
0 0 45
0 0 45
0 0 45
0 0 45
0 0 45
0 0 45
0 0 45
0 0 45
0 0 45
0 0 44
0 0 45
0 0 45
0 0 45
0 0 45
0 0 45
0 0 45
0 0 45
0 0 45
0 0 45
0 0 45
0 0 45
0 0 45
0 0 45
0 0 43
0 0 43
0 0 46
0 0 45
0 0 48
0 0 50
0 0 52
0 0 50
0 0 50
0 0 50
0 0 50
0 0 50
0 0 57
0 8 56
37 60 78
69 100 48
58 87 34
47 73 14
50 68 16
50 68 18
47 66 5
60 78 30
75 89 43
61 76 22
54 76 18
54 75 19
54 73 12
61 77 18
65 77 22
68 79 29
69 79 31
71 82 30
71 83 32
58 71 20
42 56 5
32 52 0
29 50 0
22 45 0
24 45 0
34 55 0
39 60 0
33 53 0
32 51 0
30 50 0
28 45 0
37 48 0
54 61 12
59 62 14
46 52 10
42 57 11
33 54 0
37 57 0
33 54 0
24 49 0
23 46 0
25 47 0
24 43 0
22 41 0
26 47 0
28 52 9
28 59 39
16 90 110
0 32 92
0 3 60
0 0 53
0 0 44
0 0 43
0 0 45
0 0 43
0 0 42
0 0 42
0 0 42
0 0 42
0 0 42
0 0 42
0 0 42
0 0 42
0 0 42
0 0 42
0 0 42
0 0 42
0 0 40
0 0 42
0 0 42
0 0 42
0 0 42
0 0 42
0 0 42
0 0 44
0 0 44
0 0 44
0 0 45
0 0 44
0 0 43
168 179 196
221 235 255
221 235 255
221 235 255
221 235 255
221 235 255
221 235 255
221 235 255
221 235 255
221 235 255
221 235 255
221 235 255
221 235 255
221 235 255
221 235 255
221 235 255
221 235 255
221 235 255
221 235 255
221 235 255
221 235 255
221 235 255
221 235 255
221 235 255
221 235 255
221 235 255
221 235 255
221 235 255
221 235 255
221 235 255
221 235 255
221 235 255
221 235 255
221 235 255
221 235 255
221 235 255
221 235 255
221 235 255
221 235 255
221 235 255
221 235 255
221 235 255
221 235 255
221 235 255
221 235 255
221 235 255
221 235 255
221 235 255
221 235 255
221 235 255
221 235 255
221 235 255
221 235 255
221 235 255
221 235 255
221 235 255
221 235 255
221 235 255
221 235 255
221 235 255
221 235 255
221 235 255
221 235 255
221 235 255
221 235 255
221 235 255
221 235 255
221 235 255
221 235 255
221 235 255
221 235 255
221 235 255
221 235 255
221 235 255
221 235 255
221 235 255
221 235 255
221 235 255
221 235 255
221 235 255
221 235 255
221 235 255
221 235 255
221 235 255
221 235 255
221 235 255
221 235 255
221 235 255
221 235 255
221 235 255
221 235 255
221 235 255
221 235 255
221 235 255
221 235 255
221 235 255
221 235 255
221 235 255
221 235 255
221 235 255
221 235 255
221 235 255
221 235 255
221 235 255
221 235 255
221 235 255
221 235 255
221 235 255
221 235 255
221 235 255
221 235 255
221 235 255
221 235 255
221 235 255
221 235 255
221 235 255
221 235 255
221 235 255
221 235 255
221 235 255
221 235 255
221 235 255
221 235 255
221 235 255
221 235 255
221 235 255
221 235 255
221 235 255
221 235 255
221 235 255
221 235 255
221 235 255
221 235 255
221 235 255
221 235 255
221 235 255
221 235 255
221 235 255
221 235 255
221 235 255
221 235 255
221 235 255
221 235 255
221 235 255
221 235 255
221 235 255
221 235 255
221 235 255
221 235 255
221 235 255
221 235 255
221 235 255
221 235 255
221 235 255
221 235 255
221 235 255
221 235 255
221 235 255
221 235 255
221 235 255
221 235 255
221 235 255
221 235 255
221 235 255
221 235 255
221 235 255
221 235 255
221 235 255
221 235 255
221 235 255
221 235 255
221 235 255
221 235 255
221 235 255
221 235 255
221 235 255
221 235 255
221 235 255
221 235 255
221 235 255
221 235 255
221 235 255
221 235 255
221 235 255
221 235 255
175 187 205
0 0 45
0 0 46
0 0 46
0 0 45
0 0 45
0 0 45
0 0 45
0 0 45
0 0 45
0 0 45
0 0 45
0 0 45
0 0 45
0 0 45
0 0 45
0 0 45
0 0 45
0 0 45
0 0 45
0 0 45
0 0 45
0 0 45
0 0 45
0 0 45
0 0 45
0 0 45
0 0 45
0 0 45
0 0 45
0 0 45
0 0 45
0 0 45
0 0 45
0 0 45
0 0 45
0 0 44
0 0 42
0 0 42
0 0 43
0 0 45
0 0 45
0 0 45
0 0 45
0 0 45
0 0 45
0 0 45
0 0 45
0 0 45
0 0 45
0 0 45
0 0 45
0 0 42
0 0 42
0 0 43
0 0 45
0 0 45
0 0 45
0 0 45
0 0 45
0 0 45
0 0 45
0 0 45
0 0 45
0 0 45
0 0 45
0 0 45
0 0 45
0 0 45
0 0 45
0 0 45
0 0 45
0 0 45
0 0 45
0 0 45
0 0 45
0 0 45
0 0 45
0 0 45
0 0 45
0 0 45
0 0 45
0 0 45
0 0 45
0 0 43
0 0 42
0 0 42
0 0 42
0 0 44
0 0 43
0 0 42
0 0 44
0 0 45
0 0 45
0 0 45
0 0 45
0 0 45
0 0 45
0 0 45
0 0 45
0 0 45
0 0 45
0 0 45
0 0 45
0 0 45
0 0 45
0 0 45
0 0 45
0 0 45
0 0 45
0 0 45
0 0 45
0 0 45
0 0 45
0 0 43
0 0 43
0 0 45
0 0 45
0 0 45
0 0 43
0 0 44
0 0 44
0 0 44
0 0 45
0 0 45
0 0 46
0 0 48
0 0 49
0 0 49
0 0 48
0 0 48
0 0 48
0 0 51
0 0 51
1 7 54
34 68 77
61 94 35
62 83 37
50 73 16
58 75 23
53 73 20
54 69 16
72 81 32
72 87 36
55 77 18
52 75 14
58 74 14
58 71 11
66 79 20
69 82 25
68 80 29
63 75 27
61 74 23
55 70 20
42 61 7
33 53 0
31 50 0
28 48 0
25 44 0
31 51 0
34 53 0
38 55 0
32 51 0
31 51 0
26 47 0
24 43 0
29 48 0
46 56 9
70 72 22
79 80 31
51 64 16
38 62 0
35 57 0
28 51 0
27 49 0
24 46 0
25 47 0
26 45 0
17 36 0
26 49 0
28 51 0
27 50 5
31 69 37
15 106 129
0 40 95
0 0 59
0 0 46
0 0 43
0 0 42
0 0 45
0 0 44
0 0 42
0 0 42
0 0 42
0 0 42
0 0 42
0 0 42
0 0 42
0 0 42
0 0 42
0 0 42
0 0 42
0 0 42
0 0 42
0 0 42
0 0 42
0 0 42
0 0 42
0 0 42
0 0 44
0 0 45
0 0 45
0 0 45
0 0 45
0 0 43
163 174 191
221 235 255
221 235 255
221 235 255
221 235 255
221 235 255
221 235 255
221 235 255
221 235 255
221 235 255
221 235 255
221 235 255
221 235 255
221 235 255
221 235 255
221 235 255
221 235 255
221 235 255
221 235 255
221 235 255
221 235 255
221 235 255
221 235 255
221 235 255
221 235 255
221 235 255
221 235 255
221 235 255
221 235 255
221 235 255
221 235 255
221 235 255
221 235 255
221 235 255
221 235 255
221 235 255
221 235 255
221 235 255
221 235 255
221 235 255
221 235 255
221 235 255
221 235 255
221 235 255
221 235 255
221 235 255
221 235 255
221 235 255
221 235 255
221 235 255
221 235 255
221 235 255
221 235 255
221 235 255
221 235 255
221 235 255
221 235 255
221 235 255
221 235 255
221 235 255
221 235 255
221 235 255
221 235 255
221 235 255
221 235 255
221 235 255
221 235 255
221 235 255
221 235 255
221 235 255
221 235 255
221 235 255
221 235 255
221 235 255
221 235 255
221 235 255
221 235 255
221 235 255
221 235 255
221 235 255
221 235 255
221 235 255
221 235 255
221 235 255
221 235 255
221 235 255
221 235 255
221 235 255
221 235 255
221 235 255
221 235 255
221 235 255
221 235 255
221 235 255
221 235 255
221 235 255
221 235 255
221 235 255
221 235 255
221 235 255
221 235 255
221 235 255
221 235 255
221 235 255
221 235 255
221 235 255
221 235 255
221 235 255
221 235 255
221 235 255
221 235 255
221 235 255
221 235 255
221 235 255
221 235 255
221 235 255
221 235 255
221 235 255
221 235 255
221 235 255
221 235 255
221 235 255
221 235 255
221 235 255
221 235 255
221 235 255
221 235 255
221 235 255
221 235 255
221 235 255
221 235 255
221 235 255
221 235 255
221 235 255
221 235 255
221 235 255
221 235 255
221 235 255
221 235 255
221 235 255
221 235 255
221 235 255
221 235 255
221 235 255
221 235 255
221 235 255
221 235 255
221 235 255
221 235 255
221 235 255
221 235 255
221 235 255
221 235 255
221 235 255
221 235 255
221 235 255
221 235 255
221 235 255
221 235 255
221 235 255
221 235 255
221 235 255
221 235 255
221 235 255
221 235 255
221 235 255
221 235 255
221 235 255
221 235 255
221 235 255
221 235 255
221 235 255
221 235 255
221 235 255
221 235 255
221 235 255
221 235 255
221 235 255
221 235 255
221 235 255
221 235 255
221 235 255
221 235 255
221 235 255
221 235 255
156 166 183
0 0 45
0 0 45
0 0 45
0 0 45
0 0 45
0 0 44
0 0 45
0 0 45
0 0 45
0 0 45
0 0 45
0 0 45
0 0 45
0 0 45
0 0 45
0 0 45
0 0 45
0 0 45
0 0 45
0 0 45
0 0 45
0 0 45
0 0 45
0 0 45
0 0 45
0 0 45
0 0 45
0 0 45
0 0 45
0 0 45
0 0 45
0 0 45
0 0 45
0 0 45
0 0 45
0 0 44
0 0 42
0 0 42
0 0 42
0 0 43
0 0 43
0 0 43
0 0 43
0 0 44
0 0 45
0 0 45
0 0 45
0 0 45
0 0 45
0 0 45
0 0 45
0 0 42
0 0 42
0 0 43
0 0 45
0 0 45
0 0 45
0 0 45
0 0 45
0 0 45
0 0 45
0 0 45
0 0 45
0 0 45
0 0 45
0 0 45
0 0 45
0 0 45
0 0 45
0 0 45
0 0 45
0 0 45
0 0 45
0 0 45
0 0 45
0 0 45
0 0 45
0 0 45
0 0 45
0 0 45
0 0 45
0 0 45
0 0 45
0 0 44
0 0 42
0 0 42
0 0 42
0 0 45
0 0 45
0 0 44
0 0 45
0 0 45
0 0 45
0 0 45
0 0 45
0 0 45
0 0 45
0 0 45
0 0 45
0 0 45
0 0 45
0 0 45
0 0 45
0 0 45
0 0 46
0 0 45
0 0 45
0 0 45
0 0 45
0 0 45
0 0 45
0 0 45
0 0 45
0 0 43
0 0 42
0 0 44
0 0 45
0 0 45
0 0 45
0 0 46
0 0 47
0 0 48
0 0 47
0 0 46
0 0 45
0 0 46
0 0 47
0 0 46
0 0 46
0 0 47
0 0 48
0 0 49
0 0 48
0 0 61
29 65 80
54 86 38
65 83 32
55 74 20
63 78 25
54 73 18
66 78 28
72 80 31
63 79 24
57 80 21
62 79 17
62 76 16
60 73 16
61 76 17
55 77 16
52 71 15
45 62 10
45 63 8
41 59 7
34 53 0
32 51 0
33 51 0
31 50 0
25 43 0
30 49 0
32 50 0
35 52 0
32 51 0
33 51 0
29 50 0
29 51 0
29 51 0
45 61 12
63 72 17
71 77 23
57 73 22
40 63 0
40 63 0
31 54 0
26 49 0
24 46 0
27 49 0
30 49 0
27 48 0
30 53 0
29 50 0
27 47 7
31 51 0
29 74 50
10 75 102
0 7 64
0 0 52
0 0 48
0 0 43
0 0 45
0 0 45
0 0 42
0 0 42
0 0 42
0 0 42
0 0 42
0 0 42
0 0 42
0 0 42
0 0 42
0 0 42
0 0 42
0 0 42
0 0 42
0 0 42
0 0 42
0 0 42
0 0 42
0 0 42
0 0 43
0 0 45
0 0 45
0 0 45
0 0 45
0 0 44
161 171 188
221 235 255
221 235 255
221 235 255
221 235 255
221 235 255
221 235 255
221 235 255
221 235 255
221 235 255
221 235 255
221 235 255
221 235 255
221 235 255
221 235 255
221 235 255
221 235 255
221 235 255
221 235 255
221 235 255
221 235 255
221 235 255
221 235 255
221 235 255
221 235 255
221 235 255
221 235 255
221 235 255
221 235 255
221 235 255
221 235 255
221 235 255
221 235 255
221 235 255
221 235 255
221 235 255
221 235 255
221 235 255
221 235 255
221 235 255
221 235 255
221 235 255
221 235 255
221 235 255
221 235 255
221 235 255
221 235 255
221 235 255
221 235 255
221 235 255
221 235 255
221 235 255
221 235 255
221 235 255
221 235 255
221 235 255
221 235 255
221 235 255
221 235 255
221 235 255
221 235 255
221 235 255
221 235 255
221 235 255
221 235 255
221 235 255
221 235 255
221 235 255
221 235 255
221 235 255
221 235 255
221 235 255
221 235 255
221 235 255
221 235 255
221 235 255
221 235 255
221 235 255
221 235 255
221 235 255
221 235 255
221 235 255
221 235 255
221 235 255
221 235 255
221 235 255
221 235 255
221 235 255
221 235 255
221 235 255
221 235 255
221 235 255
221 235 255
221 235 255
221 235 255
221 235 255
221 235 255
221 235 255
221 235 255
221 235 255
221 235 255
221 235 255
221 235 255
221 235 255
221 235 255
221 235 255
221 235 255
221 235 255
221 235 255
221 235 255
221 235 255
221 235 255
221 235 255
221 235 255
221 235 255
221 235 255
221 235 255
221 235 255
221 235 255
221 235 255
221 235 255
221 235 255
221 235 255
221 235 255
221 235 255
221 235 255
221 235 255
221 235 255
221 235 255
221 235 255
221 235 255
221 235 255
221 235 255
221 235 255
221 235 255
221 235 255
221 235 255
221 235 255
221 235 255
221 235 255
221 235 255
221 235 255
221 235 255
221 235 255
221 235 255
221 235 255
221 235 255
221 235 255
221 235 255
221 235 255
221 235 255
221 235 255
221 235 255
221 235 255
221 235 255
221 235 255
221 235 255
221 235 255
221 235 255
221 235 255
221 235 255
221 235 255
221 235 255
221 235 255
221 235 255
221 235 255
221 235 255
221 235 255
221 235 255
221 235 255
221 235 255
221 235 255
221 235 255
221 235 255
221 235 255
221 235 255
221 235 255
221 235 255
221 235 255
221 235 255
221 235 255
221 235 255
221 235 255
221 235 255
221 235 255
143 152 169
0 0 45
0 0 45
0 0 45
0 0 45
0 0 43
0 0 43
0 0 45
0 0 45
0 0 45
0 0 45
0 0 45
0 0 45
0 0 45
0 0 45
0 0 45
0 0 45
0 0 45
0 0 45
0 0 45
0 0 45
0 0 45
0 0 45
0 0 45
0 0 45
0 0 45
0 0 45
0 0 45
0 0 45
0 0 45
0 0 45
0 0 45
0 0 45
0 0 45
0 0 45
0 0 45
0 0 44
0 0 42
0 0 42
0 0 42
0 0 42
0 0 42
0 0 42
0 0 42
0 0 44
0 0 45
0 0 45
0 0 45
0 0 44
0 0 43
0 0 42
0 0 42
0 0 45
0 0 45
0 0 45
0 0 45
0 0 45
0 0 45
0 0 45
0 0 45
0 0 45
0 0 45
0 0 45
0 0 45
0 0 45
0 0 45
0 0 45
0 0 45
0 0 45
0 0 45
0 0 45
0 0 45
0 0 45
0 0 45
0 0 45
0 0 45
0 0 45
0 0 45
0 0 45
0 0 45
0 0 45
0 0 45
0 0 45
0 0 45
0 0 45
0 0 43
0 0 42
0 0 45
0 0 45
0 0 45
0 0 45
0 0 45
0 0 45
0 0 45
0 0 45
0 0 43
0 0 44
0 0 45
0 0 46
0 0 48
0 0 48
0 0 48
0 0 48
0 0 48
0 0 48
0 0 47
0 0 45
0 0 45
0 0 45
0 0 45
0 0 45
0 0 45
0 0 45
0 0 45
0 0 46
0 0 45
0 0 46
0 0 47
0 0 48
0 0 49
0 0 50
0 0 51
0 0 51
0 0 50
0 0 48
0 0 48
0 0 46
0 0 46
0 0 45
0 0 45
0 0 46
0 0 48
0 0 49
0 0 45
0 0 59
19 40 79
53 78 45
56 77 19
62 74 34
60 71 21
59 72 19
67 80 35
66 82 32
60 79 18
56 76 18
60 74 19
60 73 15
55 70 13
45 65 5
37 60 0
39 61 0
37 58 0
38 60 0
34 54 0
34 52 0
38 53 0
31 51 0
28 46 0
31 50 0
30 49 0
29 46 0
35 55 0
30 50 0
30 51 0
31 53 0
32 56 0
36 57 0
59 71 19
75 80 28
83 86 35
69 78 29
43 60 4
42 65 0
36 59 0
29 52 0
22 45 0
27 46 0
28 48 0
31 53 0
28 51 0
27 48 0
26 49 0
36 51 0
33 50 0
22 73 64
0 26 81
0 10 67
0 0 57
0 0 43
0 0 43
0 0 44
0 0 42
0 0 42
0 0 42
0 0 42
0 0 42
0 0 42
0 0 42
0 0 42
0 0 42
0 0 42
0 0 42
0 0 42
0 0 42
0 0 43
0 0 45
0 0 42
0 0 42
0 0 42
0 0 43
0 0 45
0 0 45
0 0 45
0 0 45
0 0 44
143 152 169
221 235 255
221 235 255
221 235 255
221 235 255
221 235 255
221 235 255
221 235 255
221 235 255
221 235 255
221 235 255
221 235 255
221 235 255
221 235 255
221 235 255
221 235 255
221 235 255
221 235 255
221 235 255
221 235 255
221 235 255
221 235 255
221 235 255
221 235 255
221 235 255
221 235 255
221 235 255
221 235 255
221 235 255
221 235 255
221 235 255
221 235 255
221 235 255
221 235 255
221 235 255
221 235 255
221 235 255
221 235 255
221 235 255
221 235 255
221 235 255
221 235 255
221 235 255
221 235 255
221 235 255
221 235 255
221 235 255
221 235 255
221 235 255
221 235 255
221 235 255
221 235 255
221 235 255
221 235 255
221 235 255
221 235 255
221 235 255
221 235 255
221 235 255
221 235 255
221 235 255
221 235 255
221 235 255
221 235 255
221 235 255
221 235 255
221 235 255
221 235 255
221 235 255
221 235 255
221 235 255
221 235 255
221 235 255
221 235 255
221 235 255
221 235 255
221 235 255
221 235 255
221 235 255
221 235 255
221 235 255
221 235 255
221 235 255
221 235 255
221 235 255
221 235 255
221 235 255
221 235 255
221 235 255
221 235 255
221 235 255
221 235 255
221 235 255
221 235 255
221 235 255
221 235 255
221 235 255
221 235 255
221 235 255
221 235 255
221 235 255
221 235 255
221 235 255
221 235 255
221 235 255
221 235 255
221 235 255
221 235 255
221 235 255
221 235 255
221 235 255
221 235 255
221 235 255
221 235 255
221 235 255
221 235 255
221 235 255
221 235 255
221 235 255
221 235 255
221 235 255
221 235 255
221 235 255
221 235 255
221 235 255
221 235 255
221 235 255
221 235 255
221 235 255
221 235 255
221 235 255
221 235 255
221 235 255
221 235 255
221 235 255
221 235 255
221 235 255
221 235 255
221 235 255
221 235 255
221 235 255
221 235 255
221 235 255
221 235 255
221 235 255
221 235 255
221 235 255
221 235 255
221 235 255
221 235 255
221 235 255
221 235 255
221 235 255
221 235 255
221 235 255
221 235 255
221 235 255
221 235 255
221 235 255
221 235 255
221 235 255
221 235 255
221 235 255
221 235 255
221 235 255
221 235 255
221 235 255
221 235 255
221 235 255
221 235 255
221 235 255
221 235 255
221 235 255
221 235 255
221 235 255
221 235 255
221 235 255
221 235 255
221 235 255
221 235 255
221 235 255
221 235 255
221 235 255
221 235 255
221 235 255
141 150 167
0 0 45
0 0 45
0 0 45
0 0 45
0 0 44
0 0 44
0 0 45
0 0 45
0 0 45
0 0 45
0 0 45
0 0 45
0 0 45
0 0 45
0 0 45
0 0 45
0 0 45
0 0 45
0 0 45
0 0 45
0 0 45
0 0 45
0 0 45
0 0 45
0 0 45
0 0 44
0 0 42
0 0 42
0 0 42
0 0 43
0 0 45
0 0 44
0 0 45
0 0 45
0 0 45
0 0 44
0 0 42
0 0 42
0 0 42
0 0 42
0 0 42
0 0 42
0 0 42
0 0 42
0 0 42
0 0 42
0 0 42
0 0 42
0 0 42
0 0 42
0 0 42
0 0 45
0 0 45
0 0 45
0 0 45
0 0 45
0 0 45
0 0 45
0 0 45
0 0 45
0 0 45
0 0 45
0 0 45
0 0 45
0 0 45
0 0 45
0 0 45
0 0 45
0 0 45
0 0 45
0 0 45
0 0 45
0 0 45
0 0 45
0 0 45
0 0 45
0 0 45
0 0 45
0 0 45
0 0 45
0 0 45
0 0 45
0 0 45
0 0 45
0 0 44
0 0 43
0 0 45
0 0 45
0 0 45
0 0 45
0 0 45
0 0 45
0 0 45
0 0 45
0 0 43
0 0 43
0 0 45
0 0 47
0 0 48
0 0 50
0 0 51
0 0 51
0 0 51
0 0 48
0 0 47
0 0 45
0 0 45
0 0 45
0 0 45
0 0 45
0 0 45
0 0 45
0 0 45
0 0 47
0 0 48
0 0 49
0 0 51
0 0 52
0 0 53
0 0 54
0 0 55
0 0 54
0 0 53
0 0 51
0 0 51
0 0 49
0 0 48
0 0 47
0 0 46
0 0 47
0 0 48
0 0 47
0 0 51
0 14 77
32 61 51
57 82 34
48 70 16
59 69 31
62 73 25
70 80 29
60 74 29
47 69 16
52 74 11
55 72 17
56 74 17
52 73 15
44 65 7
34 55 0
36 55 0
40 58 0
39 57 0
38 57 0
33 54 0
34 54 0
37 57 0
31 50 0
29 49 0
30 52 0
29 49 0
23 42 0
31 51 0
33 52 0
34 53 0
31 52 0
33 56 0
36 59 0
53 71 10
85 89 38
82 84 41
67 74 27
41 60 10
41 61 6
38 57 0
34 53 0
25 45 0
28 48 0
29 48 0
30 50 0
32 52 0
30 50 0
27 49 0
32 48 6
38 52 0
34 83 86
0 87 129
4 67 115
0 19 68
0 0 45
0 0 42
0 0 42
0 0 42
0 0 42
0 0 42
0 0 42
0 0 42
0 0 42
0 0 42
0 0 42
0 0 42
0 0 42
0 0 42
0 0 42
0 0 42
0 0 44
0 0 45
0 0 43
0 0 42
0 0 42
0 0 43
0 0 45
0 0 45
0 0 45
0 0 45
0 0 43
141 150 167
221 235 255
221 235 255
221 235 255
221 235 255
221 235 255
221 235 255
221 235 255
221 235 255
221 235 255
221 235 255
221 235 255
221 235 255
221 235 255
221 235 255
221 235 255
221 235 255
221 235 255
221 235 255
221 235 255
221 235 255
221 235 255
221 235 255
221 235 255
221 235 255
221 235 255
221 235 255
221 235 255
221 235 255
221 235 255
221 235 255
221 235 255
221 235 255
221 235 255
221 235 255
221 235 255
221 235 255
221 235 255
221 235 255
221 235 255
221 235 255
221 235 255
221 235 255
221 235 255
221 235 255
221 235 255
221 235 255
221 235 255
221 235 255
221 235 255
221 235 255
221 235 255
221 235 255
221 235 255
221 235 255
221 235 255
221 235 255
221 235 255
221 235 255
221 235 255
221 235 255
221 235 255
221 235 255
221 235 255
221 235 255
221 235 255
221 235 255
221 235 255
221 235 255
221 235 255
221 235 255
221 235 255
221 235 255
221 235 255
221 235 255
221 235 255
221 235 255
221 235 255
221 235 255
221 235 255
221 235 255
221 235 255
221 235 255
221 235 255
221 235 255
221 235 255
221 235 255
221 235 255
221 235 255
221 235 255
221 235 255
221 235 255
221 235 255
221 235 255
221 235 255
221 235 255
221 235 255
221 235 255
221 235 255
221 235 255
221 235 255
221 235 255
221 235 255
221 235 255
221 235 255
221 235 255
221 235 255
221 235 255
221 235 255
221 235 255
221 235 255
221 235 255
221 235 255
221 235 255
221 235 255
221 235 255
221 235 255
221 235 255
221 235 255
221 235 255
221 235 255
221 235 255
221 235 255
221 235 255
221 235 255
221 235 255
221 235 255
221 235 255
221 235 255
221 235 255
221 235 255
221 235 255
221 235 255
221 235 255
221 235 255
221 235 255
221 235 255
221 235 255
221 235 255
221 235 255
221 235 255
221 235 255
221 235 255
221 235 255
221 235 255
221 235 255
221 235 255
221 235 255
221 235 255
221 235 255
221 235 255
221 235 255
221 235 255
221 235 255
221 235 255
221 235 255
221 235 255
221 235 255
221 235 255
221 235 255
221 235 255
221 235 255
221 235 255
221 235 255
221 235 255
221 235 255
221 235 255
221 235 255
221 235 255
221 235 255
221 235 255
221 235 255
221 235 255
221 235 255
221 235 255
221 235 255
221 235 255
221 235 255
221 235 255
221 235 255
221 235 255
221 235 255
221 235 255
221 235 255
221 235 255
123 131 147
0 0 45
0 0 45
0 0 45
0 0 45
0 0 45
0 0 45
0 0 45
0 0 45
0 0 45
0 0 45
0 0 45
0 0 45
0 0 45
0 0 45
0 0 45
0 0 45
0 0 45
0 0 44
0 0 44
0 0 45
0 0 45
0 0 45
0 0 45
0 0 44
0 0 44
0 0 43
0 0 42
0 0 42
0 0 42
0 0 43
0 0 45
0 0 44
0 0 44
0 0 43
0 0 43
0 0 43
0 0 42
0 0 42
0 0 42
0 0 42
0 0 42
0 0 42
0 0 42
0 0 43
0 0 44
0 0 44
0 0 44
0 0 44
0 0 43
0 0 42
0 0 42
0 0 43
0 0 44
0 0 45
0 0 45
0 0 45
0 0 45
0 0 45
0 0 45
0 0 45
0 0 45
0 0 45
0 0 45
0 0 45
0 0 45
0 0 45
0 0 45
0 0 45
0 0 45
0 0 45
0 0 45
0 0 45
0 0 45
0 0 45
0 0 45
0 0 45
0 0 45
0 0 45
0 0 45
0 0 45
0 0 45
0 0 45
0 0 45
0 0 45
0 0 45
0 0 45
0 0 45
0 0 45
0 0 45
0 0 45
0 0 45
0 0 45
0 0 45
0 0 45
0 0 44
0 0 43
0 0 47
0 0 48
0 0 48
0 0 48
0 0 48
0 0 53
0 0 52
0 0 50
0 0 47
0 0 45
0 0 45
0 0 45
0 0 45
0 0 43
0 0 43
0 0 45
0 0 45
0 0 47
0 0 50
0 0 51
0 0 52
0 0 53
0 0 54
0 0 53
0 0 55
0 0 55
0 0 54
0 0 53
0 0 53
0 0 52
0 0 51
0 0 53
0 0 54
0 0 50
0 0 62
0 9 47
16 35 59
31 63 66
49 78 38
49 69 13
44 59 10
68 76 27
64 77 34
61 75 27
46 63 15
35 57 0
36 58 2
42 61 9
47 68 7
44 66 8
39 60 6
36 58 0
37 55 0
39 57 0
35 54 0
35 54 0
34 55 0
34 54 0
31 53 0
29 50 0
29 51 0
28 51 0
27 47 0
23 42 0
25 46 0
31 52 0
37 54 0
33 52 0
34 55 0
36 60 0
48 71 11
72 86 31
62 69 20
64 74 23
54 69 19
39 58 0
37 56 0
31 50 0
28 47 0
27 44 0
30 47 0
31 49 0
33 53 0
30 50 0
30 52 0
35 53 8
30 53 0
27 68 51
10 113 143
7 118 152
0 57 100
0 12 64
0 0 43
0 0 42
0 0 41
0 0 42
0 0 42
0 0 42
0 0 42
0 0 42
0 0 42
0 0 42
0 0 42
0 0 42
0 0 42
0 0 42
0 0 42
0 0 44
0 0 44
0 0 43
0 0 42
0 0 42
0 0 43
0 0 45
0 0 44
0 0 45
0 0 44
0 0 42
117 124 140
221 235 255
221 235 255
221 235 255
221 235 255
221 235 255
221 235 255
221 235 255
221 235 255
221 235 255
221 235 255
221 235 255
221 235 255
221 235 255
221 235 255
221 235 255
221 235 255
221 235 255
221 235 255
221 235 255
221 235 255
221 235 255
221 235 255
221 235 255
221 235 255
221 235 255
221 235 255
221 235 255
221 235 255
221 235 255
221 235 255
221 235 255
221 235 255
221 235 255
221 235 255
221 235 255
221 235 255
221 235 255
221 235 255
221 235 255
221 235 255
221 235 255
221 235 255
221 235 255
221 235 255
221 235 255
221 235 255
221 235 255
221 235 255
221 235 255
221 235 255
221 235 255
221 235 255
221 235 255
221 235 255
221 235 255
221 235 255
221 235 255
221 235 255
221 235 255
221 235 255
221 235 255
221 235 255
221 235 255
221 235 255
221 235 255
221 235 255
221 235 255
221 235 255
221 235 255
221 235 255
221 235 255
221 235 255
221 235 255
221 235 255
221 235 255
221 235 255
221 235 255
221 235 255
221 235 255
221 235 255
221 235 255
221 235 255
221 235 255
221 235 255
221 235 255
221 235 255
221 235 255
221 235 255
221 235 255
221 235 255
221 235 255
221 235 255
221 235 255
221 235 255
221 235 255
221 235 255
221 235 255
221 235 255
221 235 255
221 235 255
221 235 255
221 235 255
221 235 255
221 235 255
221 235 255
221 235 255
221 235 255
221 235 255
221 235 255
221 235 255
221 235 255
221 235 255
221 235 255
221 235 255
221 235 255
221 235 255
221 235 255
221 235 255
221 235 255
221 235 255
221 235 255
221 235 255
221 235 255
221 235 255
221 235 255
221 235 255
221 235 255
221 235 255
221 235 255
221 235 255
221 235 255
221 235 255
221 235 255
221 235 255
221 235 255
221 235 255
221 235 255
221 235 255
221 235 255
221 235 255
221 235 255
221 235 255
221 235 255
221 235 255
221 235 255
221 235 255
221 235 255
221 235 255
221 235 255
221 235 255
221 235 255
221 235 255
221 235 255
221 235 255
221 235 255
221 235 255
221 235 255
221 235 255
221 235 255
221 235 255
221 235 255
221 235 255
221 235 255
221 235 255
221 235 255
221 235 255
221 235 255
221 235 255
221 235 255
221 235 255
221 235 255
221 235 255
221 235 255
221 235 255
221 235 255
221 235 255
221 235 255
221 235 255
221 235 255
221 235 255
221 235 255
221 235 255
221 235 255
221 235 255
85 91 107
0 0 45
0 0 45
0 0 45
0 0 45
0 0 45
0 0 45
0 0 45
0 0 45
0 0 45
0 0 45
0 0 45
0 0 45
0 0 45
0 0 45
0 0 45
0 0 45
0 0 44
0 0 42
0 0 44
0 0 45
0 0 45
0 0 45
0 0 45
0 0 44
0 0 42
0 0 42
0 0 42
0 0 42
0 0 42
0 0 43
0 0 44
0 0 43
0 0 42
0 0 42
0 0 42
0 0 42
0 0 42
0 0 42
0 0 43
0 0 44
0 0 44
0 0 44
0 0 44
0 0 45
0 0 45
0 0 45
0 0 45
0 0 45
0 0 43
0 0 45
0 0 44
0 0 44
0 0 45
0 0 45
0 0 45
0 0 45
0 0 45
0 0 45
0 0 45
0 0 45
0 0 45
0 0 45
0 0 45
0 0 45
0 0 45
0 0 45
0 0 45
0 0 45
0 0 45
0 0 45
0 0 45
0 0 45
0 0 45
0 0 45
0 0 45
0 0 45
0 0 45
0 0 45
0 0 45
0 0 45
0 0 45
0 0 45
0 0 45
0 0 45
0 0 45
0 0 45
0 0 45
0 0 45
0 0 45
0 0 45
0 0 45
0 0 45
0 0 45
0 0 45
0 0 44
0 0 44
0 0 48
0 0 48
0 0 48
0 0 48
0 0 46
0 0 50
0 0 50
0 0 48
0 0 48
0 0 48
0 0 43
0 0 47
0 0 45
0 0 45
0 0 45
0 0 46
0 0 48
0 0 48
0 0 51
0 0 53
0 0 53
0 0 53
0 0 54
0 0 54
0 0 57
0 0 57
0 0 56
0 0 55
0 0 56
0 0 53
0 0 55
0 0 52
0 0 53
0 0 49
0 0 46
23 36 62
67 101 66
64 100 44
47 71 34
48 62 5
67 75 40
64 77 33
65 80 36
56 74 26
50 70 16
43 64 0
42 64 0
37 58 0
43 64 0
37 59 0
33 55 0
31 52 0
33 53 0
35 55 0
31 49 0
27 47 0
32 52 0
34 55 0
34 55 0
35 56 0
29 49 0
27 48 0
29 48 0
25 43 0
24 44 0
27 47 0
32 50 0
34 54 0
32 54 0
36 58 0
37 61 0
44 65 8
44 61 5
59 71 18
53 65 12
43 61 0
37 55 0
29 47 0
29 47 0
29 45 0
33 49 0
30 50 0
31 52 0
29 51 0
30 54 0
33 52 0
30 50 9
31 55 16
19 113 123
27 168 173
10 100 134
0 24 75
0 0 50
0 0 43
0 0 40
0 0 42
0 0 42
0 0 42
0 0 42
0 0 42
0 0 42
0 0 42
0 0 42
0 0 42
0 0 42
0 0 42
0 0 42
0 0 42
0 0 42
0 0 42
0 0 42
0 0 42
0 0 42
0 0 42
0 0 42
0 0 42
0 0 42
0 0 42
115 122 137
221 235 255
221 235 255
221 235 255
221 235 255
221 235 255
221 235 255
221 235 255
221 235 255
221 235 255
221 235 255
221 235 255
221 235 255
221 235 255
221 235 255
221 235 255
221 235 255
221 235 255
221 235 255
221 235 255
221 235 255
221 235 255
221 235 255
221 235 255
221 235 255
221 235 255
221 235 255
221 235 255
221 235 255
221 235 255
221 235 255
221 235 255
221 235 255
221 235 255
221 235 255
221 235 255
221 235 255
221 235 255
221 235 255
221 235 255
221 235 255
221 235 255
221 235 255
221 235 255
221 235 255
221 235 255
221 235 255
221 235 255
221 235 255
221 235 255
221 235 255
221 235 255
221 235 255
221 235 255
221 235 255
221 235 255
221 235 255
221 235 255
221 235 255
221 235 255
221 235 255
221 235 255
221 235 255
221 235 255
221 235 255
221 235 255
221 235 255
221 235 255
221 235 255
221 235 255
221 235 255
221 235 255
221 235 255
221 235 255
221 235 255
221 235 255
221 235 255
221 235 255
221 235 255
221 235 255
221 235 255
221 235 255
221 235 255
221 235 255
221 235 255
221 235 255
221 235 255
221 235 255
221 235 255
221 235 255
221 235 255
221 235 255
221 235 255
221 235 255
221 235 255
221 235 255
221 235 255
221 235 255
221 235 255
221 235 255
221 235 255
221 235 255
221 235 255
221 235 255
221 235 255
221 235 255
221 235 255
221 235 255
221 235 255
221 235 255
221 235 255
221 235 255
221 235 255
221 235 255
221 235 255
221 235 255
221 235 255
221 235 255
221 235 255
221 235 255
221 235 255
221 235 255
221 235 255
221 235 255
221 235 255
221 235 255
221 235 255
221 235 255
221 235 255
221 235 255
221 235 255
221 235 255
221 235 255
221 235 255
221 235 255
221 235 255
221 235 255
221 235 255
221 235 255
221 235 255
221 235 255
221 235 255
221 235 255
221 235 255
221 235 255
221 235 255
221 235 255
221 235 255
221 235 255
221 235 255
221 235 255
221 235 255
221 235 255
221 235 255
221 235 255
221 235 255
221 235 255
221 235 255
221 235 255
221 235 255
221 235 255
221 235 255
221 235 255
221 235 255
221 235 255
221 235 255
221 235 255
221 235 255
221 235 255
221 235 255
221 235 255
221 235 255
221 235 255
221 235 255
221 235 255
221 235 255
221 235 255
221 235 255
221 235 255
221 235 255
221 235 255
221 235 255
221 235 255
221 235 255
221 235 255
79 85 101
0 0 45
0 0 45
0 0 45
0 0 45
0 0 45
0 0 45
0 0 45
0 0 45
0 0 45
0 0 45
0 0 45
0 0 45
0 0 45
0 0 45
0 0 45
0 0 45
0 0 45
0 0 43
0 0 44
0 0 45
0 0 45
0 0 45
0 0 45
0 0 45
0 0 45
0 0 45
0 0 45
0 0 45
0 0 45
0 0 44
0 0 42
0 0 42
0 0 42
0 0 42
0 0 42
0 0 42
0 0 42
0 0 43
0 0 44
0 0 45
0 0 45
0 0 45
0 0 45
0 0 45
0 0 45
0 0 45
0 0 45
0 0 45
0 0 45
0 0 45
0 0 45
0 0 45
0 0 45
0 0 45
0 0 45
0 0 45
0 0 45
0 0 45
0 0 45
0 0 45
0 0 45
0 0 45
0 0 45
0 0 45
0 0 45
0 0 45
0 0 45
0 0 45
0 0 45
0 0 45
0 0 45
0 0 45
0 0 45
0 0 45
0 0 45
0 0 45
0 0 45
0 0 45
0 0 45
0 0 45
0 0 45
0 0 45
0 0 45
0 0 45
0 0 45
0 0 45
0 0 45
0 0 45
0 0 45
0 0 45
0 0 45
0 0 45
0 0 45
0 0 45
0 0 45
0 0 45
0 0 47
0 0 48
0 0 48
0 0 48
0 0 48
0 0 48
0 0 49
0 0 49
0 0 49
0 0 49
0 0 47
0 0 48
0 0 48
0 0 48
0 0 48
0 0 48
0 0 48
0 0 50
0 0 53
0 0 53
0 0 53
0 0 53
0 0 56
0 0 56
0 0 57
0 0 56
0 0 56
0 0 57
0 0 57
0 0 57
0 0 63
0 0 61
0 4 59
0 6 59
0 0 62
35 57 76
61 93 62
63 88 38
52 72 26
60 70 19
71 77 37
52 70 21
54 72 24
51 70 19
51 73 18
43 65 0
40 61 0
34 54 0
37 58 0
36 58 0
35 56 0
32 52 0
33 54 0
35 56 0
28 49 0
25 46 0
28 49 0
33 54 0
36 56 0
36 56 0
30 50 0
24 44 0
28 46 0
30 50 0
34 52 0
33 52 0
29 53 0
29 54 0
28 52 0
33 55 0
34 56 0
32 56 0
32 55 0
36 55 0
36 54 0
36 55 0
33 52 0
28 46 0
30 48 0
37 54 0
43 60 0
31 50 0
30 49 0
29 50 0
30 52 0
31 52 0
28 50 0
31 49 0
37 67 39
12 118 130
17 161 171
0 62 115
0 7 57
0 0 44
0 0 41
0 0 41
0 0 42
0 0 42
0 0 42
0 0 42
0 0 42
0 0 42
0 0 42
0 0 42
0 0 42
0 0 42
0 0 42
0 0 42
0 0 42
0 0 42
0 0 42
0 0 42
0 0 42
0 0 42
0 0 42
0 0 42
0 0 42
0 0 42
117 124 140
221 235 255
221 235 255
221 235 255
221 235 255
221 235 255
221 235 255
221 235 255
221 235 255
221 235 255
221 235 255
221 235 255
221 235 255
221 235 255
221 235 255
221 235 255
221 235 255
221 235 255
221 235 255
221 235 255
221 235 255
221 235 255
221 235 255
221 235 255
221 235 255
221 235 255
221 235 255
221 235 255
221 235 255
221 235 255
221 235 255
221 235 255
221 235 255
221 235 255
221 235 255
221 235 255
221 235 255
221 235 255
221 235 255
221 235 255
221 235 255
221 235 255
221 235 255
221 235 255
221 235 255
221 235 255
221 235 255
221 235 255
221 235 255
221 235 255
221 235 255
221 235 255
221 235 255
221 235 255
221 235 255
221 235 255
221 235 255
221 235 255
221 235 255
221 235 255
221 235 255
221 235 255
221 235 255
221 235 255
221 235 255
221 235 255
221 235 255
221 235 255
221 235 255
221 235 255
221 235 255
221 235 255
221 235 255
221 235 255
221 235 255
221 235 255
221 235 255
221 235 255
221 235 255
221 235 255
221 235 255
221 235 255
221 235 255
221 235 255
221 235 255
221 235 255
221 235 255
221 235 255
221 235 255
221 235 255
221 235 255
221 235 255
221 235 255
221 235 255
221 235 255
221 235 255
221 235 255
221 235 255
221 235 255
221 235 255
221 235 255
221 235 255
221 235 255
221 235 255
221 235 255
221 235 255
221 235 255
221 235 255
221 235 255
221 235 255
221 235 255
221 235 255
221 235 255
221 235 255
221 235 255
221 235 255
221 235 255
221 235 255
221 235 255
221 235 255
221 235 255
221 235 255
221 235 255
221 235 255
221 235 255
221 235 255
221 235 255
221 235 255
221 235 255
221 235 255
221 235 255
221 235 255
221 235 255
221 235 255
221 235 255
221 235 255
221 235 255
221 235 255
221 235 255
221 235 255
221 235 255
221 235 255
221 235 255
221 235 255
221 235 255
221 235 255
221 235 255
221 235 255
221 235 255
221 235 255
221 235 255
221 235 255
221 235 255
221 235 255
221 235 255
221 235 255
221 235 255
221 235 255
221 235 255
221 235 255
221 235 255
221 235 255
221 235 255
221 235 255
221 235 255
221 235 255
221 235 255
221 235 255
221 235 255
221 235 255
221 235 255
221 235 255
221 235 255
221 235 255
221 235 255
221 235 255
221 235 255
221 235 255
221 235 255
221 235 255
221 235 255
221 235 255
221 235 255
221 235 255
221 235 255
82 88 104
0 0 45
0 0 45
0 0 45
0 0 45
0 0 45
0 0 45
0 0 45
0 0 45
0 0 45
0 0 45
0 0 45
0 0 45
0 0 45
0 0 45
0 0 45
0 0 45
0 0 45
0 0 44
0 0 45
0 0 45
0 0 45
0 0 45
0 0 45
0 0 45
0 0 45
0 0 45
0 0 45
0 0 45
0 0 45
0 0 44
0 0 43
0 0 43
0 0 42
0 0 42
0 0 42
0 0 43
0 0 44
0 0 45
0 0 45
0 0 45
0 0 45
0 0 45
0 0 45
0 0 45
0 0 45
0 0 45
0 0 45
0 0 45
0 0 45
0 0 45
0 0 45
0 0 45
0 0 43
0 0 44
0 0 45
0 0 45
0 0 45
0 0 45
0 0 45
0 0 45
0 0 45
0 0 45
0 0 45
0 0 45
0 0 45
0 0 45
0 0 45
0 0 45
0 0 45
0 0 45
0 0 45
0 0 45
0 0 45
0 0 45
0 0 45
0 0 45
0 0 45
0 0 45
0 0 45
0 0 45
0 0 45
0 0 45
0 0 45
0 0 45
0 0 45
0 0 45
0 0 45
0 0 45
0 0 45
0 0 45
0 0 45
0 0 45
0 0 45
0 0 45
0 0 46
0 0 46
0 0 48
0 0 48
0 0 48
0 0 49
0 0 49
0 0 48
0 0 49
0 0 50
0 0 51
0 0 50
0 0 50
0 0 49
0 0 49
0 0 49
0 0 49
0 0 49
0 0 49
0 0 52
0 0 55
0 0 54
0 0 53
0 0 54
0 0 57
0 0 57
0 0 57
0 0 57
0 0 57
0 0 57
0 0 57
0 0 53
0 8 61
0 6 64
0 8 70
0 17 74
0 25 77
49 86 77
64 96 38
58 80 26
63 73 25
73 82 41
61 72 32
54 70 21
52 71 19
48 69 13
44 65 2
40 61 0
35 54 0
33 52 0
37 56 0
37 58 0
39 60 0
36 55 0
32 52 0
31 52 0
28 49 0
29 50 0
28 49 0
29 51 0
32 53 0
32 52 0
29 49 0
25 44 0
27 45 0
30 50 0
29 48 0
28 48 0
26 51 0
30 56 0
29 52 0
33 53 0
33 51 0
30 50 0
28 50 0
26 50 0
27 48 0
30 49 0
32 51 0
30 49 0
29 47 0
36 52 0
41 58 0
32 52 0
30 49 0
29 47 0
30 48 0
33 49 0
31 49 0
31 53 0
35 52 3
18 91 90
9 130 155
9 98 129
0 25 80
0 0 52
0 0 44
0 0 41
0 0 42
0 0 42
0 0 42
0 0 42
0 0 42
0 0 42
0 0 42
0 0 42
0 0 42
0 0 42
0 0 42
0 0 42
0 0 42
0 0 42
0 0 42
0 0 42
0 0 42
0 0 42
0 0 42
0 0 42
0 0 42
0 0 42
85 91 106
221 235 255
221 235 255
221 235 255
221 235 255
221 235 255
221 235 255
221 235 255
221 235 255
221 235 255
221 235 255
221 235 255
221 235 255
221 235 255
221 235 255
221 235 255
221 235 255
221 235 255
221 235 255
221 235 255
221 235 255
221 235 255
221 235 255
221 235 255
221 235 255
221 235 255
221 235 255
221 235 255
221 235 255
221 235 255
221 235 255
221 235 255
221 235 255
221 235 255
221 235 255
221 235 255
221 235 255
221 235 255
221 235 255
221 235 255
221 235 255
221 235 255
221 235 255
221 235 255
221 235 255
221 235 255
221 235 255
221 235 255
221 235 255
221 235 255
221 235 255
221 235 255
221 235 255
221 235 255
221 235 255
221 235 255
221 235 255
221 235 255
221 235 255
221 235 255
221 235 255
221 235 255
221 235 255
221 235 255
221 235 255
221 235 255
221 235 255
221 235 255
221 235 255
221 235 255
221 235 255
221 235 255
221 235 255
221 235 255
221 235 255
221 235 255
221 235 255
221 235 255
221 235 255
221 235 255
221 235 255
221 235 255
221 235 255
221 235 255
221 235 255
221 235 255
221 235 255
221 235 255
221 235 255
221 235 255
221 235 255
221 235 255
221 235 255
221 235 255
221 235 255
221 235 255
221 235 255
221 235 255
221 235 255
221 235 255
221 235 255
221 235 255
221 235 255
221 235 255
221 235 255
221 235 255
221 235 255
221 235 255
221 235 255
221 235 255
221 235 255
221 235 255
221 235 255
221 235 255
221 235 255
221 235 255
221 235 255
221 235 255
221 235 255
221 235 255
221 235 255
221 235 255
221 235 255
221 235 255
221 235 255
221 235 255
221 235 255
221 235 255
221 235 255
221 235 255
221 235 255
221 235 255
221 235 255
221 235 255
221 235 255
221 235 255
221 235 255
221 235 255
221 235 255
221 235 255
221 235 255
221 235 255
221 235 255
221 235 255
221 235 255
221 235 255
221 235 255
221 235 255
221 235 255
221 235 255
221 235 255
221 235 255
221 235 255
221 235 255
221 235 255
221 235 255
221 235 255
221 235 255
221 235 255
221 235 255
221 235 255
221 235 255
221 235 255
221 235 255
221 235 255
221 235 255
221 235 255
221 235 255
221 235 255
221 235 255
221 235 255
221 235 255
221 235 255
221 235 255
221 235 255
221 235 255
221 235 255
221 235 255
221 235 255
221 235 255
221 235 255
221 235 255
221 235 255
221 235 255
221 235 255
96 102 118
0 0 45
0 0 45
0 0 45
0 0 45
0 0 45
0 0 45
0 0 45
0 0 45
0 0 45
0 0 45
0 0 45
0 0 45
0 0 45
0 0 45
0 0 45
0 0 45
0 0 45
0 0 45
0 0 45
0 0 45
0 0 45
0 0 45
0 0 45
0 0 45
0 0 45
0 0 45
0 0 45
0 0 45
0 0 45
0 0 45
0 0 45
0 0 45
0 0 44
0 0 44
0 0 44
0 0 45
0 0 45
0 0 45
0 0 45
0 0 45
0 0 45
0 0 45
0 0 45
0 0 45
0 0 45
0 0 45
0 0 45
0 0 45
0 0 45
0 0 45
0 0 45
0 0 45
0 0 45
0 0 45
0 0 45
0 0 45
0 0 45
0 0 45
0 0 45
0 0 47
0 0 47
0 0 47
0 0 47
0 0 47
0 0 46
0 0 45
0 0 45
0 0 45
0 0 45
0 0 45
0 0 45
0 0 45
0 0 45
0 0 45
0 0 45
0 0 45
0 0 45
0 0 45
0 0 45
0 0 45
0 0 45
0 0 45
0 0 45
0 0 45
0 0 45
0 0 45
0 0 45
0 0 45
0 0 47
0 0 47
0 0 47
0 0 47
0 0 47
0 0 47
0 0 47
0 0 48
0 0 48
0 0 48
0 0 48
0 0 50
0 0 51
0 0 52
0 0 50
0 0 52
0 0 50
0 0 50
0 0 50
0 0 50
0 0 50
0 0 50
0 0 50
0 0 50
0 0 50
0 0 52
0 0 55
0 0 54
0 0 54
0 0 57
0 0 57
0 0 57
0 0 57
0 0 57
0 0 57
0 0 56
0 0 55
0 1 56
0 4 75
0 20 84
23 35 82
52 82 94
44 83 50
55 93 47
56 76 40
58 75 22
90 92 58
80 92 44
44 65 14
40 56 11
47 66 13
41 61 5
43 64 11
34 54 0
33 54 0
29 48 0
34 53 0
36 54 0
34 55 0
34 54 0
29 51 0
26 48 0
26 48 0
30 51 0
26 48 0
23 46 0
23 46 0
27 47 0
23 41 0
26 45 0
30 50 0
25 43 0
24 42 0
23 43 0
24 48 0
27 48 0
24 44 0
30 46 0
33 49 0
30 48 0
30 51 0
31 52 0
27 47 0
28 47 0
31 49 0
28 48 0
26 45 0
26 44 0
32 50 0
30 49 0
29 49 0
27 45 0
27 47 0
23 45 0
27 49 0
39 52 0
36 57 12
15 86 106
4 103 139
10 117 140
0 34 91
0 8 60
0 0 47
0 0 42
0 0 42
0 0 42
0 0 42
0 0 42
0 0 42
0 0 42
0 0 42
0 0 42
0 0 42
0 0 42
0 0 42
0 0 42
0 0 42
0 0 42
0 0 42
0 0 42
0 0 42
0 0 42
0 0 42
0 0 42
0 0 42
0 0 42
94 100 115
221 235 255
221 235 255
221 235 255
221 235 255
221 235 255
221 235 255
221 235 255
221 235 255
221 235 255
221 235 255
221 235 255
221 235 255
221 235 255
221 235 255
221 235 255
221 235 255
221 235 255
221 235 255
221 235 255
221 235 255
221 235 255
221 235 255
221 235 255
221 235 255
221 235 255
221 235 255
221 235 255
221 235 255
221 235 255
221 235 255
221 235 255
221 235 255
221 235 255
221 235 255
221 235 255
221 235 255
221 235 255
221 235 255
221 235 255
221 235 255
221 235 255
221 235 255
221 235 255
221 235 255
221 235 255
221 235 255
221 235 255
221 235 255
221 235 255
221 235 255
221 235 255
221 235 255
221 235 255
221 235 255
221 235 255
221 235 255
221 235 255
221 235 255
221 235 255
221 235 255
221 235 255
221 235 255
221 235 255
221 235 255
221 235 255
221 235 255
221 235 255
221 235 255
221 235 255
221 235 255
221 235 255
221 235 255
221 235 255
221 235 255
221 235 255
221 235 255
221 235 255
221 235 255
221 235 255
221 235 255
221 235 255
221 235 255
221 235 255
221 235 255
221 235 255
221 235 255
221 235 255
221 235 255
221 235 255
221 235 255
221 235 255
221 235 255
221 235 255
221 235 255
221 235 255
221 235 255
221 235 255
221 235 255
221 235 255
221 235 255
221 235 255
221 235 255
221 235 255
221 235 255
221 235 255
221 235 255
221 235 255
221 235 255
221 235 255
221 235 255
221 235 255
221 235 255
221 235 255
221 235 255
221 235 255
221 235 255
221 235 255
221 235 255
221 235 255
221 235 255
221 235 255
221 235 255
221 235 255
221 235 255
221 235 255
221 235 255
221 235 255
221 235 255
221 235 255
221 235 255
221 235 255
221 235 255
221 235 255
221 235 255
221 235 255
221 235 255
221 235 255
221 235 255
221 235 255
221 235 255
221 235 255
221 235 255
221 235 255
221 235 255
221 235 255
221 235 255
221 235 255
221 235 255
221 235 255
221 235 255
221 235 255
221 235 255
221 235 255
221 235 255
221 235 255
221 235 255
221 235 255
221 235 255
221 235 255
221 235 255
221 235 255
221 235 255
221 235 255
221 235 255
221 235 255
221 235 255
221 235 255
221 235 255
221 235 255
221 235 255
221 235 255
221 235 255
221 235 255
221 235 255
221 235 255
221 235 255
221 235 255
221 235 255
221 235 255
221 235 255
221 235 255
221 235 255
221 235 255
221 235 255
101 108 124
0 0 45
0 0 45
0 0 45
0 0 45
0 0 45
0 0 45
0 0 45
0 0 45
0 0 45
0 0 45
0 0 45
0 0 45
0 0 45
0 0 45
0 0 45
0 0 45
0 0 45
0 0 45
0 0 45
0 0 45
0 0 45
0 0 45
0 0 45
0 0 45
0 0 46
0 0 45
0 0 45
0 0 45
0 0 45
0 0 45
0 0 45
0 0 45
0 0 45
0 0 45
0 0 45
0 0 45
0 0 45
0 0 45
0 0 46
0 0 46
0 0 46
0 0 46
0 0 45
0 0 45
0 0 45
0 0 45
0 0 45
0 0 45
0 0 45
0 0 45
0 0 45
0 0 46
0 0 46
0 0 47
0 0 48
0 0 48
0 0 48
0 0 48
0 0 48
0 0 48
0 0 48
0 0 48
0 0 48
0 0 48
0 0 48
0 0 48
0 0 48
0 0 48
0 0 48
0 0 48
0 0 48
0 0 48
0 0 48
0 0 48
0 0 48
0 0 48
0 0 48
0 0 48
0 0 48
0 0 48
0 0 48
0 0 48
0 0 46
0 0 45
0 0 45
0 0 45
0 0 45
0 0 45
0 0 47
0 0 48
0 0 48
0 0 48
0 0 48
0 0 48
0 0 49
0 0 48
0 0 48
0 0 48
0 0 48
0 0 50
0 0 53
0 0 54
0 0 53
0 0 54
0 0 53
0 0 50
0 0 50
0 0 51
0 0 50
0 0 50
0 0 50
0 0 50
0 0 50
0 0 52
0 0 53
0 0 55
0 0 56
0 0 57
0 0 57
0 0 57
0 0 58
0 0 58
0 0 57
0 0 57
0 0 59
0 7 63
0 11 72
0 3 70
53 64 102
106 133 137
95 126 76
53 77 33
50 63 16
71 77 37
99 105 85
58 74 38
42 61 7
29 48 0
36 51 0
36 55 0
30 50 0
35 57 0
31 51 0
29 48 0
30 48 0
30 47 0
29 50 0
29 49 0
28 50 0
26 48 0
22 43 0
22 44 0
19 40 0
20 42 0
21 43 0
19 42 0
21 42 0
19 41 0
25 46 0
23 42 0
18 41 0
19 43 0
21 40 0
24 39 0
23 40 0
27 44 0
27 46 0
27 45 0
24 45 0
26 47 0
27 46 0
24 44 0
25 44 0
24 44 0
25 44 0
25 43 0
28 48 0
24 45 0
27 48 0
27 47 0
25 46 0
21 43 0
24 48 0
46 55 6
29 70 44
13 78 105
0 98 140
18 153 160
0 88 135
0 16 74
0 0 55
0 0 45
0 0 43
0 0 42
0 0 42
0 0 42
0 0 42
0 0 42
0 0 42
0 0 42
0 0 42
0 0 42
0 0 42
0 0 42
0 0 42
0 0 42
0 0 42
0 0 42
0 0 42
0 0 42
0 0 42
0 0 42
0 0 42
0 0 44
94 100 115
221 235 255
221 235 255
221 235 255
221 235 255
221 235 255
221 235 255
221 235 255
221 235 255
221 235 255
221 235 255
221 235 255
221 235 255
221 235 255
221 235 255
221 235 255
221 235 255
221 235 255
221 235 255
221 235 255
221 235 255
221 235 255
221 235 255
221 235 255
221 235 255
221 235 255
221 235 255
221 235 255
221 235 255
221 235 255
221 235 255
221 235 255
221 235 255
221 235 255
221 235 255
221 235 255
221 235 255
221 235 255
221 235 255
221 235 255
221 235 255
221 235 255
221 235 255
221 235 255
221 235 255
221 235 255
221 235 255
221 235 255
221 235 255
221 235 255
221 235 255
221 235 255
221 235 255
221 235 255
221 235 255
221 235 255
221 235 255
221 235 255
221 235 255
221 235 255
221 235 255
221 235 255
221 235 255
221 235 255
221 235 255
221 235 255
221 235 255
221 235 255
221 235 255
221 235 255
221 235 255
221 235 255
221 235 255
221 235 255
221 235 255
221 235 255
221 235 255
221 235 255
221 235 255
221 235 255
221 235 255
221 235 255
221 235 255
221 235 255
221 235 255
221 235 255
221 235 255
221 235 255
221 235 255
221 235 255
221 235 255
221 235 255
221 235 255
221 236 255
221 236 255
221 236 255
221 236 255
221 236 255
221 236 255
221 236 255
221 236 255
221 236 255
221 236 255
221 236 255
221 236 255
221 236 255
221 236 255
221 236 255
221 236 255
221 236 255
221 236 255
221 236 255
221 236 255
221 236 255
221 236 255
221 236 255
221 236 255
221 236 255
221 236 255
221 236 255
221 236 255
221 236 255
221 236 255
221 236 255
221 236 255
221 236 255
221 236 255
221 236 255
221 236 255
221 236 255
221 236 255
221 236 255
221 236 255
221 236 255
221 236 255
221 236 255
221 236 255
221 236 255
221 236 255
221 236 255
221 236 255
221 236 255
221 236 255
221 236 255
221 236 255
221 236 255
221 236 255
221 236 255
221 236 255
221 236 255
221 236 255
221 236 255
221 236 255
221 236 255
221 236 255
221 236 255
221 236 255
221 236 255
221 236 255
221 236 255
221 236 255
221 236 255
221 236 255
221 236 255
221 236 255
221 236 255
221 236 255
221 236 255
221 236 255
221 236 255
221 236 255
221 236 255
221 236 255
221 236 255
221 236 255
221 236 255
221 236 255
221 236 255
221 236 255
221 236 255
221 236 255
221 236 255
221 236 255
221 236 255
221 236 255
76 81 98
0 0 45
0 0 45
0 0 45
0 0 45
0 0 45
0 0 45
0 0 45
0 0 45
0 0 45
0 0 45
0 0 45
0 0 45
0 0 45
0 0 45
0 0 45
0 0 45
0 0 45
0 0 45
0 0 46
0 0 46
0 0 46
0 0 46
0 0 45
0 0 46
0 0 48
0 0 46
0 0 45
0 0 45
0 0 45
0 0 45
0 0 45
0 0 45
0 0 45
0 0 45
0 0 45
0 0 45
0 0 45
0 0 45
0 0 46
0 0 48
0 0 48
0 0 48
0 0 48
0 0 46
0 0 46
0 0 46
0 0 45
0 0 45
0 0 45
0 0 45
0 0 45
0 0 46
0 0 46
0 0 46
0 0 46
0 0 46
0 0 47
0 0 48
0 0 48
0 0 48
0 0 48
0 0 48
0 0 48
0 0 48
0 0 48
0 0 48
0 0 48
0 0 48
0 0 48
0 0 48
0 0 48
0 0 48
0 0 48
0 0 48
0 0 48
0 0 48
0 0 48
0 0 48
0 0 48
0 0 48
0 0 48
0 0 48
0 0 46
0 0 46
0 0 46
0 0 46
0 0 46
0 0 46
0 0 47
0 0 48
0 0 48
0 0 48
0 0 48
0 0 48
0 0 48
0 0 48
0 0 49
0 0 49
0 0 49
0 0 51
0 0 53
0 0 54
0 0 55
4 6 51
11 16 47
0 6 54
0 0 53
0 0 51
0 0 51
0 0 51
0 0 51
0 0 50
0 0 52
0 0 52
0 0 53
0 0 54
0 0 56
0 0 57
0 0 58
0 0 58
0 0 58
0 0 58
0 0 58
0 0 62
0 0 66
0 0 73
0 15 83
5 18 81
37 49 62
88 113 83
105 139 96
45 66 24
56 62 23
70 78 34
63 78 25
42 60 9
44 63 6
31 52 0
35 52 0
35 55 0
34 53 0
30 51 0
26 46 0
27 48 0
30 48 0
27 45 0
26 46 0
24 44 0
25 45 0
24 45 0
19 41 0
14 39 0
16 40 0
22 45 0
23 47 0
21 45 0
22 46 0
17 39 0
15 38 0
19 41 0
20 41 0
20 41 0
22 38 0
26 41 0
25 43 0
27 46 0
26 46 0
25 45 0
26 46 0
27 48 0
25 45 0
23 42 0
24 42 0
24 45 0
26 46 0
21 41 0
25 45 0
23 45 0
28 51 0
28 49 0
27 46 0
28 44 0
29 52 0
37 62 24
21 65 46
29 81 53
20 96 109
17 122 132
17 134 156
0 31 90
0 0 60
0 0 45
0 0 41
0 0 44
0 0 41
0 0 43
0 0 42
0 0 42
0 0 41
0 0 42
0 0 42
0 0 42
0 0 42
0 0 42
0 0 42
0 0 42
0 0 42
0 0 42
0 0 42
0 0 42
0 0 42
0 0 42
0 0 42
0 0 43
85 91 107
221 236 255
221 236 255
221 236 255
221 236 255
221 236 255
221 236 255
221 236 255
221 236 255
221 236 255
221 236 255
221 236 255
221 236 255
221 236 255
221 236 255
221 236 255
221 236 255
221 236 255
221 236 255
221 236 255
221 236 255
221 236 255
221 236 255
221 236 255
221 236 255
221 236 255
221 236 255
221 236 255
221 236 255
221 236 255
221 236 255
221 236 255
221 236 255
221 236 255
221 236 255
221 236 255
221 236 255
221 236 255
221 236 255
221 236 255
221 236 255
221 236 255
221 236 255
221 236 255
221 236 255
221 236 255
221 236 255
221 236 255
221 236 255
221 236 255
221 236 255
221 236 255
221 236 255
221 236 255
221 236 255
221 236 255
221 236 255
221 236 255
221 236 255
221 236 255
221 236 255
221 236 255
221 236 255
221 236 255
221 236 255
221 236 255
221 236 255
221 236 255
221 236 255
221 236 255
221 236 255
221 236 255
221 236 255
221 236 255
221 236 255
221 236 255
221 236 255
221 236 255
221 236 255
221 236 255
221 236 255
221 236 255
221 236 255
221 236 255
221 236 255
221 236 255
221 236 255
221 236 255
221 236 255
221 236 255
221 236 255
221 236 255
221 236 255
221 236 255
221 236 255
221 236 255
221 236 255
221 236 255
221 236 255
221 236 255
221 236 255
221 236 255
221 236 255
221 236 255
221 236 255
221 236 255
221 236 255
221 236 255
221 236 255
221 236 255
221 236 255
221 236 255
221 236 255
221 236 255
221 236 255
221 236 255
221 236 255
221 236 255
221 236 255
221 236 255
221 236 255
221 236 255
221 236 255
221 236 255
221 236 255
221 236 255
221 236 255
221 236 255
221 236 255
221 236 255
221 236 255
221 236 255
221 236 255
221 236 255
221 236 255
221 236 255
221 236 255
221 236 255
221 236 255
221 236 255
221 236 255
221 236 255
221 236 255
221 236 255
221 236 255
221 236 255
221 236 255
221 236 255
221 236 255
221 236 255
221 236 255
221 236 255
221 236 255
221 236 255
221 236 255
221 236 255
221 236 255
221 236 255
221 236 255
221 236 255
221 236 255
221 236 255
221 236 255
221 236 255
221 236 255
221 236 255
221 236 255
221 236 255
221 236 255
221 236 255
221 236 255
221 236 255
221 236 255
221 236 255
221 236 255
221 236 255
221 236 255
221 236 255
221 236 255
221 236 255
221 236 255
221 236 255
221 236 255
221 236 255
221 236 255
96 102 118
0 0 45
0 0 45
0 0 45
0 0 45
0 0 45
0 0 45
0 0 45
0 0 45
0 0 45
0 0 45
0 0 45
0 0 45
0 0 45
0 0 45
0 0 45
0 0 45
0 0 45
0 0 45
0 0 45
0 0 45
0 0 45
0 0 45
0 0 45
0 0 46
0 0 48
0 0 46
0 0 45
0 0 45
0 0 45
0 0 45
0 0 45
0 0 45
0 0 45
0 0 45
0 0 45
0 0 45
0 0 45
0 0 45
0 0 45
0 0 46
0 0 46
0 0 46
0 0 46
0 0 47
0 0 48
0 0 47
0 0 45
0 0 45
0 0 45
0 0 45
0 0 45
0 0 45
0 0 45
0 0 45
0 0 45
0 0 45
0 0 47
0 0 48
0 0 48
0 0 48
0 0 48
0 0 48
0 0 48
0 0 48
0 0 48
0 0 48
0 0 48
0 0 48
0 0 48
0 0 48
0 0 48
0 0 48
0 0 48
0 0 48
0 0 48
0 0 48
0 0 48
0 0 48
0 0 48
0 0 48
0 0 48
0 0 48
0 0 48
0 0 48
0 0 48
0 0 48
0 0 48
0 0 48
0 0 48
0 0 48
0 0 48
0 0 48
0 0 48
0 0 48
0 0 48
0 0 48
0 0 50
0 0 50
0 0 50
0 0 50
0 0 53
0 0 51
0 0 58
7 10 46
16 25 36
11 15 50
6 17 47
0 0 52
0 0 54
0 0 52
0 0 51
0 0 52
0 0 53
0 0 53
0 0 53
0 0 53
0 0 53
0 0 57
0 0 57
0 0 58
0 0 57
0 0 58
0 0 59
0 0 63
0 0 69
0 0 70
0 19 80
7 19 86
62 87 57
88 112 98
97 134 122
40 54 23
64 68 30
64 77 33
48 68 16
36 56 0
38 57 0
35 57 0
35 54 0
33 53 0
32 53 0
34 54 0
35 53 0
31 51 0
28 46 0
25 44 0
24 43 0
24 44 0
23 42 0
20 43 0
22 45 0
22 46 0
19 44 0
22 46 0
24 47 0
23 46 0
21 44 0
22 43 0
17 40 0
19 41 0
21 42 0
22 41 0
22 40 0
25 42 0
26 46 0
30 50 0
27 48 0
27 47 0
26 48 0
27 49 0
23 43 0
24 41 0
24 42 0
24 44 0
23 44 0
23 42 0
25 43 0
27 46 0
31 50 0
32 51 0
26 45 0
33 51 0
36 58 0
32 63 17
27 57 23
27 58 26
45 70 34
41 121 114
29 147 131
0 70 109
1 30 92
0 0 49
0 0 48
0 0 42
0 0 41
0 0 43
0 0 43
0 0 41
0 0 40
0 0 42
0 0 42
0 0 42
0 0 42
0 0 42
0 0 42
0 0 42
0 0 42
0 0 42
0 0 42
0 0 42
0 0 42
0 0 42
0 0 42
0 0 42
91 97 112
221 236 255
221 236 255
221 236 255
221 236 255
221 236 255
221 236 255
221 236 255
221 236 255
221 236 255
221 236 255
221 236 255
221 236 255
221 236 255
221 236 255
221 236 255
221 236 255
221 236 255
221 236 255
221 236 255
221 236 255
221 236 255
221 236 255
221 236 255
221 236 255
221 236 255
221 236 255
221 236 255
221 236 255
221 236 255
221 236 255
221 236 255
221 236 255
221 236 255
221 236 255
221 236 255
221 236 255
221 236 255
221 236 255
221 236 255
221 236 255
221 236 255
221 236 255
221 236 255
221 236 255
221 236 255
221 236 255
221 236 255
221 236 255
221 236 255
221 236 255
221 236 255
221 236 255
221 236 255
221 236 255
221 236 255
221 236 255
221 236 255
221 236 255
221 236 255
221 236 255
221 236 255
221 236 255
221 236 255
221 236 255
221 236 255
221 236 255
221 236 255
221 236 255
221 236 255
221 236 255
221 236 255
221 236 255
221 236 255
221 236 255
221 236 255
221 236 255
221 236 255
221 236 255
221 236 255
221 236 255
221 236 255
221 236 255
221 236 255
221 236 255
221 236 255
221 236 255
221 236 255
221 236 255
221 236 255
221 236 255
221 236 255
221 236 255
221 236 255
221 236 255
221 236 255
221 236 255
221 236 255
221 236 255
221 236 255
221 236 255
221 236 255
221 236 255
221 236 255
221 236 255
221 236 255
221 236 255
221 236 255
221 236 255
221 236 255
221 236 255
221 236 255
221 236 255
221 236 255
221 236 255
221 236 255
221 236 255
221 236 255
221 236 255
221 236 255
221 236 255
221 236 255
221 236 255
221 236 255
221 236 255
221 236 255
221 236 255
221 236 255
221 236 255
221 236 255
221 236 255
221 236 255
221 236 255
221 236 255
221 236 255
221 236 255
221 236 255
221 236 255
221 236 255
221 236 255
221 236 255
221 236 255
221 236 255
221 236 255
221 236 255
221 236 255
221 236 255
221 236 255
221 236 255
221 236 255
221 236 255
221 236 255
221 236 255
221 236 255
221 236 255
221 236 255
221 236 255
221 236 255
221 236 255
221 236 255
221 236 255
221 236 255
221 236 255
221 236 255
221 236 255
221 236 255
221 236 255
221 236 255
221 236 255
221 236 255
221 236 255
221 236 255
221 236 255
221 236 255
221 236 255
221 236 255
221 236 255
221 236 255
221 236 255
221 236 255
221 236 255
221 236 255
221 236 255
221 236 255
221 236 255
85 91 107
0 0 44
0 0 45
0 0 45
0 0 45
0 0 45
0 0 44
0 0 44
0 0 43
0 0 44
0 0 45
0 0 45
0 0 45
0 0 45
0 0 45
0 0 45
0 0 45
0 0 45
0 0 45
0 0 45
0 0 45
0 0 45
0 0 45
0 0 45
0 0 45
0 0 45
0 0 45
0 0 45
0 0 45
0 0 45
0 0 45
0 0 45
0 0 45
0 0 45
0 0 45
0 0 45
0 0 45
0 0 45
0 0 45
0 0 45
0 0 45
0 0 45
0 0 45
0 0 45
0 0 46
0 0 47
0 0 45
0 0 45
0 0 45
0 0 45
0 0 45
0 0 45
0 0 45
0 0 45
0 0 45
0 0 45
0 0 45
0 0 47
0 0 48
0 0 48
0 0 48
0 0 48
0 0 48
0 0 48
0 0 48
0 0 48
0 0 48
0 0 48
0 0 48
0 0 48
0 0 48
0 0 48
0 0 48
0 0 48
0 0 48
0 0 48
0 0 48
0 0 48
0 0 48
0 0 48
0 0 48
0 0 48
0 0 48
0 0 48
0 0 48
0 0 48
0 0 48
0 0 48
0 0 48
0 0 48
0 0 48
0 0 48
0 0 48
0 0 48
0 0 48
0 0 48
0 0 48
0 0 48
0 0 50
0 0 50
0 0 50
0 0 54
0 0 53
0 0 55
8 12 50
18 28 37
8 12 49
2 13 40
0 0 53
0 0 56
0 0 51
0 0 50
0 0 53
0 0 52
0 0 49
0 0 50
0 0 52
0 0 53
0 0 55
0 0 56
0 0 57
0 0 57
0 0 57
0 0 59
0 0 63
0 0 67
0 2 67
0 18 74
34 48 79
61 76 30
88 100 93
109 136 123
60 70 26
73 77 39
53 64 19
32 53 3
31 51 0
34 53 0
36 56 0
33 53 0
31 51 0
34 55 0
39 58 0
36 55 0
31 50 0
28 48 0
28 46 0
26 45 0
27 48 0
24 44 0
20 42 0
23 46 0
26 48 0
23 47 0
20 44 0
17 40 0
14 38 0
17 40 0
19 43 0
19 41 0
20 44 0
21 43 0
24 44 0
27 46 0
25 45 0
23 41 0
24 44 0
27 48 0
26 48 0
23 44 0
22 42 0
23 43 0
21 42 0
25 44 0
24 45 0
20 40 0
27 46 0
24 45 0
26 48 0
27 48 0
30 50 0
27 50 0
31 51 0
36 57 0
32 56 0
27 53 0
21 53 0
47 61 2
31 95 76
37 61 10
34 70 28
25 85 94
15 56 90
0 17 54
0 0 37
0 0 50
0 0 39
0 0 41
0 0 42
0 0 41
0 0 42
0 0 42
0 0 42
0 0 42
0 0 42
0 0 42
0 0 42
0 0 42
0 0 42
0 0 42
0 0 42
0 0 42
0 0 42
0 0 42
0 0 42
115 122 137
221 236 255
221 236 255
221 236 255
221 236 255
221 236 255
221 236 255
221 236 255
221 236 255
221 236 255
221 236 255
221 236 255
221 236 255
221 236 255
221 236 255
221 236 255
221 236 255
221 236 255
221 236 255
221 236 255
221 236 255
221 236 255
221 236 255
221 236 255
221 236 255
221 236 255
221 236 255
221 236 255
221 236 255
221 236 255
221 236 255
221 236 255
221 236 255
221 236 255
221 236 255
221 236 255
221 236 255
221 236 255
221 236 255
221 236 255
221 236 255
221 236 255
221 236 255
221 236 255
221 236 255
221 236 255
221 236 255
221 236 255
221 236 255
221 236 255
221 236 255
221 236 255
221 236 255
221 236 255
221 236 255
221 236 255
221 236 255
221 236 255
221 236 255
221 236 255
221 236 255
221 236 255
221 236 255
221 236 255
221 236 255
221 236 255
221 236 255
221 236 255
221 236 255
221 236 255
221 236 255
221 236 255
221 236 255
221 236 255
221 236 255
221 236 255
221 236 255
221 236 255
221 236 255
221 236 255
221 236 255
221 236 255
221 236 255
221 236 255
221 236 255
221 236 255
221 236 255
221 236 255
221 236 255
221 236 255
221 236 255
221 236 255
221 236 255
221 236 255
221 236 255
221 236 255
221 236 255
221 236 255
221 236 255
221 236 255
221 236 255
221 236 255
221 236 255
221 236 255
221 236 255
221 236 255
221 236 255
221 236 255
221 236 255
221 236 255
221 236 255
221 236 255
221 236 255
221 236 255
221 236 255
221 236 255
221 236 255
221 236 255
221 236 255
221 236 255
221 236 255
221 236 255
221 236 255
221 236 255
221 236 255
221 236 255
221 236 255
221 236 255
221 236 255
221 236 255
221 236 255
221 236 255
221 236 255
221 236 255
221 236 255
221 236 255
221 236 255
221 236 255
221 236 255
221 236 255
221 236 255
221 236 255
221 236 255
221 236 255
221 236 255
221 236 255
221 236 255
221 236 255
221 236 255
221 236 255
221 236 255
221 236 255
221 236 255
221 236 255
221 236 255
221 236 255
221 236 255
221 236 255
221 236 255
221 236 255
221 236 255
221 236 255
221 236 255
221 236 255
221 236 255
221 236 255
221 236 255
221 236 255
221 236 255
221 236 255
221 236 255
221 236 255
221 236 255
221 236 255
221 236 255
221 236 255
221 236 255
221 236 255
221 236 255
221 236 255
221 236 255
221 236 255
221 236 255
221 236 255
221 236 255
106 113 128
0 0 42
0 0 44
0 0 45
0 0 44
0 0 43
0 0 42
0 0 42
0 0 42
0 0 42
0 0 44
0 0 45
0 0 45
0 0 44
0 0 43
0 0 43
0 0 43
0 0 43
0 0 43
0 0 44
0 0 45
0 0 45
0 0 45
0 0 45
0 0 45
0 0 45
0 0 44
0 0 43
0 0 43
0 0 43
0 0 44
0 0 45
0 0 45
0 0 45
0 0 45
0 0 45
0 0 45
0 0 45
0 0 45
0 0 45
0 0 45
0 0 45
0 0 45
0 0 45
0 0 45
0 0 45
0 0 45
0 0 45
0 0 45
0 0 45
0 0 45
0 0 45
0 0 45
0 0 45
0 0 45
0 0 45
0 0 45
0 0 45
0 0 46
0 0 47
0 0 47
0 0 46
0 0 47
0 0 47
0 0 46
0 0 47
0 0 47
0 0 47
0 0 46
0 0 47
0 0 47
0 0 47
0 0 48
0 0 48
0 0 48
0 0 48
0 0 48
0 0 47
0 0 47
0 0 46
0 0 47
0 0 47
0 0 48
0 0 48
0 0 48
0 0 48
0 0 48
0 0 48
0 0 48
0 0 48
0 0 48
0 0 48
0 0 48
0 0 48
0 0 48
0 0 47
0 0 47
0 0 47
0 0 48
0 0 50
0 0 50
0 0 49
0 0 47
0 0 54
0 2 58
0 8 49
0 0 52
0 0 52
0 0 48
0 0 50
0 0 47
0 0 49
0 0 51
0 0 50
0 0 48
0 0 48
0 0 50
0 0 52
0 0 53
0 0 54
0 0 56
0 0 57
0 0 57
0 0 60
0 0 64
0 0 67
0 9 76
0 26 92
55 72 67
57 69 21
121 134 120
125 144 125
60 70 30
71 76 38
47 59 14
33 52 0
35 53 0
34 52 0
32 52 0
33 54 0
30 51 0
31 52 0
33 52 0
27 47 0
27 46 0
31 51 0
32 51 0
26 46 0
28 49 0
27 48 0
26 48 0
25 48 0
23 45 0
23 46 0
24 47 0
19 41 0
14 35 0
15 38 0
18 40 0
18 40 0
22 44 0
21 42 0
22 41 0
23 45 0
25 46 0
21 42 0
18 38 0
25 43 0
27 49 0
23 43 0
13 32 0
22 42 0
21 42 0
26 46 0
26 46 0
23 42 0
25 47 0
28 52 0
28 52 0
27 51 0
33 57 0
28 49 0
34 52 0
37 57 0
29 52 0
26 50 0
23 53 5
39 68 32
35 89 53
42 65 0
42 65 0
39 65 14
29 75 62
14 50 73
0 3 51
0 0 45
0 0 44
0 0 41
0 0 41
0 0 40
0 0 42
0 0 42
0 0 42
0 0 42
0 0 42
0 0 42
0 0 42
0 0 42
0 0 42
0 0 42
0 0 42
0 0 42
0 0 42
0 0 42
0 0 42
85 91 106
221 236 255
221 236 255
221 236 255
221 236 255
221 236 255
221 236 255
221 236 255
221 236 255
221 236 255
221 236 255
221 236 255
221 236 255
221 236 255
221 236 255
221 236 255
221 236 255
221 236 255
221 236 255
221 236 255
221 236 255
221 236 255
221 236 255
221 236 255
221 236 255
221 236 255
221 236 255
221 236 255
221 236 255
221 236 255
221 236 255
221 236 255
221 236 255
221 236 255
221 236 255
221 236 255
221 236 255
221 236 255
221 236 255
221 236 255
221 236 255
221 236 255
221 236 255
221 236 255
221 236 255
221 236 255
221 236 255
221 236 255
221 236 255
221 236 255
221 236 255
221 236 255
221 236 255
221 236 255
221 236 255
221 236 255
221 236 255
221 236 255
221 236 255
221 236 255
221 236 255
221 236 255
221 236 255
221 236 255
221 236 255
221 236 255
221 236 255
221 236 255
221 236 255
221 236 255
221 236 255
221 236 255
221 236 255
221 236 255
221 236 255
221 236 255
221 236 255
221 236 255
221 236 255
221 236 255
221 236 255
221 236 255
221 236 255
221 236 255
221 236 255
221 236 255
221 236 255
221 236 255
221 236 255
221 236 255
221 236 255
221 236 255
221 236 255
221 236 255
221 236 255
221 236 255
221 236 255
221 236 255
221 236 255
221 236 255
221 236 255
221 236 255
221 236 255
221 236 255
221 236 255
221 236 255
221 236 255
221 236 255
221 236 255
221 236 255
221 236 255
221 236 255
221 236 255
221 236 255
221 236 255
221 236 255
221 236 255
221 236 255
221 236 255
221 236 255
221 236 255
221 236 255
221 236 255
221 236 255
221 236 255
221 236 255
221 236 255
221 236 255
221 236 255
221 236 255
221 236 255
221 236 255
221 236 255
221 236 255
221 236 255
221 236 255
221 236 255
221 236 255
221 236 255
221 236 255
221 236 255
221 236 255
221 236 255
221 236 255
221 236 255
221 236 255
221 236 255
221 236 255
221 236 255
221 236 255
221 236 255
221 236 255
221 236 255
221 236 255
221 236 255
221 236 255
221 236 255
221 236 255
221 236 255
221 236 255
221 236 255
221 236 255
221 236 255
221 236 255
221 236 255
221 236 255
221 236 255
221 236 255
221 236 255
221 236 255
221 236 255
221 236 255
221 236 255
221 236 255
221 236 255
221 236 255
221 236 255
221 236 255
221 236 255
221 236 255
221 236 255
221 236 255
221 236 255
221 236 255
221 236 255
96 102 118
0 0 42
0 0 44
0 0 42
0 0 42
0 0 42
0 0 42
0 0 42
0 0 42
0 0 42
0 0 42
0 0 42
0 0 42
0 0 42
0 0 42
0 0 42
0 0 42
0 0 42
0 0 42
0 0 42
0 0 42
0 0 43
0 0 42
0 0 43
0 0 42
0 0 42
0 0 42
0 0 42
0 0 42
0 0 42
0 0 43
0 0 45
0 0 45
0 0 45
0 0 45
0 0 45
0 0 45
0 0 45
0 0 45
0 0 45
0 0 45
0 0 45
0 0 45
0 0 45
0 0 45
0 0 45
0 0 45
0 0 45
0 0 45
0 0 45
0 0 45
0 0 45
0 0 45
0 0 45
0 0 45
0 0 45
0 0 45
0 0 45
0 0 45
0 0 45
0 0 45
0 0 45
0 0 45
0 0 45
0 0 45
0 0 45
0 0 45
0 0 45
0 0 45
0 0 45
0 0 45
0 0 46
0 0 46
0 0 46
0 0 46
0 0 46
0 0 46
0 0 45
0 0 45
0 0 45
0 0 45
0 0 45
0 0 46
0 0 47
0 0 48
0 0 48
0 0 48
0 0 48
0 0 48
0 0 47
0 0 46
0 0 46
0 0 46
0 0 46
0 0 46
0 0 45
0 0 45
0 0 45
0 0 48
0 0 48
0 0 50
0 0 49
0 0 46
0 0 47
0 0 49
0 0 46
0 0 47
0 0 57
0 0 48
0 0 46
0 0 45
0 0 47
0 0 46
0 0 47
0 0 48
0 0 48
0 0 49
0 0 52
0 0 53
0 0 53
0 0 55
0 0 57
0 0 58
0 0 61
0 0 65
0 4 71
0 13 74
0 27 91
60 80 81
54 74 22
122 141 133
148 163 161
54 64 27
70 75 35
40 53 11
28 48 0
32 52 0
29 48 0
30 49 0
31 53 0
30 52 0
29 50 0
27 48 0
26 46 0
27 46 0
33 53 0
31 52 0
23 44 0
25 46 0
27 48 0
30 52 0
29 52 0
21 45 0
20 45 0
25 47 0
21 44 0
14 37 0
17 41 0
20 43 0
22 43 0
21 43 0
19 40 0
19 40 0
19 41 0
21 43 0
23 45 0
21 43 0
20 41 0
23 47 0
25 46 0
16 35 0
21 42 0
20 43 0
25 45 0
26 47 0
27 46 0
30 46 0
41 55 0
38 52 0
41 56 0
44 59 0
39 56 0
40 57 0
33 54 0
22 47 0
27 53 12
22 66 23
25 79 42
36 63 13
37 63 0
40 66 0
38 68 0
34 62 12
29 69 58
7 25 71
1 9 49
0 0 41
0 0 43
0 0 44
0 0 43
0 0 42
0 0 42
0 0 42
0 0 42
0 0 42
0 0 42
0 0 42
0 0 42
0 0 42
0 0 42
0 0 42
0 0 42
0 0 42
0 0 42
0 0 42
117 124 140
221 236 255
221 236 255
221 236 255
221 236 255
221 236 255
221 236 255
221 236 255
221 236 255
221 236 255
221 236 255
221 236 255
221 236 255
221 236 255
221 236 255
221 236 255
221 236 255
221 236 255
221 236 255
221 236 255
221 236 255
221 236 255
221 236 255
221 236 255
221 236 255
221 236 255
221 236 255
221 236 255
221 236 255
221 236 255
221 236 255
221 236 255
221 236 255
221 236 255
221 236 255
221 236 255
221 236 255
221 236 255
221 236 255
221 236 255
221 236 255
221 236 255
221 236 255
221 236 255
221 236 255
221 236 255
221 236 255
221 236 255
221 236 255
221 236 255
221 236 255
221 236 255
221 236 255
221 236 255
221 236 255
221 236 255
221 236 255
221 236 255
221 236 255
221 236 255
221 236 255
221 236 255
221 236 255
221 236 255
221 236 255
221 236 255
221 236 255
221 236 255
221 236 255
221 236 255
221 236 255
221 236 255
221 236 255
221 236 255
221 236 255
221 236 255
221 236 255
221 236 255
221 236 255
221 236 255
221 236 255
221 236 255
221 236 255
221 236 255
221 236 255
221 236 255
221 236 255
221 236 255
221 236 255
221 236 255
221 236 255
221 236 255
221 236 255
221 236 255
221 236 255
221 236 255
221 236 255
221 236 255
221 236 255
221 236 255
221 236 255
221 236 255
221 236 255
221 236 255
221 236 255
221 236 255
221 236 255
221 236 255
221 236 255
221 236 255
221 236 255
221 236 255
221 236 255
221 236 255
221 236 255
221 236 255
221 236 255
221 236 255
221 236 255
221 236 255
221 236 255
221 236 255
221 236 255
221 236 255
221 236 255
221 236 255
221 236 255
221 236 255
221 236 255
221 236 255
221 236 255
221 236 255
221 236 255
221 236 255
221 236 255
221 236 255
221 236 255
221 236 255
221 236 255
221 236 255
221 236 255
221 236 255
221 236 255
221 236 255
221 236 255
221 236 255
221 236 255
221 236 255
221 236 255
221 236 255
221 236 255
221 236 255
221 236 255
221 236 255
221 236 255
221 236 255
221 236 255
221 236 255
221 236 255
221 236 255
221 236 255
221 236 255
221 236 255
221 236 255
221 236 255
221 236 255
221 236 255
221 236 255
221 236 255
221 236 255
221 236 255
221 236 255
221 236 255
221 236 255
221 236 255
221 236 255
221 236 255
221 236 255
221 236 255
221 236 255
221 236 255
221 236 255
221 236 255
221 236 255
221 236 255
127 135 151
0 0 42
0 0 44
0 0 40
0 0 41
0 0 42
0 0 42
0 0 42
0 0 42
0 0 42
0 0 42
0 0 42
0 0 42
0 0 42
0 0 42
0 0 42
0 0 41
0 0 40
0 0 41
0 0 42
0 0 42
0 0 42
0 0 42
0 0 42
0 0 42
0 0 42
0 0 42
0 0 42
0 0 42
0 0 42
0 0 42
0 0 42
0 0 42
0 0 42
0 0 42
0 0 42
0 0 42
0 0 42
0 0 42
0 0 43
0 0 44
0 0 44
0 0 44
0 0 44
0 0 44
0 0 45
0 0 45
0 0 45
0 0 45
0 0 45
0 0 45
0 0 45
0 0 45
0 0 45
0 0 45
0 0 45
0 0 45
0 0 45
0 0 45
0 0 45
0 0 45
0 0 45
0 0 45
0 0 45
0 0 45
0 0 45
0 0 45
0 0 45
0 0 45
0 0 45
0 0 45
0 0 45
0 0 45
0 0 45
0 0 45
0 0 45
0 0 45
0 0 45
0 0 45
0 0 45
0 0 45
0 0 45
0 0 45
0 0 45
0 0 45
0 0 45
0 0 45
0 0 45
0 0 45
0 0 45
0 0 45
0 0 45
0 0 45
0 0 45
0 0 45
0 0 45
0 0 45
0 0 47
0 0 48
0 0 48
0 0 48
0 0 47
0 0 44
0 0 45
0 0 53
0 0 47
0 0 38
0 0 45
0 0 48
0 0 47
0 0 45
0 0 45
0 0 44
0 0 44
0 0 47
0 0 48
0 0 50
0 0 52
0 0 53
0 0 53
0 0 57
0 0 61
0 0 61
0 2 64
0 11 70
0 19 78
0 23 85
8 38 108
73 92 101
54 75 29
116 139 115
176 184 186
54 59 26
58 66 23
41 57 8
28 52 0
29 50 0
27 48 0
29 51 0
30 52 0
30 52 0
30 50 0
30 51 0
30 51 0
28 49 0
32 53 0
30 50 0
24 44 0
24 43 0
24 49 0
26 50 0
30 51 0
23 45 0
20 42 0
20 44 0
20 43 0
16 40 0
22 45 0
23 48 0
26 51 0
27 50 0
22 43 0
23 44 0
21 42 0
19 40 0
19 42 0
21 44 0
23 44 0
19 41 0
24 47 0
21 45 0
23 45 0
22 42 0
25 45 0
31 49 0
35 51 0
35 51 0
38 53 0
36 50 0
44 60 0
34 51 0
32 52 0
31 53 0
26 50 0
30 52 0
29 49 0
31 53 0
38 51 0
34 61 0
39 61 0
35 62 0
37 61 2
40 63 3
31 64 35
21 69 85
50 65 69
15 23 53
0 1 46
0 0 50
0 0 43
0 0 42
0 0 42
0 0 42
0 0 42
0 0 42
0 0 42
0 0 42
0 0 42
0 0 42
0 0 42
0 0 42
0 0 42
0 0 42
0 0 42
0 0 42
110 118 133
221 236 255
221 236 255
221 236 255
221 236 255
221 236 255
221 236 255
221 236 255
221 236 255
221 236 255
221 236 255
221 236 255
221 236 255
221 236 255
221 236 255
221 236 255
221 236 255
221 236 255
221 236 255
221 236 255
221 236 255
221 236 255
221 236 255
221 236 255
221 236 255
221 236 255
221 236 255
221 236 255
221 236 255
221 236 255
221 236 255
221 236 255
221 236 255
221 236 255
221 236 255
221 236 255
221 236 255
221 236 255
221 236 255
221 236 255
221 236 255
221 236 255
221 236 255
221 236 255
221 236 255
221 236 255
221 236 255
221 236 255
221 236 255
221 236 255
221 236 255
221 236 255
221 236 255
221 236 255
221 236 255
221 236 255
221 236 255
221 236 255
221 236 255
221 236 255
221 236 255
221 236 255
221 236 255
221 236 255
221 236 255
221 236 255
221 236 255
221 236 255
221 236 255
221 236 255
221 236 255
221 236 255
221 236 255
221 236 255
221 236 255
221 236 255
221 236 255
221 236 255
221 236 255
221 236 255
221 236 255
221 236 255
221 236 255
221 236 255
221 236 255
221 236 255
221 236 255
221 236 255
221 236 255
221 236 255
221 236 255
221 236 255
221 236 255
222 236 255
222 236 255
222 236 255
222 236 255
222 236 255
222 236 255
222 236 255
222 236 255
222 236 255
222 236 255
222 236 255
222 236 255
222 236 255
222 236 255
222 236 255
222 236 255
222 236 255
222 236 255
222 236 255
222 236 255
222 236 255
222 236 255
222 236 255
222 236 255
222 236 255
222 236 255
222 236 255
222 236 255
222 236 255
222 236 255
222 236 255
222 236 255
222 236 255
222 236 255
222 236 255
222 236 255
222 236 255
222 236 255
222 236 255
222 236 255
222 236 255
222 236 255
222 236 255
222 236 255
222 236 255
222 236 255
222 236 255
222 236 255
222 236 255
222 236 255
222 236 255
222 236 255
222 236 255
222 236 255
222 236 255
222 236 255
222 236 255
222 236 255
222 236 255
222 236 255
222 236 255
222 236 255
222 236 255
222 236 255
222 236 255
222 236 255
222 236 255
222 236 255
222 236 255
222 236 255
222 236 255
222 236 255
222 236 255
222 236 255
222 236 255
222 236 255
222 236 255
222 236 255
222 236 255
222 236 255
222 236 255
222 236 255
222 236 255
222 236 255
222 236 255
222 236 255
222 236 255
222 236 255
222 236 255
222 236 255
222 236 255
222 236 255
111 118 133
0 0 42
0 0 42
0 0 42
0 0 42
0 0 42
0 0 42
0 0 42
0 0 42
0 0 42
0 0 42
0 0 42
0 0 42
0 0 42
0 0 42
0 0 42
0 0 41
0 0 41
0 0 41
0 0 41
0 0 42
0 0 42
0 0 42
0 0 42
0 0 42
0 0 42
0 0 42
0 0 42
0 0 42
0 0 42
0 0 42
0 0 42
0 0 42
0 0 42
0 0 42
0 0 42
0 0 42
0 0 42
0 0 42
0 0 42
0 0 42
0 0 42
0 0 42
0 0 42
0 0 42
0 0 44
0 0 44
0 0 44
0 0 44
0 0 44
0 0 43
0 0 44
0 0 44
0 0 44
0 0 44
0 0 44
0 0 44
0 0 44
0 0 44
0 0 44
0 0 44
0 0 44
0 0 44
0 0 45
0 0 45
0 0 45
0 0 45
0 0 45
0 0 45
0 0 45
0 0 45
0 0 45
0 0 45
0 0 45
0 0 45
0 0 45
0 0 45
0 0 45
0 0 45
0 0 45
0 0 45
0 0 45
0 0 45
0 0 45
0 0 45
0 0 45
0 0 45
0 0 45
0 0 45
0 0 45
0 0 45
0 0 45
0 0 45
0 0 45
0 0 45
0 0 45
0 0 46
0 0 48
0 0 48
0 0 48
0 0 48
0 0 49
0 0 49
0 0 42
0 0 49
0 0 47
0 0 47
0 0 52
0 0 46
0 0 46
0 0 44
0 0 44
0 0 44
0 0 45
0 0 48
0 0 50
0 0 51
0 0 52
0 0 53
0 0 56
0 0 61
0 0 64
0 3 65
0 11 70
0 15 76
0 25 87
0 32 94
0 32 89
12 26 88
50 85 95
97 136 142
87 104 94
62 73 26
57 67 24
38 55 6
22 44 0
29 51 0
31 53 0
29 51 0
31 53 0
28 50 0
23 43 0
26 47 0
30 52 0
29 50 0
28 52 0
27 49 0
24 45 0
23 44 0
24 47 0
25 48 0
27 47 0
25 46 0
25 46 0
26 49 0
22 45 0
22 47 0
22 47 0
27 49 0
28 51 0
29 52 0
26 49 0
23 46 0
18 40 0
14 37 0
17 40 0
22 42 0
24 44 0
19 38 0
23 44 0
29 50 0
25 44 0
23 42 0
27 47 0
30 48 0
30 49 0
32 51 0
26 50 0
28 50 0
35 58 0
26 49 0
28 50 0
39 62 0
33 56 0
30 52 0
28 52 0
28 53 0
35 56 0
33 60 0
38 58 0
34 56 0
37 54 5
44 63 4
36 66 26
34 63 26
55 70 35
44 61 38
32 45 40
40 56 34
22 26 48
0 0 39
0 0 39
0 0 41
0 0 41
0 0 42
0 0 41
0 0 42
0 0 42
0 0 42
0 0 42
0 0 42
0 0 42
0 0 42
0 0 42
0 0 42
127 135 151
222 236 255
222 236 255
222 236 255
222 236 255
222 236 255
222 236 255
222 236 255
222 236 255
222 236 255
222 236 255
222 236 255
222 236 255
222 236 255
222 236 255
222 236 255
222 236 255
222 236 255
222 236 255
222 236 255
222 236 255
222 236 255
222 236 255
222 236 255
222 236 255
222 236 255
222 236 255
222 236 255
222 236 255
222 236 255
222 236 255
222 236 255
222 236 255
222 236 255
222 236 255
222 236 255
222 236 255
222 236 255
222 236 255
222 236 255
222 236 255
222 236 255
222 236 255
222 236 255
222 236 255
222 236 255
222 236 255
222 236 255
222 236 255
222 236 255
222 236 255
222 236 255
222 236 255
222 236 255
222 236 255
222 236 255
222 236 255
222 236 255
222 236 255
222 236 255
222 236 255
222 236 255
222 236 255
222 236 255
222 236 255
222 236 255
222 236 255
222 236 255
222 236 255
222 236 255
222 236 255
222 236 255
222 236 255
222 236 255
222 236 255
222 236 255
222 236 255
222 236 255
222 236 255
222 236 255
222 236 255
222 236 255
222 236 255
222 236 255
222 236 255
222 236 255
222 236 255
222 236 255
222 236 255
222 236 255
222 236 255
222 236 255
222 236 255
222 236 255
222 236 255
222 236 255
222 236 255
222 236 255
222 236 255
222 236 255
222 236 255
222 236 255
222 236 255
222 236 255
222 236 255
222 236 255
222 236 255
222 236 255
222 236 255
222 236 255
222 236 255
222 236 255
222 236 255
222 236 255
222 236 255
222 236 255
222 236 255
222 236 255
222 236 255
222 236 255
222 236 255
222 236 255
222 236 255
222 236 255
222 236 255
222 236 255
222 236 255
222 236 255
222 236 255
222 236 255
222 236 255
222 236 255
222 236 255
222 236 255
222 236 255
222 236 255
222 236 255
222 236 255
222 236 255
222 236 255
222 236 255
222 236 255
222 236 255
222 236 255
222 236 255
222 236 255
222 236 255
222 236 255
222 236 255
222 236 255
222 236 255
222 236 255
222 236 255
222 236 255
222 236 255
222 236 255
222 236 255
222 236 255
222 236 255
222 236 255
222 236 255
222 236 255
222 236 255
222 236 255
222 236 255
222 236 255
222 236 255
222 236 255
222 236 255
222 236 255
222 236 255
222 236 255
222 236 255
222 236 255
222 236 255
222 236 255
222 236 255
222 236 255
222 236 255
222 236 255
222 236 255
222 236 255
222 236 255
222 236 255
222 236 255
155 165 181
0 0 42
0 0 42
0 0 42
0 0 42
0 0 42
0 0 42
0 0 42
0 0 42
0 0 42
0 0 42
0 0 42
0 0 42
0 0 42
0 0 42
0 0 42
0 0 42
0 0 42
0 0 42
0 0 42
0 0 42
0 0 42
0 0 42
0 0 42
0 0 42
0 0 42
0 0 42
0 0 42
0 0 42
0 0 42
0 0 42
0 0 42
0 0 42
0 0 42
0 0 42
0 0 42
0 0 42
0 0 42
0 0 42
0 0 42
0 0 42
0 0 42
0 0 42
0 0 42
0 0 42
0 0 42
0 0 42
0 0 42
0 0 42
0 0 42
0 0 42
0 0 42
0 0 42
0 0 42
0 0 42
0 0 42
0 0 42
0 0 42
0 0 42
0 0 42
0 0 42
0 0 42
0 0 43
0 0 45
0 0 45
0 0 45
0 0 45
0 0 45
0 0 45
0 0 45
0 0 45
0 0 45
0 0 45
0 0 45
0 0 45
0 0 45
0 0 45
0 0 45
0 0 45
0 0 45
0 0 45
0 0 45
0 0 45
0 0 45
0 0 45
0 0 45
0 0 45
0 0 45
0 0 45
0 0 45
0 0 45
0 0 45
0 0 45
0 0 45
0 0 45
0 0 46
0 0 48
0 0 48
0 0 48
0 0 48
0 0 48
0 0 48
0 0 48
0 0 46
0 0 47
0 0 48
0 0 47
0 0 45
0 0 48
0 0 47
0 0 45
0 0 43
0 0 44
0 0 45
0 0 45
0 0 48
0 0 49
0 0 52
0 0 55
0 0 59
0 0 64
0 0 65
0 3 67
0 10 72
0 16 77
0 22 84
0 23 87
0 24 87
4 30 92
48 96 125
96 137 134
67 79 53
59 65 29
45 61 12
33 52 0
24 44 0
26 47 0
25 49 0
30 52 0
31 51 0
26 46 0
22 43 0
23 44 0
28 47 0
27 48 0
25 49 0
24 49 0
24 45 0
23 46 0
24 48 0
23 45 0
21 44 0
24 48 0
30 53 0
31 54 0
27 51 0
19 44 0
19 44 0
23 44 0
24 46 0
25 46 0
25 47 0
24 47 0
20 43 0
14 38 0
17 40 0
23 43 0
23 44 0
23 42 0
27 44 0
32 52 0
27 46 0
26 47 0
28 49 0
25 45 0
24 48 0
25 48 0
25 48 0
28 49 0
29 50 0
27 49 0
34 53 0
43 66 0
37 61 0
36 59 0
27 50 0
33 55 0
36 58 2
30 53 0
36 58 0
37 58 0
38 59 0
42 62 0
35 62 3
33 54 0
42 59 3
39 59 4
44 65 8
47 69 6
52 69 25
16 22 48
0 0 42
0 0 44
0 0 43
0 0 43
0 0 41
0 0 42
0 0 42
0 0 42
0 0 42
0 0 42
0 0 42
0 0 42
0 0 42
0 0 42
136 145 161
222 236 255
222 236 255
222 236 255
222 236 255
222 236 255
222 236 255
222 236 255
222 236 255
222 236 255
222 236 255
222 236 255
222 236 255
222 236 255
222 236 255
222 236 255
222 236 255
222 236 255
222 236 255
222 236 255
222 236 255
222 236 255
222 236 255
222 236 255
222 236 255
222 236 255
222 236 255
222 236 255
222 236 255
222 236 255
222 236 255
222 236 255
222 236 255
222 236 255
222 236 255
222 236 255
222 236 255
222 236 255
222 236 255
222 236 255
222 236 255
222 236 255
222 236 255
222 236 255
222 236 255
222 236 255
222 236 255
222 236 255
222 236 255
222 236 255
222 236 255
222 236 255
222 236 255
222 236 255
222 236 255
222 236 255
222 236 255
222 236 255
222 236 255
222 236 255
222 236 255
222 236 255
222 236 255
222 236 255
222 236 255
222 236 255
222 236 255
222 236 255
222 236 255
222 236 255
222 236 255
222 236 255
222 236 255
222 236 255
222 236 255
222 236 255
222 236 255
222 236 255
222 236 255
222 236 255
222 236 255
222 236 255
222 236 255
222 236 255
222 236 255
222 236 255
222 236 255
222 236 255
222 236 255
222 236 255
222 236 255
222 236 255
222 236 255
222 236 255
222 236 255
222 236 255
222 236 255
222 236 255
222 236 255
222 236 255
222 236 255
222 236 255
222 236 255
222 236 255
222 236 255
222 236 255
222 236 255
222 236 255
222 236 255
222 236 255
222 236 255
222 236 255
222 236 255
222 236 255
222 236 255
222 236 255
222 236 255
222 236 255
222 236 255
222 236 255
222 236 255
222 236 255
222 236 255
222 236 255
222 236 255
222 236 255
222 236 255
222 236 255
222 236 255
222 236 255
222 236 255
222 236 255
222 236 255
222 236 255
222 236 255
222 236 255
222 236 255
222 236 255
222 236 255
222 236 255
222 236 255
222 236 255
222 236 255
222 236 255
222 236 255
222 236 255
222 236 255
222 236 255
222 236 255
222 236 255
222 236 255
222 236 255
222 236 255
222 236 255
222 236 255
222 236 255
222 236 255
222 236 255
222 236 255
222 236 255
222 236 255
222 236 255
222 236 255
222 236 255
222 236 255
222 236 255
222 236 255
222 236 255
222 236 255
222 236 255
222 236 255
222 236 255
222 236 255
222 236 255
222 236 255
222 236 255
222 236 255
222 236 255
222 236 255
222 236 255
222 236 255
222 236 255
222 236 255
222 236 255
222 236 255
155 165 181
0 0 42
0 0 42
0 0 42
0 0 42
0 0 42
0 0 42
0 0 42
0 0 42
0 0 42
0 0 42
0 0 42
0 0 42
0 0 42
0 0 42
0 0 42
0 0 42
0 0 42
0 0 42
0 0 42
0 0 42
0 0 42
0 0 42
0 0 42
0 0 42
0 0 42
0 0 42
0 0 42
0 0 42
0 0 42
0 0 42
0 0 42
0 0 42
0 0 42
0 0 42
0 0 42
0 0 42
0 0 42
0 0 42
0 0 42
0 0 42
0 0 42
0 0 42
0 0 42
0 0 42
0 0 42
0 0 42
0 0 42
0 0 42
0 0 42
0 0 42
0 0 42
0 0 42
0 0 42
0 0 42
0 0 42
0 0 42
0 0 42
0 0 42
0 0 42
0 0 42
0 0 42
0 0 43
0 0 45
0 0 45
0 0 45
0 0 45
0 0 45
0 0 45
0 0 45
0 0 45
0 0 45
0 0 45
0 0 45
0 0 45
0 0 45
0 0 45
0 0 45
0 0 45
0 0 45
0 0 45
0 0 45
0 0 45
0 0 45
0 0 45
0 0 45
0 0 45
0 0 45
0 0 45
0 0 45
0 0 45
0 0 45
0 0 45
0 0 45
0 0 45
0 0 47
0 0 49
0 0 49
0 0 49
0 0 49
0 0 49
0 0 49
0 0 48
0 0 46
0 0 46
0 0 48
0 0 46
0 0 45
0 0 47
0 0 45
0 0 45
0 0 45
0 0 45
0 0 45
0 0 45
0 0 48
0 0 50
0 0 54
0 0 57
0 0 62
0 0 65
0 0 65
0 0 67
0 0 70
0 12 76
0 20 83
0 20 83
0 21 86
33 57 73
68 93 83
85 103 80
59 68 23
44 64 16
38 54 0
33 53 0
25 47 0
22 46 0
24 48 0
26 48 0
27 48 0
22 45 0
23 45 0
18 39 0
21 40 0
26 47 0
25 46 0
21 45 0
22 44 0
24 46 0
24 48 0
21 43 0
23 44 0
24 48 0
25 50 0
26 48 0
22 44 0
19 44 0
22 47 0
24 48 0
24 45 0
20 43 0
23 44 0
27 49 0
24 46 0
22 43 0
23 46 0
25 48 0
24 44 0
23 45 0
25 45 0
24 46 0
27 46 0
25 46 0
25 45 0
20 42 0
23 46 0
24 47 0
24 46 0
29 50 0
29 51 0
33 54 0
30 52 0
33 55 0
31 54 0
35 59 0
33 57 0
34 55 8
38 59 8
29 51 0
34 55 0
31 52 0
38 59 0
45 65 6
33 56 0
33 53 0
37 56 0
40 58 10
44 61 6
49 70 16
51 71 8
41 56 26
7 10 43
0 0 38
0 0 40
0 0 43
0 0 42
0 0 42
0 0 42
0 0 42
0 0 42
0 0 42
0 0 42
0 0 42
0 0 42
0 0 42
150 160 176
222 236 255
222 236 255
222 236 255
222 236 255
222 236 255
222 236 255
222 236 255
222 236 255
222 236 255
222 236 255
222 236 255
222 236 255
222 236 255
222 236 255
222 236 255
222 236 255
222 236 255
222 236 255
222 236 255
222 236 255
222 236 255
222 236 255
222 236 255
222 236 255
222 236 255
222 236 255
222 236 255
222 236 255
222 236 255
222 236 255
222 236 255
222 236 255
222 236 255
222 236 255
222 236 255
222 236 255
222 236 255
222 236 255
222 236 255
222 236 255
222 236 255
222 236 255
222 236 255
222 236 255
222 236 255
222 236 255
222 236 255
222 236 255
222 236 255
222 236 255
222 236 255
222 236 255
222 236 255
222 236 255
222 236 255
222 236 255
222 236 255
222 236 255
222 236 255
222 236 255
222 236 255
222 236 255
222 236 255
222 236 255
222 236 255
222 236 255
222 236 255
222 236 255
222 236 255
222 236 255
222 236 255
222 236 255
222 236 255
222 236 255
222 236 255
222 236 255
222 236 255
222 236 255
222 236 255
222 236 255
222 236 255
222 236 255
222 236 255
222 236 255
222 236 255
222 236 255
222 236 255
222 236 255
222 236 255
222 236 255
222 236 255
222 236 255
222 236 255
222 236 255
222 236 255
222 236 255
222 236 255
222 236 255
222 236 255
222 236 255
222 236 255
222 236 255
222 236 255
222 236 255
222 236 255
222 236 255
222 236 255
222 236 255
222 236 255
222 236 255
222 236 255
222 236 255
222 236 255
222 236 255
222 236 255
222 236 255
222 236 255
222 236 255
222 236 255
222 236 255
222 236 255
222 236 255
222 236 255
222 236 255
222 236 255
222 236 255
222 236 255
222 236 255
222 236 255
222 236 255
222 236 255
222 236 255
222 236 255
222 236 255
222 236 255
222 236 255
222 236 255
222 236 255
222 236 255
222 236 255
222 236 255
222 236 255
222 236 255
222 236 255
222 236 255
222 236 255
222 236 255
222 236 255
222 236 255
222 236 255
222 236 255
222 236 255
222 236 255
222 236 255
222 236 255
222 236 255
222 236 255
222 236 255
222 236 255
222 236 255
222 236 255
222 236 255
222 236 255
222 236 255
222 236 255
222 236 255
222 236 255
222 236 255
222 236 255
222 236 255
222 236 255
222 236 255
222 236 255
222 236 255
222 236 255
222 236 255
222 236 255
222 236 255
222 236 255
222 236 255
222 236 255
222 236 255
222 236 255
222 236 255
158 168 185
0 0 42
0 0 42
0 0 42
0 0 42
0 0 42
0 0 42
0 0 42
0 0 42
0 0 42
0 0 42
0 0 42
0 0 42
0 0 42
0 0 42
0 0 42
0 0 42
0 0 42
0 0 42
0 0 42
0 0 42
0 0 42
0 0 42
0 0 42
0 0 42
0 0 42
0 0 42
0 0 42
0 0 42
0 0 42
0 0 42
0 0 42
0 0 42
0 0 42
0 0 42
0 0 42
0 0 42
0 0 42
0 0 42
0 0 42
0 0 42
0 0 42
0 0 42
0 0 42
0 0 42
0 0 42
0 0 42
0 0 42
0 0 42
0 0 42
0 0 42
0 0 42
0 0 42
0 0 42
0 0 42
0 0 42
0 0 42
0 0 42
0 0 42
0 0 42
0 0 42
0 0 42
0 0 42
0 0 45
0 0 45
0 0 45
0 0 45
0 0 45
0 0 45
0 0 45
0 0 45
0 0 44
0 0 44
0 0 44
0 0 44
0 0 44
0 0 44
0 0 44
0 0 45
0 0 45
0 0 45
0 0 45
0 0 45
0 0 45
0 0 45
0 0 45
0 0 45
0 0 45
0 0 45
0 0 45
0 0 45
0 0 45
0 0 45
0 0 45
0 0 47
0 0 49
0 0 51
0 0 50
0 0 50
0 0 51
0 0 50
0 0 50
0 0 48
0 0 47
0 0 47
0 0 48
0 0 47
0 0 45
0 0 45
0 0 45
0 0 45
0 0 45
0 0 45
0 0 46
0 0 46
0 0 48
0 0 51
0 0 54
0 0 59
0 0 64
0 0 66
0 0 67
0 0 67
0 0 68
0 12 78
0 25 89
4 24 88
51 56 77
58 76 33
40 62 13
42 65 5
54 58 21
41 54 2
36 54 0
40 60 0
30 54 0
22 46 0
24 49 0
24 48 0
21 48 0
19 45 0
19 45 0
16 41 0
20 42 0
28 47 0
21 42 0
19 42 0
19 41 0
22 45 0
22 46 0
23 46 0
26 48 0
25 45 0
20 42 0
20 42 0
20 41 0
21 45 0
26 48 0
25 47 0
24 47 0
22 44 0
17 41 0
20 44 0
19 41 0
19 41 0
22 44 0
21 46 0
22 46 0
19 43 0
19 42 0
19 42 0
20 41 0
20 40 0
24 47 0
22 44 0
25 48 0
29 52 0
27 51 0
30 51 0
27 50 0
28 50 0
28 51 0
30 52 0
29 53 0
30 54 0
34 59 0
27 46 5
41 61 10
33 55 0
41 62 0
39 59 0
42 63 7
46 65 10
41 61 0
34 55 0
32 51 0
44 62 5
47 63 15
50 68 17
52 70 19
52 70 18
26 33 43
0 0 44
0 0 45
0 0 42
0 0 43
0 0 42
0 0 42
0 0 42
0 0 42
0 0 42
0 0 42
0 0 42
0 0 42
0 0 42
173 184 201
222 236 255
222 236 255
222 236 255
222 236 255
222 236 255
222 236 255
222 236 255
222 236 255
222 236 255
222 236 255
222 236 255
222 236 255
222 236 255
222 236 255
222 236 255
222 236 255
222 236 255
222 236 255
222 236 255
222 236 255
222 236 255
222 236 255
222 236 255
222 236 255
222 236 255
222 236 255
222 236 255
222 236 255
222 236 255
222 236 255
222 236 255
222 236 255
222 236 255
222 236 255
222 236 255
222 236 255
222 236 255
222 236 255
222 236 255
222 236 255
222 236 255
222 236 255
222 236 255
222 236 255
222 236 255
222 236 255
222 236 255
222 236 255
222 236 255
222 236 255
222 236 255
222 236 255
222 236 255
222 236 255
222 236 255
222 236 255
222 236 255
222 236 255
222 236 255
222 236 255
222 236 255
222 236 255
222 236 255
222 236 255
222 236 255
222 236 255
222 236 255
222 236 255
222 236 255
222 236 255
222 236 255
222 236 255
222 236 255
222 236 255
222 236 255
222 236 255
222 236 255
222 236 255
222 236 255
222 236 255
222 236 255
222 236 255
222 236 255
222 236 255
222 236 255
222 236 255
222 236 255
222 236 255
222 236 255
222 236 255
222 236 255
222 236 255
222 236 255
222 236 255
222 236 255
222 236 255
222 236 255
222 236 255
222 236 255
222 236 255
222 236 255
222 236 255
222 236 255
222 236 255
222 236 255
222 236 255
222 236 255
222 236 255
222 236 255
222 236 255
222 236 255
222 236 255
222 236 255
222 236 255
222 236 255
222 236 255
222 236 255
222 236 255
222 236 255
222 236 255
222 236 255
222 236 255
222 236 255
222 236 255
222 236 255
222 236 255
222 236 255
222 236 255
222 236 255
222 236 255
222 236 255
222 236 255
222 236 255
222 236 255
222 236 255
222 236 255
222 236 255
222 236 255
222 236 255
222 236 255
222 236 255
222 236 255
222 236 255
222 236 255
222 236 255
222 236 255
222 236 255
222 236 255
222 236 255
222 236 255
222 236 255
222 236 255
222 236 255
222 236 255
222 236 255
222 236 255
222 236 255
222 236 255
222 236 255
222 236 255
222 236 255
222 236 255
222 236 255
222 236 255
222 236 255
222 236 255
222 236 255
222 236 255
222 236 255
222 236 255
222 236 255
222 236 255
222 236 255
222 236 255
222 236 255
222 236 255
222 236 255
222 236 255
222 236 255
222 236 255
222 236 255
222 236 255
222 236 255
222 236 255
177 189 206
0 0 42
0 0 42
0 0 42
0 0 42
0 0 42
0 0 42
0 0 42
0 0 42
0 0 42
0 0 42
0 0 42
0 0 42
0 0 42
0 0 42
0 0 42
0 0 42
0 0 42
0 0 42
0 0 42
0 0 42
0 0 42
0 0 42
0 0 42
0 0 42
0 0 42
0 0 42
0 0 42
0 0 42
0 0 42
0 0 42
0 0 42
0 0 42
0 0 42
0 0 42
0 0 42
0 0 42
0 0 42
0 0 42
0 0 42
0 0 42
0 0 42
0 0 42
0 0 42
0 0 42
0 0 42
0 0 42
0 0 42
0 0 42
0 0 42
0 0 42
0 0 42
0 0 42
0 0 42
0 0 42
0 0 42
0 0 42
0 0 42
0 0 42
0 0 42
0 0 42
0 0 42
0 0 42
0 0 45
0 0 45
0 0 45
0 0 45
0 0 45
0 0 45
0 0 44
0 0 43
0 0 42
0 0 42
0 0 42
0 0 42
0 0 42
0 0 42
0 0 42
0 0 42
0 0 44
0 0 45
0 0 45
0 0 45
0 0 45
0 0 45
0 0 45
0 0 45
0 0 45
0 0 45
0 0 45
0 0 45
0 0 45
0 0 45
0 0 46
0 0 48
0 0 50
0 0 53
0 0 53
0 0 52
0 0 52
0 0 52
0 0 51
0 0 48
0 0 48
0 0 48
0 0 48
0 0 48
0 0 48
0 0 47
0 0 45
0 0 45
0 0 45
0 0 45
0 0 47
0 0 47
0 0 48
0 0 51
0 0 55
0 0 59
0 0 61
0 0 63
0 0 64
0 0 64
0 0 65
0 16 75
0 29 92
12 45 97
90 98 81
92 94 43
56 74 27
51 66 14
48 59 13
37 53 0
36 55 0
36 57 0
27 51 0
21 44 0
23 48 0
23 49 0
21 48 0
20 48 0
19 48 0
20 46 0
24 45 0
25 45 0
20 42 0
19 41 0
20 41 0
19 42 0
17 41 0
17 41 0
21 43 0
18 41 0
20 41 0
24 44 0
21 44 0
23 46 0
24 47 0
23 45 0
23 44 0
22 45 0
19 43 0
19 43 0
18 41 0
18 41 0
19 43 0
18 43 0
19 44 0
19 42 0
20 43 0
20 43 0
17 39 0
22 43 0
24 49 0
24 45 0
24 48 0
27 51 0
26 49 0
29 52 0
28 49 0
25 46 0
29 51 0
27 49 0
28 51 0
27 52 0
27 52 0
29 49 0
41 61 6
41 61 0
50 70 10
42 62 11
35 55 3
42 61 2
37 57 0
37 57 0
41 57 0
48 63 14
47 57 18
56 69 16
54 70 18
62 75 22
64 75 47
27 27 46
15 17 41
0 0 41
0 0 42
0 0 42
0 0 42
0 0 42
0 0 42
0 0 42
0 0 42
0 0 42
0 0 42
0 0 42
169 179 196
222 236 255
222 236 255
222 236 255
222 236 255
222 236 255
222 236 255
222 236 255
222 236 255
222 236 255
222 236 255
222 236 255
222 236 255
222 236 255
222 236 255
222 236 255
222 236 255
222 236 255
222 236 255
222 236 255
222 236 255
222 236 255
222 236 255
222 236 255
222 236 255
222 236 255
222 236 255
222 236 255
222 236 255
222 236 255
222 236 255
222 236 255
222 236 255
222 236 255
222 236 255
222 236 255
222 236 255
222 236 255
222 236 255
222 236 255
222 236 255
222 236 255
222 236 255
222 236 255
222 236 255
222 236 255
222 236 255
222 236 255
222 236 255
222 236 255
222 236 255
222 236 255
222 236 255
222 236 255
222 236 255
222 236 255
222 236 255
222 236 255
222 236 255
222 236 255
222 236 255
222 236 255
222 236 255
222 236 255
222 236 255
222 236 255
222 236 255
222 236 255
222 236 255
222 236 255
222 236 255
222 236 255
222 236 255
222 236 255
222 236 255
222 236 255
222 236 255
222 236 255
222 236 255
222 236 255
222 236 255
222 236 255
222 236 255
222 236 255
222 236 255
222 236 255
222 236 255
222 236 255
222 236 255
222 236 255
222 236 255
222 236 255
222 236 255
222 236 255
222 236 255
222 236 255
222 236 255
222 236 255
222 236 255
222 236 255
222 236 255
222 236 255
222 236 255
222 236 255
222 236 255
222 236 255
222 236 255
222 236 255
222 236 255
222 236 255
222 236 255
222 236 255
222 236 255
222 236 255
222 236 255
222 236 255
222 236 255
222 236 255
222 236 255
222 236 255
222 236 255
222 236 255
222 236 255
222 236 255
222 236 255
222 236 255
222 236 255
222 236 255
222 236 255
222 236 255
222 236 255
222 236 255
222 236 255
222 236 255
222 236 255
222 236 255
222 236 255
222 236 255
222 236 255
222 236 255
222 236 255
222 236 255
222 236 255
222 236 255
222 236 255
222 236 255
222 236 255
222 236 255
222 236 255
222 236 255
222 236 255
222 236 255
222 236 255
222 236 255
222 236 255
222 236 255
222 236 255
222 236 255
222 236 255
222 236 255
222 236 255
222 236 255
222 236 255
222 236 255
222 236 255
222 236 255
222 236 255
222 236 255
222 236 255
222 236 255
222 236 255
222 236 255
222 236 255
222 236 255
222 236 255
222 236 255
222 236 255
222 236 255
222 236 255
222 236 255
222 236 255
222 236 255
222 236 255
222 236 255
222 236 255
188 200 218
0 0 42
0 0 42
0 0 42
0 0 42
0 0 42
0 0 42
0 0 42
0 0 42
0 0 42
0 0 42
0 0 42
0 0 42
0 0 42
0 0 42
0 0 42
0 0 42
0 0 42
0 0 42
0 0 42
0 0 42
0 0 42
0 0 42
0 0 42
0 0 42
0 0 42
0 0 42
0 0 42
0 0 42
0 0 42
0 0 42
0 0 42
0 0 42
0 0 42
0 0 42
0 0 42
0 0 42
0 0 42
0 0 42
0 0 42
0 0 42
0 0 42
0 0 42
0 0 42
0 0 42
0 0 42
0 0 42
0 0 42
0 0 42
0 0 42
0 0 42
0 0 42
0 0 42
0 0 42
0 0 42
0 0 42
0 0 42
0 0 42
0 0 42
0 0 42
0 0 42
0 0 42
0 0 42
0 0 45
0 0 45
0 0 45
0 0 45
0 0 45
0 0 45
0 0 43
0 0 42
0 0 42
0 0 42
0 0 42
0 0 42
0 0 42
0 0 42
0 0 42
0 0 42
0 0 42
0 0 44
0 0 45
0 0 45
0 0 45
0 0 45
0 0 45
0 0 45
0 0 45
0 0 45
0 0 45
0 0 45
0 0 45
0 0 45
0 0 47
0 0 48
0 0 50
0 0 53
0 0 52
0 0 51
0 0 50
0 0 50
0 0 50
0 0 48
0 0 48
0 0 48
0 0 48
0 0 48
0 0 48
0 0 48
0 0 46
0 0 45
0 0 45
0 0 45
0 0 45
0 0 46
0 0 49
0 0 51
0 0 53
0 0 55
0 0 57
0 0 60
0 0 60
0 0 61
0 0 63
0 14 73
0 27 89
7 45 104
85 100 92
128 120 63
73 85 40
50 65 17
42 60 13
47 59 11
34 53 0
31 53 0
22 45 0
19 42 0
21 45 0
25 50 0
25 49 0
20 45 0
19 46 0
22 48 0
24 47 0
22 44 0
20 42 0
18 41 0
15 39 0
19 41 0
17 41 0
14 39 0
15 39 0
16 40 0
19 41 0
20 44 0
23 46 0
24 48 0
24 46 0
20 43 0
22 45 0
23 46 0
19 42 0
19 42 0
20 42 0
19 43 0
20 44 0
21 43 0
23 46 0
23 44 0
23 44 0
20 42 0
19 40 0
25 47 0
24 47 0
20 43 0
22 46 0
22 45 0
24 47 0
29 50 0
28 51 0
28 49 0
27 48 0
23 46 0
28 53 0
29 55 0
31 55 5
40 63 8
42 62 7
43 65 0
50 69 10
41 60 10
36 55 0
41 60 0
40 60 0
36 56 0
46 59 8
51 63 16
54 64 17
61 71 20
61 72 24
76 82 31
79 82 44
81 83 49
44 47 36
0 0 42
0 0 42
0 0 42
0 0 42
0 0 42
0 0 42
0 0 42
0 0 42
0 0 42
0 0 42
0 0 42
191 203 221
222 236 255
222 236 255
222 236 255
222 236 255
222 236 255
222 236 255
222 236 255
222 236 255
222 236 255
222 236 255
222 236 255
222 236 255
222 236 255
222 236 255
222 236 255
222 236 255
222 236 255
222 236 255
222 236 255
222 236 255
222 236 255
222 236 255
222 236 255
222 236 255
222 236 255
222 236 255
222 236 255
222 236 255
222 236 255
222 236 255
222 236 255
222 236 255
222 236 255
222 236 255
222 236 255
222 236 255
222 236 255
222 236 255
222 236 255
222 236 255
222 236 255
222 236 255
222 236 255
222 236 255
222 236 255
222 236 255
222 236 255
222 236 255
222 236 255
222 236 255
222 236 255
222 236 255
222 236 255
222 236 255
222 236 255
222 236 255
222 236 255
222 236 255
222 236 255
222 236 255
222 236 255
222 236 255
222 236 255
222 236 255
222 236 255
222 236 255
222 236 255
222 236 255
222 236 255
222 236 255
222 236 255
222 236 255
222 236 255
222 236 255
222 236 255
222 236 255
222 236 255
222 236 255
222 236 255
222 236 255
222 236 255
222 236 255
222 236 255
222 236 255
222 236 255
222 236 255
222 236 255
222 236 255
222 236 255
222 236 255
222 236 255
222 236 255
222 236 255
222 236 255
222 236 255
222 236 255
222 236 255
222 236 255
222 236 255
222 236 255
222 236 255
222 236 255
222 236 255
222 236 255
222 236 255
222 236 255
222 236 255
222 236 255
222 236 255
222 236 255
222 236 255
222 236 255
222 236 255
222 236 255
222 236 255
222 236 255
222 236 255
222 236 255
222 236 255
222 236 255
222 236 255
222 236 255
222 236 255
222 236 255
222 236 255
222 236 255
222 236 255
222 236 255
222 236 255
222 236 255
222 236 255
222 236 255
222 236 255
222 236 255
222 236 255
222 236 255
222 236 255
222 236 255
222 236 255
222 236 255
222 236 255
222 236 255
222 236 255
222 236 255
222 236 255
222 236 255
222 236 255
222 236 255
222 236 255
222 236 255
222 236 255
222 236 255
222 236 255
222 236 255
222 236 255
222 236 255
222 236 255
222 236 255
222 236 255
222 236 255
222 236 255
222 236 255
222 236 255
222 236 255
222 236 255
222 236 255
222 236 255
222 236 255
222 236 255
222 236 255
222 236 255
222 236 255
222 236 255
222 236 255
222 236 255
222 236 255
222 236 255
222 236 255
222 236 255
222 236 255
222 236 255
222 236 255
222 236 255
222 236 255
209 223 241
0 0 42
0 0 42
0 0 42
0 0 42
0 0 42
0 0 42
0 0 42
0 0 42
0 0 42
0 0 42
0 0 42
0 0 42
0 0 42
0 0 42
0 0 42
0 0 42
0 0 42
0 0 42
0 0 42
0 0 42
0 0 42
0 0 42
0 0 42
0 0 42
0 0 42
0 0 42
0 0 42
0 0 42
0 0 42
0 0 42
0 0 42
0 0 42
0 0 42
0 0 42
0 0 42
0 0 42
0 0 42
0 0 42
0 0 42
0 0 42
0 0 42
0 0 42
0 0 42
0 0 42
0 0 42
0 0 42
0 0 42
0 0 42
0 0 42
0 0 42
0 0 42
0 0 42
0 0 42
0 0 42
0 0 42
0 0 42
0 0 42
0 0 42
0 0 42
0 0 42
0 0 42
0 0 43
0 0 44
0 0 44
0 0 44
0 0 45
0 0 44
0 0 44
0 0 42
0 0 42
0 0 42
0 0 42
0 0 42
0 0 42
0 0 42
0 0 42
0 0 42
0 0 42
0 0 42
0 0 44
0 0 45
0 0 45
0 0 45
0 0 45
0 0 45
0 0 45
0 0 45
0 0 45
0 0 45
0 0 45
0 0 45
0 0 45
0 0 47
0 0 48
0 0 49
0 0 51
0 0 50
0 0 48
0 0 48
0 0 48
0 0 48
0 0 48
0 0 48
0 0 46
0 0 48
0 0 48
0 0 48
0 0 48
0 0 46
0 0 45
0 0 45
0 0 45
0 0 45
0 0 47
0 0 49
0 0 51
0 0 53
0 0 53
0 0 53
0 0 56
0 0 57
0 0 60
0 0 60
0 5 65
0 17 81
0 25 92
42 65 95
140 136 102
104 100 55
58 69 19
51 60 9
46 68 16
44 61 11
35 54 3
24 45 0
25 45 0
21 43 0
24 49 0
22 46 0
21 46 0
25 51 0
27 51 0
23 47 0
20 44 0
19 44 0
19 43 0
16 40 0
14 40 0
14 39 0
14 39 0
14 39 0
14 39 0
19 41 0
22 44 0
24 49 0
24 46 0
19 42 0
19 41 0
23 45 0
22 45 0
18 44 0
20 45 0
20 45 0
20 43 0
20 43 0
24 46 0
25 46 0
23 44 0
21 45 0
19 43 0
19 42 0
23 45 0
22 46 0
18 42 0
18 43 0
20 44 0
24 47 0
27 49 0
24 46 0
25 48 0
26 49 0
22 46 0
27 51 0
27 50 0
32 54 7
40 63 1
43 66 7
46 65 0
48 63 8
46 62 7
43 57 0
43 53 0
39 58 0
35 56 0
46 59 4
51 61 9
54 68 21
66 73 27
61 73 21
72 80 34
89 89 53
86 83 48
48 57 34
0 0 41
0 0 42
0 0 42
0 0 42
0 0 42
0 0 42
0 0 42
0 0 42
0 0 42
0 0 42
0 0 42
201 214 232
222 236 255
222 236 255
222 236 255
222 236 255
222 236 255
222 236 255
222 236 255
222 236 255
222 236 255
222 236 255
222 236 255
222 236 255
222 236 255
222 236 255
222 236 255
222 236 255
222 236 255
222 236 255
222 236 255
222 236 255
222 236 255
222 236 255
222 236 255
222 236 255
222 236 255
222 236 255
222 236 255
222 236 255
222 236 255
222 236 255
222 236 255
222 236 255
222 236 255
222 236 255
222 236 255
222 236 255
222 236 255
222 236 255
222 236 255
222 236 255
222 236 255
222 236 255
222 236 255
222 236 255
222 236 255
222 236 255
222 236 255
222 236 255
222 236 255
222 236 255
222 236 255
222 236 255
222 236 255
222 236 255
222 236 255
222 236 255
222 236 255
222 236 255
222 236 255
222 236 255
222 236 255
222 236 255
222 236 255
222 236 255
222 236 255
222 236 255
222 236 255
222 236 255
222 236 255
222 236 255
222 236 255
222 236 255
222 236 255
222 236 255
222 236 255
222 236 255
222 236 255
222 236 255
222 236 255
222 236 255
222 236 255
222 236 255
222 236 255
222 236 255
222 236 255
222 236 255
222 236 255
222 236 255
222 236 255
222 236 255
222 236 255
222 236 255
222 236 255
222 236 255
222 236 255
222 236 255
222 236 255
222 236 255
222 236 255
222 236 255
222 236 255
222 236 255
222 236 255
222 236 255
222 236 255
222 236 255
222 236 255
222 236 255
222 236 255
222 236 255
222 236 255
222 236 255
222 236 255
222 236 255
222 236 255
222 236 255
222 236 255
222 236 255
222 236 255
222 236 255
222 236 255
222 236 255
222 236 255
222 236 255
222 236 255
222 236 255
222 236 255
222 236 255
222 236 255
222 236 255
222 236 255
222 236 255
222 236 255
222 236 255
222 236 255
222 236 255
222 236 255
222 236 255
222 236 255
222 236 255
222 236 255
222 236 255
222 236 255
222 236 255
222 236 255
222 236 255
222 236 255
222 236 255
222 236 255
222 236 255
222 236 255
222 236 255
222 236 255
222 236 255
222 236 255
222 236 255
222 236 255
222 236 255
222 236 255
222 236 255
222 236 255
222 236 255
222 236 255
222 236 255
222 236 255
222 236 255
222 236 255
222 236 255
222 236 255
222 236 255
222 236 255
222 236 255
222 236 255
222 236 255
222 236 255
222 236 255
222 236 255
222 236 255
222 236 255
222 236 255
222 236 255
222 236 255
222 236 255
222 236 255
216 230 249
0 0 42
0 0 42
0 0 42
0 0 42
0 0 42
0 0 42
0 0 42
0 0 42
0 0 42
0 0 42
0 0 42
0 0 42
0 0 42
0 0 42
0 0 42
0 0 42
0 0 42
0 0 42
0 0 42
0 0 42
0 0 42
0 0 42
0 0 42
0 0 42
0 0 42
0 0 42
0 0 42
0 0 42
0 0 42
0 0 42
0 0 42
0 0 42
0 0 42
0 0 42
0 0 42
0 0 42
0 0 42
0 0 42
0 0 42
0 0 42
0 0 42
0 0 42
0 0 42
0 0 42
0 0 42
0 0 42
0 0 42
0 0 42
0 0 42
0 0 42
0 0 42
0 0 42
0 0 42
0 0 42
0 0 42
0 0 42
0 0 42
0 0 42
0 0 42
0 0 42
0 0 42
0 0 44
0 0 44
0 0 42
0 0 42
0 0 43
0 0 43
0 0 45
0 0 45
0 0 45
0 0 44
0 0 43
0 0 43
0 0 43
0 0 42
0 0 43
0 0 44
0 0 45
0 0 45
0 0 45
0 0 45
0 0 45
0 0 45
0 0 45
0 0 45
0 0 45
0 0 45
0 0 45
0 0 45
0 0 45
0 0 45
0 0 45
0 0 45
0 0 45
0 0 45
0 0 45
0 0 45
0 0 45
0 0 45
0 0 43
0 0 43
0 0 48
0 0 48
0 0 48
0 0 48
0 0 48
0 0 48
0 0 50
0 0 46
0 0 45
0 0 43
0 0 45
0 0 45
0 0 45
0 0 48
0 0 49
0 0 52
0 0 53
0 0 52
0 0 54
0 0 57
0 0 58
0 0 61
0 11 71
0 15 78
0 13 75
49 65 97
184 190 173
139 134 92
79 81 41
56 65 17
61 75 25
61 73 28
40 54 10
33 48 0
35 52 0
25 48 0
26 52 0
22 48 0
25 52 0
29 54 0
24 48 0
20 44 0
20 44 0
19 43 0
20 44 0
19 42 0
16 41 0
17 40 0
17 40 0
16 40 0
15 38 0
15 38 0
22 45 0
25 50 0
20 43 0
16 39 0
17 40 0
23 44 0
19 43 0
18 44 0
20 44 0
21 43 0
20 43 0
22 45 0
26 47 0
27 47 0
23 45 0
21 44 0
19 44 0
23 45 0
24 44 0
20 42 0
18 40 0
19 42 0
21 45 0
24 48 0
24 48 0
24 46 0
25 50 0
27 52 0
29 53 0
31 56 0
26 50 2
29 52 0
46 68 3
47 72 9
47 64 3
51 63 11
51 66 13
52 61 13
52 59 12
38 53 0
41 55 6
48 58 7
51 60 12
60 66 24
66 70 27
67 76 28
76 79 38
94 88 55
82 79 40
56 65 29
0 0 42
0 0 42
0 0 42
0 0 42
0 0 42
0 0 42
0 0 42
0 0 42
0 0 42
0 0 42
0 0 42
215 229 248
222 236 255
222 236 255
222 236 255
222 236 255
222 236 255
222 236 255
222 236 255
222 236 255
222 236 255
222 236 255
222 236 255
222 236 255
222 236 255
222 236 255
222 236 255
222 236 255
222 236 255
222 236 255
222 236 255
222 236 255
222 236 255
222 236 255
222 236 255
222 236 255
222 236 255
222 236 255
222 236 255
222 236 255
222 236 255
222 236 255
222 236 255
222 236 255
222 236 255
222 236 255
222 236 255
222 236 255
222 236 255
222 236 255
222 236 255
222 236 255
222 236 255
222 236 255
222 236 255
222 236 255
222 236 255
222 236 255
222 236 255
222 236 255
222 236 255
222 236 255
222 236 255
222 236 255
222 236 255
222 236 255
222 236 255
222 236 255
222 236 255
222 236 255
222 236 255
222 236 255
222 236 255
222 236 255
222 236 255
222 236 255
222 236 255
222 236 255
222 236 255
222 236 255
222 236 255
222 236 255
222 236 255
222 236 255
222 236 255
222 236 255
222 236 255
222 236 255
222 236 255
222 236 255
222 236 255
222 236 255
222 236 255
222 236 255
222 236 255
222 236 255
222 236 255
222 236 255
222 236 255
222 236 255
222 236 255
222 236 255
222 236 255
222 236 255
222 236 255
222 236 255
222 236 255
222 236 255
222 236 255
222 236 255
222 236 255
222 236 255
222 236 255
222 236 255
222 236 255
222 236 255
222 236 255
222 236 255
222 236 255
222 236 255
222 236 255
222 236 255
222 236 255
222 236 255
222 236 255
222 236 255
222 236 255
222 236 255
222 236 255
222 236 255
222 236 255
222 236 255
222 236 255
222 236 255
222 236 255
222 236 255
222 236 255
222 236 255
222 236 255
222 236 255
222 236 255
222 236 255
222 236 255
222 236 255
222 236 255
222 236 255
222 236 255
222 236 255
222 236 255
222 236 255
222 236 255
222 236 255
222 236 255
222 236 255
222 236 255
222 236 255
222 236 255
222 236 255
222 236 255
222 236 255
222 236 255
222 236 255
222 236 255
222 236 255
222 236 255
222 236 255
222 236 255
222 236 255
222 236 255
222 236 255
222 236 255
222 236 255
222 236 255
222 236 255
222 236 255
222 236 255
222 236 255
222 236 255
222 236 255
222 236 255
222 236 255
222 236 255
222 236 255
222 236 255
222 236 255
222 236 255
222 236 255
222 236 255
222 236 255
222 236 255
222 236 255
222 236 255
222 236 255
222 236 255
222 236 255
222 236 255
222 236 255
54 57 74
0 0 42
0 0 42
0 0 42
0 0 42
0 0 42
0 0 42
0 0 42
0 0 42
0 0 42
0 0 42
0 0 42
0 0 42
0 0 42
0 0 42
0 0 42
0 0 42
0 0 42
0 0 42
0 0 42
0 0 42
0 0 42
0 0 42
0 0 42
0 0 42
0 0 42
0 0 42
0 0 42
0 0 42
0 0 42
0 0 42
0 0 42
0 0 42
0 0 42
0 0 42
0 0 42
0 0 42
0 0 42
0 0 42
0 0 42
0 0 42
0 0 42
0 0 42
0 0 42
0 0 42
0 0 42
0 0 42
0 0 42
0 0 42
0 0 42
0 0 42
0 0 42
0 0 42
0 0 42
0 0 42
0 0 42
0 0 42
0 0 42
0 0 42
0 0 42
0 0 44
0 0 45
0 0 45
0 0 44
0 0 43
0 0 45
0 0 45
0 0 45
0 0 45
0 0 45
0 0 45
0 0 45
0 0 45
0 0 45
0 0 45
0 0 45
0 0 45
0 0 45
0 0 45
0 0 45
0 0 45
0 0 45
0 0 45
0 0 45
0 0 45
0 0 45
0 0 45
0 0 45
0 0 45
0 0 45
0 0 45
0 0 45
0 0 45
0 0 45
0 0 45
0 0 45
0 0 45
0 0 45
0 0 45
0 0 45
0 0 44
0 0 46
0 0 46
0 0 47
0 0 48
0 0 48
0 0 48
0 0 49
0 0 47
0 0 45
0 0 44
0 0 45
0 0 45
0 0 47
0 0 48
0 0 48
0 0 50
0 0 52
0 0 51
0 0 53
0 0 56
0 0 57
0 0 60
0 0 68
0 19 81
0 21 80
41 49 94
150 165 180
155 164 141
94 98 54
48 64 18
63 67 21
56 63 20
47 58 15
29 45 0
32 51 0
33 55 0
28 51 0
24 48 0
25 49 0
23 47 0
22 45 0
22 44 0
21 43 0
19 43 0
19 42 0
19 42 0
19 41 0
19 41 0
20 43 0
19 43 0
16 41 0
19 41 0
23 44 0
20 43 0
17 39 0
15 36 0
19 42 0
23 46 0
21 45 0
21 45 0
17 41 0
15 39 0
20 43 0
24 47 0
24 46 0
24 45 0
21 44 0
20 43 0
18 41 0
23 45 0
22 46 0
20 43 0
17 42 0
20 43 0
22 45 0
26 49 0
24 47 0
24 48 0
25 50 0
25 50 0
34 58 0
44 69 11
36 60 7
43 65 7
49 72 5
47 70 3
52 66 13
53 64 12
53 64 11
56 64 16
54 60 14
47 58 6
55 61 16
56 64 21
55 62 20
69 67 32
73 73 34
69 74 31
80 80 43
93 86 53
78 79 37
48 60 24
0 0 43
0 0 42
0 0 42
0 0 42
0 0 42
0 0 42
0 0 42
0 0 42
0 0 42
0 0 42
54 57 74
222 236 255
222 236 255
222 236 255
222 236 255
222 236 255
222 236 255
222 236 255
222 236 255
222 236 255
222 236 255
222 236 255
222 236 255
222 236 255
222 236 255
222 236 255
222 236 255
222 236 255
222 236 255
222 236 255
222 236 255
222 236 255
222 236 255
222 236 255
222 236 255
222 236 255
222 236 255
222 236 255
222 236 255
222 236 255
222 236 255
222 236 255
222 236 255
222 236 255
222 236 255
222 236 255
222 236 255
222 236 255
222 236 255
222 236 255
222 236 255
222 236 255
222 236 255
222 236 255
222 236 255
222 236 255
222 236 255
222 236 255
222 236 255
222 236 255
222 236 255
222 236 255
222 236 255
222 236 255
222 236 255
222 236 255
222 236 255
222 236 255
222 236 255
222 236 255
222 236 255
222 236 255
222 236 255
222 236 255
222 236 255
222 236 255
222 236 255
222 236 255
222 236 255
222 236 255
222 236 255
222 236 255
222 236 255
222 236 255
222 236 255
222 236 255
222 236 255
222 236 255
222 236 255
222 236 255
222 236 255
222 236 255
222 236 255
222 236 255
222 236 255
222 236 255
222 236 255
222 236 255
222 236 255
222 236 255
222 236 255
222 236 255
222 236 255
222 236 255
222 236 255
222 236 255
222 236 255
222 236 255
222 236 255
222 236 255
222 236 255
222 236 255
222 236 255
222 236 255
222 236 255
222 236 255
222 236 255
222 236 255
222 236 255
222 236 255
222 236 255
222 236 255
222 236 255
222 236 255
222 236 255
222 236 255
222 236 255
222 236 255
222 236 255
222 236 255
222 236 255
222 236 255
222 236 255
222 236 255
222 236 255
222 236 255
222 236 255
222 236 255
222 236 255
222 236 255
222 236 255
222 236 255
222 236 255
222 236 255
222 236 255
222 236 255
222 236 255
222 236 255
222 236 255
222 236 255
222 236 255
222 236 255
222 236 255
222 236 255
222 236 255
222 236 255
222 236 255
222 236 255
222 236 255
222 236 255
222 236 255
222 236 255
222 236 255
222 236 255
222 236 255
222 236 255
222 236 255
222 236 255
222 236 255
222 236 255
222 236 255
222 236 255
222 236 255
222 236 255
222 236 255
222 236 255
222 236 255
222 236 255
222 236 255
222 236 255
222 236 255
222 236 255
222 236 255
222 236 255
222 236 255
222 236 255
222 236 255
222 236 255
222 236 255
222 236 255
222 236 255
222 236 255
222 236 255
222 236 255
222 236 255
222 236 255
222 236 255
91 97 112
0 0 42
0 0 42
0 0 42
0 0 42
0 0 42
0 0 42
0 0 42
0 0 42
0 0 42
0 0 42
0 0 42
0 0 42
0 0 42
0 0 42
0 0 42
0 0 42
0 0 42
0 0 42
0 0 42
0 0 42
0 0 42
0 0 42
0 0 42
0 0 42
0 0 42
0 0 42
0 0 42
0 0 42
0 0 42
0 0 42
0 0 42
0 0 42
0 0 42
0 0 42
0 0 42
0 0 42
0 0 42
0 0 42
0 0 42
0 0 42
0 0 42
0 0 42
0 0 42
0 0 42
0 0 42
0 0 42
0 0 42
0 0 42
0 0 42
0 0 42
0 0 42
0 0 42
0 0 42
0 0 42
0 0 42
0 0 42
0 0 42
0 0 42
0 0 44
0 0 45
0 0 45
0 0 45
0 0 45
0 0 45
0 0 45
0 0 45
0 0 45
0 0 45
0 0 45
0 0 45
0 0 45
0 0 45
0 0 45
0 0 45
0 0 45
0 0 45
0 0 45
0 0 45
0 0 45
0 0 45
0 0 45
0 0 45
0 0 45
0 0 45
0 0 45
0 0 45
0 0 45
0 0 45
0 0 45
0 0 45
0 0 45
0 0 45
0 0 45
0 0 45
0 0 45
0 0 45
0 0 45
0 0 45
0 0 45
0 0 45
0 0 45
0 0 45
0 0 45
0 0 48
0 0 48
0 0 48
0 0 48
0 0 46
0 0 45
0 0 45
0 0 45
0 0 45
0 0 47
0 0 47
0 0 47
0 0 48
0 0 49
0 0 50
0 0 52
0 0 55
0 0 58
0 0 61
0 0 67
0 19 80
0 22 82
0 9 81
28 35 88
68 78 90
96 102 73
65 66 34
61 66 24
68 71 30
47 52 15
27 39 0
27 48 0
40 63 11
25 48 0
23 44 0
24 46 0
21 44 0
23 45 0
23 45 0
20 42 0
19 41 0
15 39 0
18 41 0
19 43 0
20 43 0
19 44 0
19 44 0
19 42 0
21 43 0
21 43 0
14 36 0
14 36 0
15 37 0
19 42 0
23 46 0
24 47 0
22 46 0
17 43 0
16 40 0
21 43 0
23 45 0
22 45 0
21 44 0
20 43 0
20 42 0
19 41 0
23 45 0
23 47 0
26 48 0
21 43 0
22 47 0
26 48 0
27 52 0
24 46 0
24 47 0
26 51 0
25 49 0
30 55 0
35 60 0
38 62 0
51 74 13
47 69 8
49 70 6
55 67 16
59 69 22
57 67 17
59 67 20
56 61 18
52 59 14
60 62 20
55 61 22
60 65 29
85 77 45
73 69 32
68 70 28
74 75 39
76 78 40
66 73 25
38 52 32
0 0 42
0 0 42
0 0 42
0 0 42
0 0 42
0 0 42
0 0 42
0 0 42
0 0 42
0 0 42
113 120 135
222 236 255
222 236 255
222 236 255
222 236 255
222 236 255
222 236 255
222 236 255
222 236 255
222 236 255
222 236 255
222 236 255
222 236 255
222 236 255
222 236 255
222 236 255
222 236 255
222 236 255
222 236 255
222 236 255
222 236 255
222 236 255
222 236 255
222 236 255
222 236 255
222 236 255
222 236 255
222 236 255
222 236 255
222 236 255
222 236 255
222 236 255
222 236 255
222 236 255
222 236 255
222 236 255
222 236 255
222 236 255
222 236 255
222 236 255
222 236 255
222 236 255
222 236 255
222 236 255
222 236 255
222 236 255
222 236 255
222 236 255
222 236 255
222 236 255
222 236 255
222 236 255
222 236 255
222 236 255
222 236 255
222 236 255
222 236 255
222 236 255
222 236 255
222 236 255
222 236 255
222 236 255
222 236 255
222 236 255
222 236 255
222 236 255
222 236 255
222 236 255
222 236 255
222 236 255
222 236 255
222 236 255
222 236 255
222 236 255
222 236 255
222 236 255
222 236 255
222 236 255
222 236 255
222 236 255
222 236 255
222 236 255
222 236 255
222 236 255
222 236 255
222 236 255
222 236 255
222 236 255
222 236 255
222 236 255
222 236 255
222 236 255
222 236 255
222 236 255
222 236 255
222 236 255
222 236 255
222 236 255
222 236 255
222 236 255
222 236 255
222 236 255
222 236 255
222 236 255
222 236 255
222 236 255
222 236 255
222 236 255
222 236 255
222 236 255
222 236 255
222 236 255
222 236 255
222 236 255
222 236 255
222 236 255
222 236 255
222 236 255
222 236 255
222 236 255
222 236 255
222 236 255
222 236 255
222 236 255
222 236 255
222 236 255
222 236 255
222 236 255
222 236 255
222 236 255
222 236 255
222 236 255
222 236 255
222 236 255
222 236 255
222 236 255
222 236 255
222 236 255
222 236 255
222 236 255
222 236 255
222 236 255
222 236 255
222 236 255
222 236 255
222 236 255
222 236 255
222 236 255
222 236 255
222 236 255
222 236 255
222 236 255
222 236 255
222 236 255
222 236 255
222 236 255
222 236 255
222 236 255
222 236 255
222 236 255
222 236 255
222 236 255
222 236 255
222 236 255
222 236 255
222 236 255
222 236 255
222 236 255
222 236 255
222 236 255
222 236 255
222 236 255
222 236 255
222 236 255
222 236 255
222 236 255
222 236 255
222 236 255
222 236 255
222 236 255
222 236 255
222 236 255
222 236 255
222 236 255
222 236 255
222 236 255
222 236 255
129 137 153
0 0 42
0 0 42
0 0 42
0 0 42
0 0 42
0 0 42
0 0 42
0 0 44
0 0 45
0 0 44
0 0 44
0 0 44
0 0 44
0 0 43
0 0 44
0 0 42
0 0 42
0 0 42
0 0 42
0 0 42
0 0 42
0 0 42
0 0 42
0 0 42
0 0 42
0 0 42
0 0 42
0 0 42
0 0 42
0 0 42
0 0 42
0 0 42
0 0 42
0 0 42
0 0 42
0 0 42
0 0 42
0 0 42
0 0 42
0 0 42
0 0 42
0 0 42
0 0 42
0 0 42
0 0 42
0 0 42
0 0 42
0 0 42
0 0 42
0 0 42
0 0 42
0 0 42
0 0 42
0 0 42
0 0 42
0 0 42
0 0 42
0 0 42
0 0 44
0 0 45
0 0 44
0 0 44
0 0 45
0 0 45
0 0 45
0 0 45
0 0 45
0 0 44
0 0 42
0 0 42
0 0 42
0 0 42
0 0 43
0 0 44
0 0 45
0 0 45
0 0 45
0 0 45
0 0 45
0 0 45
0 0 45
0 0 45
0 0 45
0 0 45
0 0 45
0 0 45
0 0 45
0 0 45
0 0 45
0 0 45
0 0 45
0 0 45
0 0 45
0 0 45
0 0 45
0 0 45
0 0 45
0 0 45
0 0 45
0 0 45
0 0 45
0 0 45
0 0 45
0 0 47
0 0 48
0 0 48
0 0 47
0 0 45
0 0 45
0 0 45
0 0 45
0 0 45
0 0 45
0 0 45
0 0 45
0 0 45
0 0 47
0 0 48
0 0 51
0 0 54
0 0 58
0 0 60
0 2 66
0 17 80
0 17 78
0 13 66
0 6 69
9 19 84
61 67 90
90 89 58
61 65 24
78 76 38
67 67 31
36 45 0
29 49 0
31 54 0
27 47 0
24 46 0
26 48 0
21 45 0
23 46 0
23 45 0
24 46 0
24 45 0
18 40 0
19 41 0
20 42 0
22 44 0
20 44 0
19 44 0
19 42 0
19 42 0
19 41 0
16 37 0
16 38 0
18 39 0
19 43 0
24 47 0
24 48 0
19 43 0
19 43 0
20 44 0
22 45 0
20 43 0
19 43 0
19 43 0
19 44 0
19 42 0
20 42 0
20 43 0
21 44 0
26 49 0
23 46 0
22 45 0
25 47 0
27 50 0
25 46 0
24 47 0
26 50 0
26 50 0
28 52 0
24 49 0
37 61 0
47 69 10
50 70 15
56 75 17
60 69 24
55 64 15
57 64 16
55 61 18
53 57 17
53 61 17
56 61 17
57 63 24
66 71 34
81 76 41
77 71 34
71 70 29
74 75 37
70 76 36
61 74 21
33 48 33
0 0 42
0 0 42
0 0 42
0 0 42
0 0 42
0 0 42
0 0 42
0 0 42
0 0 42
0 0 42
129 137 153
222 236 255
222 236 255
222 236 255
222 236 255
222 236 255
222 236 255
222 236 255
222 236 255
222 236 255
222 236 255
222 236 255
222 236 255
222 236 255
222 236 255
222 236 255
222 236 255
222 236 255
222 236 255
222 236 255
222 236 255
222 236 255
222 236 255
222 236 255
222 236 255
222 236 255
222 236 255
222 236 255
222 236 255
222 236 255
222 236 255
222 236 255
222 236 255
222 236 255
222 236 255
222 236 255
222 236 255
222 236 255
222 236 255
222 236 255
222 236 255
222 236 255
222 236 255
222 236 255
222 236 255
222 236 255
222 236 255
222 236 255
222 236 255
222 236 255
222 236 255
222 236 255
222 236 255
222 236 255
222 236 255
222 236 255
222 236 255
222 236 255
222 236 255
222 236 255
222 236 255
222 236 255
222 236 255
222 236 255
222 236 255
222 236 255
222 236 255
222 236 255
222 236 255
222 236 255
222 236 255
222 236 255
222 236 255
222 236 255
222 236 255
222 236 255
222 236 255
222 236 255
222 236 255
222 236 255
222 236 255
222 236 255
222 236 255
222 236 255
222 236 255
222 236 255
222 236 255
222 236 255
222 236 255
222 236 255
222 236 255
222 236 255
222 236 255
222 236 255
222 236 255
222 236 255
222 236 255
222 236 255
222 236 255
222 236 255
222 236 255
222 236 255
222 236 255
222 236 255
222 236 255
222 236 255
222 236 255
222 236 255
222 236 255
222 236 255
222 236 255
222 236 255
222 236 255
222 236 255
222 236 255
222 236 255
222 236 255
222 236 255
222 236 255
222 236 255
222 236 255
222 236 255
222 236 255
222 236 255
222 236 255
222 236 255
222 236 255
222 236 255
222 236 255
222 236 255
222 236 255
222 236 255
222 236 255
222 236 255
222 236 255
222 236 255
222 236 255
222 236 255
222 236 255
222 236 255
222 236 255
222 236 255
222 236 255
222 236 255
222 236 255
222 236 255
222 236 255
222 236 255
222 236 255
222 236 255
222 236 255
222 236 255
222 236 255
222 236 255
222 236 255
222 236 255
222 236 255
222 236 255
222 236 255
222 236 255
222 236 255
222 236 255
222 236 255
222 236 255
222 236 255
222 236 255
222 236 255
222 236 255
222 236 255
222 236 255
222 236 255
222 236 255
222 236 255
222 236 255
222 236 255
222 236 255
222 236 255
222 236 255
222 236 255
222 236 255
222 236 255
222 236 255
222 236 255
222 236 255
222 236 255
222 236 255
222 236 255
154 163 179
0 0 42
0 0 42
0 0 42
0 0 42
0 0 42
0 0 42
0 0 42
0 0 43
0 0 45
0 0 45
0 0 45
0 0 45
0 0 45
0 0 45
0 0 45
0 0 42
0 0 42
0 0 42
0 0 42
0 0 42
0 0 42
0 0 42
0 0 42
0 0 42
0 0 42
0 0 42
0 0 42
0 0 42
0 0 42
0 0 42
0 0 42
0 0 42
0 0 42
0 0 42
0 0 42
0 0 42
0 0 42
0 0 42
0 0 42
0 0 42
0 0 42
0 0 42
0 0 42
0 0 42
0 0 42
0 0 42
0 0 42
0 0 42
0 0 42
0 0 42
0 0 42
0 0 42
0 0 42
0 0 42
0 0 42
0 0 42
0 0 42
0 0 42
0 0 44
0 0 44
0 0 42
0 0 42
0 0 44
0 0 45
0 0 43
0 0 43
0 0 43
0 0 42
0 0 40
0 0 40
0 0 40
0 0 42
0 0 42
0 0 42
0 0 43
0 0 44
0 0 44
0 0 44
0 0 43
0 0 44
0 0 44
0 0 43
0 0 44
0 0 44
0 0 44
0 0 44
0 0 44
0 0 44
0 0 44
0 0 44
0 0 44
0 0 44
0 0 44
0 0 44
0 0 45
0 0 45
0 0 45
0 0 45
0 0 45
0 0 45
0 0 45
0 0 45
0 0 45
0 0 45
0 0 47
0 0 48
0 0 45
0 0 45
0 0 44
0 0 45
0 0 45
0 0 45
0 0 45
0 0 45
0 0 45
0 0 45
0 0 47
0 0 48
0 0 52
0 0 57
0 0 56
0 0 58
0 2 66
0 15 77
0 16 77
0 10 65
0 11 78
0 12 76
21 39 86
88 107 75
72 75 33
74 71 33
79 72 37
47 47 11
31 48 0
25 47 0
27 46 0
23 44 0
24 48 0
24 48 0
20 45 0
24 47 0
26 49 0
27 48 0
20 42 0
20 43 0
21 43 0
21 45 0
21 44 0
21 43 0
21 43 0
19 42 0
20 41 0
21 41 0
19 41 0
19 42 0
22 44 0
24 46 0
22 46 0
19 44 0
21 43 0
24 46 0
25 45 0
22 43 0
22 43 0
21 42 0
19 42 0
16 41 0
18 42 0
20 43 0
20 42 0
22 46 0
26 49 0
24 47 0
24 48 0
28 52 0
25 49 0
25 47 0
26 51 0
26 48 0
29 53 0
30 53 0
45 68 7
49 68 18
50 69 16
58 75 17
59 67 23
54 63 14
57 64 17
53 60 16
57 60 23
49 60 15
52 60 19
61 67 29
69 72 35
75 73 36
76 68 30
75 69 28
77 76 39
63 72 29
54 75 14
17 27 39
0 0 42
0 0 42
0 0 42
0 0 42
0 0 42
0 0 42
0 0 42
0 0 42
0 0 42
0 0 42
163 173 190
222 236 255
222 236 255
222 236 255
222 236 255
222 236 255
222 236 255
222 236 255
222 236 255
222 236 255
222 236 255
222 236 255
222 236 255
222 236 255
222 236 255
222 236 255
222 236 255
222 236 255
222 236 255
222 236 255
222 236 255
222 236 255
222 236 255
222 236 255
222 236 255
222 236 255
222 236 255
222 236 255
222 236 255
222 236 255
222 236 255
222 236 255
222 236 255
222 236 255
222 236 255
222 236 255
222 236 255
222 236 255
222 236 255
222 236 255
222 236 255
222 236 255
222 236 255
222 236 255
222 236 255
222 236 255
222 236 255
222 236 255
222 236 255
222 236 255
222 236 255
222 236 255
222 236 255
222 236 255
222 236 255
222 236 255
222 236 255
222 236 255
222 236 255
222 236 255
222 236 255
222 236 255
222 236 255
222 236 255
222 236 255
222 236 255
222 236 255
222 236 255
222 236 255
222 236 255
222 236 255
222 236 255
222 236 255
222 236 255
222 236 255
222 236 255
222 236 255
222 236 255
222 236 255
222 236 255
222 236 255
222 236 255
222 236 255
222 236 255
222 236 255
222 236 255
222 236 255
222 236 255
222 236 255
222 236 255
222 236 255
222 236 255
222 236 255
222 236 255
222 236 255
222 236 255
222 236 255
222 236 255
222 236 255
222 236 255
222 236 255
222 236 255
222 236 255
222 236 255
222 236 255
222 236 255
222 236 255
222 236 255
222 236 255
222 236 255
222 236 255
222 236 255
222 236 255
222 236 255
222 236 255
222 236 255
222 236 255
222 236 255
222 236 255
222 236 255
222 236 255
222 236 255
222 236 255
222 236 255
222 236 255
222 236 255
222 236 255
222 236 255
222 236 255
222 236 255
222 236 255
222 236 255
222 236 255
222 236 255
222 236 255
222 236 255
222 236 255
222 236 255
222 236 255
222 236 255
222 236 255
222 236 255
222 236 255
222 236 255
222 236 255
222 236 255
222 236 255
222 236 255
222 236 255
222 236 255
222 236 255
222 236 255
222 236 255
222 236 255
222 236 255
222 236 255
222 236 255
222 236 255
222 236 255
222 236 255
222 236 255
222 236 255
222 236 255
222 236 255
222 236 255
222 236 255
222 236 255
222 236 255
222 236 255
222 236 255
222 236 255
222 236 255
222 236 255
222 236 255
222 236 255
222 236 255
222 236 255
222 236 255
222 236 255
222 236 255
222 236 255
222 236 255
222 236 255
222 236 255
222 236 255
222 236 255
222 236 255
182 193 210
0 0 42
0 0 42
0 0 42
0 0 42
0 0 42
0 0 42
0 0 42
0 0 42
0 0 44
0 0 45
0 0 45
0 0 45
0 0 45
0 0 45
0 0 45
0 0 42
0 0 41
0 0 42
0 0 43
0 0 42
0 0 42
0 0 42
0 0 42
0 0 42
0 0 42
0 0 42
0 0 42
0 0 42
0 0 42
0 0 42
0 0 42
0 0 42
0 0 42
0 0 42
0 0 42
0 0 42
0 0 42
0 0 42
0 0 42
0 0 42
0 0 42
0 0 42
0 0 42
0 0 42
0 0 42
0 0 42
0 0 42
0 0 42
0 0 42
0 0 42
0 0 42
0 0 42
0 0 42
0 0 42
0 0 42
0 0 42
0 0 42
0 0 42
0 0 44
0 0 43
0 0 42
0 0 42
0 0 42
0 0 44
0 0 42
0 0 42
0 0 42
0 0 41
0 0 39
0 0 39
0 0 39
0 0 41
0 0 42
0 0 42
0 0 42
0 0 42
0 0 42
0 0 42
0 0 42
0 0 42
0 0 42
0 0 42
0 0 42
0 0 42
0 0 42
0 0 42
0 0 42
0 0 42
0 0 42
0 0 42
0 0 42
0 0 42
0 0 40
0 0 41
0 0 43
0 0 44
0 0 45
0 0 45
0 0 45
0 0 45
0 0 45
0 0 45
0 0 45
0 0 45
0 0 46
0 0 46
0 0 45
0 0 45
0 0 43
0 0 45
0 0 45
0 0 47
0 0 45
0 0 45
0 0 45
0 0 46
0 0 48
0 0 48
0 0 49
0 0 54
0 0 55
0 0 59
0 10 69
0 7 72
0 10 70
0 4 71
0 8 72
0 21 86
0 32 91
53 68 89
80 85 71
75 75 33
75 63 27
63 60 26
34 48 8
32 55 10
24 45 0
23 46 0
30 53 0
31 54 0
23 46 0
22 46 0
25 46 0
24 47 0
20 44 0
23 46 0
23 48 0
25 49 0
24 46 0
23 44 0
23 45 0
21 42 0
23 42 0
23 45 0
21 44 0
24 45 0
24 46 0
23 46 0
21 43 0
22 44 0
26 47 0
22 46 0
21 43 0
21 43 0
30 51 0
22 43 0
15 40 0
15 40 0
19 43 0
24 46 0
21 45 0
22 45 0
24 48 0
24 49 0
23 49 0
28 53 0
25 48 0
24 49 0
26 51 0
25 49 0
27 50 0
30 51 0
43 66 11
49 65 16
54 69 20
55 69 18
54 63 19
57 63 18
58 63 23
52 61 18
57 62 25
44 55 13
48 57 15
60 63 25
79 70 40
79 72 40
89 81 46
91 84 45
83 80 39
67 83 26
47 67 14
5 10 41
0 0 42
0 0 42
0 0 42
0 0 42
0 0 42
0 0 42
0 0 42
0 0 42
0 0 42
0 0 42
182 193 210
222 236 255
222 236 255
222 236 255
222 236 255
222 236 255
222 236 255
222 236 255
222 236 255
222 236 255
222 236 255
222 236 255
222 236 255
222 236 255
222 236 255
222 236 255
222 236 255
222 236 255
222 236 255
222 236 255
222 236 255
222 236 255
222 236 255
222 236 255
222 236 255
222 236 255
222 236 255
222 236 255
222 236 255
222 236 255
222 236 255
222 236 255
222 236 255
222 236 255
222 236 255
222 236 255
222 236 255
222 236 255
222 236 255
222 236 255
222 236 255
222 236 255
222 236 255
222 236 255
222 236 255
222 236 255
222 236 255
222 236 255
222 236 255
222 236 255
222 236 255
222 236 255
222 236 255
222 236 255
222 236 255
222 236 255
222 236 255
222 236 255
222 236 255
222 236 255
222 236 255
222 236 255
222 236 255
222 236 255
222 236 255
222 236 255
222 236 255
222 236 255
222 236 255
222 236 255
222 236 255
222 236 255
222 236 255
222 236 255
222 236 255
222 236 255
222 236 255
222 236 255
222 236 255
222 236 255
222 236 255
222 236 255
222 236 255
222 236 255
222 236 255
222 236 255
222 236 255
222 236 255
222 236 255
222 236 255
222 236 255
222 236 255
222 236 255
222 236 255
222 236 255
222 236 255
222 236 255
222 236 255
222 236 255
222 236 255
222 236 255
222 236 255
222 236 255
222 236 255
222 236 255
222 236 255
222 236 255
222 236 255
222 236 255
222 236 255
222 236 255
222 236 255
222 236 255
222 236 255
222 236 255
222 236 255
222 236 255
222 236 255
222 236 255
222 236 255
222 236 255
222 236 255
222 236 255
222 236 255
222 236 255
222 236 255
222 236 255
222 236 255
222 236 255
222 236 255
222 236 255
222 236 255
222 236 255
222 236 255
222 236 255
222 236 255
222 236 255
222 236 255
222 236 255
222 236 255
222 236 255
222 236 255
222 236 255
222 236 255
222 236 255
222 236 255
222 236 255
222 236 255
222 236 255
222 236 255
222 236 255
222 236 255
222 236 255
222 236 255
222 236 255
222 236 255
222 236 255
222 236 255
222 236 255
222 236 255
222 236 255
222 236 255
222 236 255
222 236 255
222 236 255
222 236 255
222 236 255
222 236 255
222 236 255
222 236 255
222 236 255
222 236 255
222 236 255
222 236 255
222 236 255
222 236 255
222 236 255
222 236 255
222 236 255
222 236 255
222 236 255
222 236 255
222 236 255
222 236 255
222 236 255
222 236 255
222 236 255
201 214 232
0 0 42
0 0 42
0 0 42
0 0 42
0 0 42
0 0 42
0 0 42
0 0 42
0 0 43
0 0 45
0 0 45
0 0 45
0 0 45
0 0 45
0 0 45
0 0 44
0 0 43
0 0 41
0 0 42
0 0 42
0 0 42
0 0 42
0 0 42
0 0 42
0 0 42
0 0 42
0 0 42
0 0 42
0 0 42
0 0 42
0 0 42
0 0 42
0 0 42
0 0 42
0 0 42
0 0 42
0 0 42
0 0 42
0 0 42
0 0 42
0 0 42
0 0 42
0 0 42
0 0 42
0 0 42
0 0 42
0 0 42
0 0 42
0 0 42
0 0 42
0 0 42
0 0 42
0 0 42
0 0 42
0 0 42
0 0 42
0 0 42
0 0 42
0 0 42
0 0 42
0 0 42
0 0 42
0 0 42
0 0 42
0 0 42
0 0 42
0 0 42
0 0 42
0 0 42
0 0 42
0 0 42
0 0 42
0 0 42
0 0 42
0 0 42
0 0 42
0 0 42
0 0 42
0 0 42
0 0 42
0 0 42
0 0 42
0 0 42
0 0 42
0 0 42
0 0 42
0 0 42
0 0 42
0 0 42
0 0 42
0 0 42
0 0 42
0 0 42
0 0 42
0 0 44
0 0 45
0 0 45
0 0 45
0 0 45
0 0 45
0 0 45
0 0 45
0 0 45
0 0 45
0 0 45
0 0 45
0 0 45
0 0 45
0 0 44
0 0 45
0 0 45
0 0 45
0 0 43
0 0 43
0 0 45
0 0 47
0 0 47
0 0 47
0 0 50
0 0 54
0 0 53
0 0 56
0 5 62
0 0 65
0 3 65
0 1 68
0 8 72
0 22 84
0 35 96
21 38 102
85 89 104
88 87 61
72 64 37
75 71 35
49 51 18
32 54 2
30 50 0
30 49 0
37 55 0
35 57 0
24 50 0
24 47 0
25 47 0
24 44 0
24 45 0
24 47 0
24 45 0
21 42 0
21 44 0
23 44 0
21 45 0
20 43 0
21 45 0
30 51 0
27 47 0
26 46 0
27 47 0
25 46 0
25 46 0
26 47 0
31 52 0
23 43 0
22 41 0
26 45 0
29 47 0
23 43 0
20 43 0
16 39 0
17 42 0
24 48 0
23 47 0
23 46 0
20 45 0
22 47 0
23 49 0
27 53 0
26 51 0
21 49 0
21 49 0
22 48 0
28 51 0
32 54 0
36 58 3
46 59 8
56 68 22
55 69 21
57 64 20
63 65 21
61 64 25
55 59 19
58 64 25
40 50 8
58 63 27
68 67 36
83 76 46
89 76 46
97 82 50
88 81 44
82 95 33
58 82 16
34 52 29
0 0 41
0 0 42
0 0 42
0 0 42
0 0 42
0 0 42
0 0 42
0 0 42
0 0 42
0 0 42
0 0 42
205 218 236
222 236 255
222 236 255
222 236 255
222 236 255
222 236 255
222 236 255
222 236 255
222 236 255
222 236 255
222 236 255
222 236 255
222 236 255
222 236 255
222 236 255
222 236 255
222 236 255
222 236 255
222 236 255
222 236 255
222 236 255
222 236 255
222 236 255
222 236 255
222 236 255
222 236 255
222 236 255
222 236 255
222 236 255
222 236 255
222 236 255
222 236 255
222 236 255
222 236 255
222 236 255
222 236 255
222 236 255
222 236 255
222 236 255
222 236 255
222 236 255
222 236 255
222 236 255
222 236 255
222 236 255
222 236 255
222 236 255
222 236 255
222 236 255
222 236 255
222 236 255
222 236 255
222 236 255
222 236 255
222 236 255
222 236 255
222 236 255
222 236 255
222 236 255
222 236 255
222 236 255
222 236 255
222 236 255
222 236 255
222 236 255
222 236 255
222 236 255
222 236 255
222 236 255
222 236 255
222 236 255
222 236 255
222 236 255
222 236 255
222 236 255
222 236 255
222 236 255
222 236 255
222 236 255
222 236 255
222 236 255
222 236 255
222 236 255
222 236 255
222 236 255
222 236 255
222 236 255
222 236 255
222 236 255
222 236 255
222 236 255
222 236 255
222 236 255
222 236 255
222 236 255
222 236 255
222 236 255
222 236 255
222 236 255
222 236 255
222 236 255
222 236 255
222 236 255
222 236 255
222 236 255
222 236 255
222 236 255
222 236 255
222 236 255
222 236 255
222 236 255
222 236 255
222 236 255
222 236 255
222 236 255
222 236 255
222 236 255
222 236 255
222 236 255
222 236 255
222 236 255
222 236 255
222 236 255
222 236 255
222 236 255
222 236 255
222 236 255
222 236 255
222 236 255
222 236 255
222 236 255
222 236 255
222 236 255
222 236 255
222 236 255
222 236 255
222 236 255
222 236 255
222 236 255
222 236 255
222 236 255
222 236 255
222 236 255
222 236 255
222 236 255
222 236 255
222 236 255
222 236 255
222 236 255
222 236 255
222 236 255
222 236 255
222 236 255
222 236 255
222 236 255
222 236 255
222 236 255
222 236 255
222 236 255
222 236 255
222 236 255
222 236 255
222 236 255
222 236 255
222 236 255
222 236 255
222 236 255
222 236 255
222 236 255
222 236 255
222 236 255
222 236 255
222 236 255
222 236 255
222 236 255
222 236 255
222 236 255
222 236 255
222 236 255
222 236 255
222 236 255
222 236 255
222 236 255
222 236 255
222 236 255
222 236 255
222 236 255
222 236 255
54 57 74
0 0 42
0 0 42
0 0 42
0 0 42
0 0 42
0 0 42
0 0 42
0 0 42
0 0 43
0 0 45
0 0 45
0 0 45
0 0 45
0 0 45
0 0 44
0 0 43
0 0 42
0 0 41
0 0 42
0 0 42
0 0 42
0 0 42
0 0 42
0 0 42
0 0 42
0 0 42
0 0 42
0 0 42
0 0 42
0 0 42
0 0 42
0 0 42
0 0 42
0 0 42
0 0 42
0 0 42
0 0 42
0 0 42
0 0 42
0 0 42
0 0 42
0 0 42
0 0 42
0 0 42
0 0 42
0 0 42
0 0 42
0 0 42
0 0 42
0 0 42
0 0 42
0 0 42
0 0 42
0 0 42
0 0 42
0 0 42
0 0 42
0 0 42
0 0 42
0 0 42
0 0 42
0 0 42
0 0 42
0 0 42
0 0 42
0 0 42
0 0 42
0 0 42
0 0 42
0 0 42
0 0 42
0 0 42
0 0 42
0 0 42
0 0 42
0 0 42
0 0 42
0 0 42
0 0 42
0 0 42
0 0 42
0 0 42
0 0 42
0 0 42
0 0 42
0 0 42
0 0 42
0 0 42
0 0 42
0 0 42
0 0 42
0 0 42
0 0 43
0 0 45
0 0 45
0 0 45
0 0 45
0 0 45
0 0 45
0 0 45
0 0 45
0 0 45
0 0 45
0 0 45
0 0 45
0 0 45
0 0 45
0 0 45
0 0 45
0 0 45
0 0 45
0 0 45
0 0 45
0 0 45
0 0 45
0 0 45
0 0 45
0 0 50
0 0 54
0 0 57
0 0 62
0 0 64
0 0 63
0 0 62
0 0 68
0 8 70
0 29 85
0 48 108
0 35 94
71 88 108
111 105 83
73 68 41
76 75 38
61 61 28
34 50 8
33 54 0
31 53 0
32 52 0
29 51 0
20 45 0
24 45 0
27 47 0
25 47 0
24 45 0
24 45 0
24 45 0
22 43 0
22 44 0
22 43 0
24 47 0
23 47 0
25 48 0
32 54 0
29 49 0
28 49 0
26 47 0
25 46 0
28 49 0
27 49 0
27 48 0
27 48 0
23 44 0
25 45 0
20 41 0
23 44 0
23 44 0
19 41 0
22 44 0
24 46 0
25 48 0
27 50 0
26 50 0
27 50 0
26 50 0
32 54 0
31 54 0
25 49 0
24 47 0
25 49 0
24 48 0
33 57 0
33 53 0
47 59 15
55 66 22
55 65 18
62 66 24
77 78 37
63 64 29
66 66 30
53 61 22
49 56 20
68 69 38
84 81 52
89 86 55
96 82 51
92 82 43
74 78 26
67 91 21
53 78 16
9 15 45
0 0 39
0 0 42
0 0 42
0 0 42
0 0 42
0 0 42
0 0 42
0 0 42
0 0 42
0 0 42
54 57 74
222 236 255
222 236 255
222 236 255
222 236 255
222 236 255
222 236 255
222 236 255
222 236 255
222 236 255
222 236 255
222 236 255
222 236 255
222 236 255
222 236 255
222 236 255
222 236 255
222 236 255
222 236 255
222 236 255
222 236 255
222 236 255
222 236 255
222 236 255
222 236 255
222 236 255
222 236 255
222 236 255
222 236 255
222 236 255
222 236 255
222 236 255
222 236 255
222 236 255
222 236 255
222 236 255
222 236 255
222 236 255
222 236 255
222 236 255
222 236 255
222 236 255
222 236 255
222 236 255
222 236 255
222 236 255
222 236 255
222 236 255
222 236 255
222 236 255
222 236 255
222 236 255
222 236 255
222 236 255
222 236 255
222 236 255
222 236 255
222 236 255
222 236 255
222 236 255
222 236 255
222 236 255
222 236 255
222 236 255
222 236 255
222 236 255
222 236 255
222 236 255
222 236 255
222 236 255
222 236 255
222 236 255
222 236 255
222 236 255
222 236 255
222 236 255
222 236 255
222 236 255
222 236 255
222 236 255
222 236 255
222 236 255
222 236 255
222 236 255
222 236 255
222 236 255
222 236 255
222 236 255
222 236 255
222 236 255
222 236 255
222 236 255
222 236 255
222 236 255
222 236 255
222 236 255
222 236 255
222 236 255
222 236 255
222 236 255
222 236 255
222 236 255
222 236 255
222 236 255
222 236 255
222 236 255
222 236 255
222 236 255
222 236 255
222 236 255
222 236 255
222 236 255
222 236 255
222 236 255
222 236 255
222 236 255
222 236 255
222 236 255
222 236 255
222 236 255
222 236 255
222 236 255
222 236 255
222 236 255
222 236 255
222 236 255
222 236 255
222 236 255
222 236 255
222 236 255
222 236 255
222 236 255
222 236 255
222 236 255
222 236 255
222 236 255
222 236 255
222 236 255
222 236 255
222 236 255
222 236 255
222 236 255
222 236 255
222 236 255
222 236 255
222 236 255
222 236 255
222 236 255
222 236 255
222 236 255
222 236 255
222 236 255
222 236 255
222 236 255
222 236 255
222 236 255
222 236 255
222 236 255
222 236 255
222 236 255
222 236 255
222 236 255
222 236 255
222 236 255
222 236 255
222 236 255
222 236 255
222 236 255
222 236 255
222 236 255
222 236 255
222 236 255
222 236 255
222 236 255
222 236 255
222 236 255
222 236 255
222 236 255
222 236 255
222 236 255
222 236 255
222 236 255
222 236 255
222 236 255
222 236 255
222 236 255
222 236 255
222 236 255
222 236 255
102 108 123
0 0 42
0 0 42
0 0 42
0 0 42
0 0 42
0 0 42
0 0 42
0 0 42
0 0 42
0 0 43
0 0 45
0 0 45
0 0 45
0 0 45
0 0 44
0 0 45
0 0 44
0 0 41
0 0 42
0 0 42
0 0 42
0 0 42
0 0 42
0 0 42
0 0 42
0 0 42
0 0 42
0 0 42
0 0 42
0 0 42
0 0 42
0 0 42
0 0 42
0 0 42
0 0 42
0 0 42
0 0 42
0 0 42
0 0 42
0 0 42
0 0 42
0 0 42
0 0 42
0 0 42
0 0 42
0 0 42
0 0 42
0 0 42
0 0 42
0 0 42
0 0 42
0 0 42
0 0 42
0 0 42
0 0 42
0 0 42
0 0 42
0 0 42
0 0 42
0 0 42
0 0 42
0 0 42
0 0 42
0 0 42
0 0 42
0 0 42
0 0 42
0 0 42
0 0 42
0 0 42
0 0 42
0 0 42
0 0 42
0 0 42
0 0 42
0 0 42
0 0 42
0 0 42
0 0 42
0 0 42
0 0 42
0 0 42
0 0 42
0 0 42
0 0 42
0 0 42
0 0 42
0 0 42
0 0 42
0 0 42
0 0 42
0 0 42
0 0 43
0 0 45
0 0 45
0 0 45
0 0 45
0 0 45
0 0 45
0 0 45
0 0 45
0 0 45
0 0 45
0 0 45
0 0 45
0 0 45
0 0 45
0 0 45
0 0 45
0 0 45
0 0 45
0 0 45
0 0 45
0 0 46
0 0 46
0 0 46
0 0 46
0 0 48
0 0 54
0 0 60
0 0 64
0 0 64
0 0 60
0 0 59
0 0 64
0 5 67
0 18 76
0 40 99
0 39 98
20 47 98
114 110 94
82 76 45
74 71 37
69 69 34
49 55 23
37 53 6
31 52 0
28 49 0
25 50 0
22 43 0
23 42 0
25 47 0
24 46 0
26 46 0
27 47 0
27 47 0
25 45 0
22 46 0
24 46 0
21 43 0
27 51 0
36 59 2
33 56 2
31 52 0
31 52 0
27 48 0
28 47 0
26 47 0
25 46 0
29 50 0
35 56 0
34 55 0
30 52 0
19 43 0
22 44 0
17 40 0
21 43 0
27 47 0
25 49 0
30 54 0
35 59 0
34 59 0
42 67 8
37 58 0
45 66 9
32 54 0
29 52 0
25 47 0
28 51 0
28 49 0
39 61 12
37 54 3
49 61 18
58 68 26
53 62 19
63 67 27
84 82 43
71 70 36
64 66 29
54 61 24
58 59 30
73 70 42
77 72 42
72 69 36
78 71 35
74 74 31
66 77 25
57 80 14
30 44 38
0 0 39
0 0 44
0 0 42
0 0 42
0 0 42
0 0 42
0 0 42
0 0 42
0 0 42
0 0 42
0 0 42
102 108 123
222 236 255
222 236 255
222 236 255
222 236 255
222 236 255
222 236 255
222 236 255
222 236 255
222 236 255
222 236 255
222 236 255
222 236 255
222 236 255
222 236 255
222 236 255
222 236 255
222 236 255
222 236 255
222 236 255
222 236 255
222 236 255
222 236 255
222 236 255
222 236 255
222 236 255
222 236 255
222 236 255
222 236 255
222 236 255
222 236 255
222 236 255
222 236 255
222 236 255
222 236 255
222 236 255
222 236 255
222 236 255
222 236 255
222 236 255
222 236 255
222 236 255
222 236 255
222 236 255
222 236 255
222 236 255
222 236 255
222 236 255
222 236 255
222 236 255
222 236 255
222 236 255
222 236 255
222 236 255
222 236 255
222 236 255
222 236 255
222 236 255
222 236 255
222 236 255
222 236 255
222 236 255
222 236 255
222 236 255
222 236 255
222 236 255
222 236 255
222 236 255
222 236 255
222 236 255
222 236 255
222 236 255
222 236 255
222 236 255
222 236 255
222 236 255
222 236 255
222 236 255
222 236 255
222 236 255
222 236 255
222 236 255
222 236 255
222 236 255
222 236 255
222 236 255
222 236 255
222 236 255
222 236 255
222 236 255
222 236 255
222 236 255
222 236 255
222 236 255
222 236 255
222 236 255
222 236 255
222 236 255
222 236 255
222 236 255
222 236 255
222 236 255
222 236 255
222 236 255
222 236 255
222 236 255
222 236 255
222 236 255
222 236 255
222 236 255
222 236 255
222 236 255
222 236 255
222 236 255
222 236 255
222 236 255
222 236 255
222 236 255
222 236 255
222 236 255
222 236 255
222 236 255
222 236 255
222 236 255
222 236 255
222 236 255
222 236 255
222 236 255
222 236 255
222 236 255
222 236 255
222 236 255
222 236 255
222 236 255
222 236 255
222 236 255
222 236 255
222 236 255
222 236 255
222 236 255
222 236 255
222 236 255
222 236 255
222 236 255
222 236 255
222 236 255
222 236 255
222 236 255
222 236 255
222 236 255
222 236 255
222 236 255
222 236 255
222 236 255
222 236 255
222 236 255
222 236 255
222 236 255
222 236 255
222 236 255
222 236 255
222 236 255
222 236 255
222 236 255
222 236 255
222 236 255
222 236 255
222 236 255
222 236 255
222 236 255
222 236 255
222 236 255
222 236 255
222 236 255
222 236 255
222 236 255
222 236 255
222 236 255
222 236 255
222 236 255
222 236 255
222 236 255
222 236 255
222 236 255
222 236 255
222 236 255
222 236 255
222 236 255
222 236 255
137 145 161
0 0 42
0 0 42
0 0 42
0 0 42
0 0 42
0 0 42
0 0 42
0 0 42
0 0 42
0 0 42
0 0 43
0 0 45
0 0 45
0 0 45
0 0 45
0 0 45
0 0 44
0 0 42
0 0 42
0 0 42
0 0 42
0 0 42
0 0 42
0 0 42
0 0 42
0 0 42
0 0 42
0 0 42
0 0 42
0 0 42
0 0 42
0 0 42
0 0 42
0 0 42
0 0 42
0 0 42
0 0 42
0 0 42
0 0 42
0 0 42
0 0 42
0 0 42
0 0 42
0 0 42
0 0 42
0 0 42
0 0 42
0 0 42
0 0 42
0 0 42
0 0 42
0 0 42
0 0 42
0 0 42
0 0 42
0 0 42
0 0 42
0 0 42
0 0 42
0 0 42
0 0 42
0 0 42
0 0 42
0 0 42
0 0 42
0 0 42
0 0 42
0 0 42
0 0 42
0 0 42
0 0 42
0 0 42
0 0 42
0 0 42
0 0 42
0 0 42
0 0 42
0 0 42
0 0 42
0 0 42
0 0 42
0 0 42
0 0 42
0 0 42
0 0 42
0 0 42
0 0 42
0 0 42
0 0 42
0 0 42
0 0 42
0 0 42
0 0 42
0 0 42
0 0 42
0 0 43
0 0 43
0 0 43
0 0 43
0 0 45
0 0 45
0 0 45
0 0 45
0 0 45
0 0 45
0 0 45
0 0 45
0 0 45
0 0 45
0 0 45
0 0 45
0 0 45
0 0 46
0 0 48
0 0 48
0 0 48
0 0 50
0 0 47
0 0 50
0 0 57
0 0 65
0 0 66
0 0 60
0 0 60
0 0 59
0 3 65
0 6 70
0 20 82
0 31 93
0 30 97
62 77 89
99 89 58
76 68 36
73 70 34
74 71 38
50 58 19
31 49 0
24 46 0
21 45 0
25 45 0
24 44 0
24 43 0
24 46 0
27 47 0
28 47 0
25 46 0
25 47 0
26 46 0
25 46 0
26 48 0
32 53 0
41 64 9
41 63 6
33 54 0
27 48 0
25 44 0
28 49 0
27 49 0
25 49 0
35 57 0
40 62 0
43 65 0
35 57 0
22 46 0
24 46 0
22 43 0
22 45 0
27 49 0
28 51 0
29 54 0
29 53 0
32 56 0
45 67 8
52 74 18
49 70 18
33 54 0
28 50 0
30 52 5
39 58 9
39 56 7
39 54 12
43 55 15
49 61 20
61 67 26
52 60 19
61 67 27
81 75 40
65 64 32
52 60 19
51 55 22
68 64 39
78 73 45
87 74 46
74 68 35
70 73 29
71 76 31
66 78 26
41 60 26
2 3 43
0 0 39
0 0 43
0 0 42
0 0 42
0 0 42
0 0 42
0 0 42
0 0 42
0 0 42
0 0 42
0 0 42
149 158 174
222 236 255
222 236 255
222 236 255
222 236 255
222 236 255
222 236 255
222 236 255
222 236 255
222 236 255
222 236 255
222 236 255
222 236 255
222 236 255
222 236 255
222 236 255
222 236 255
222 236 255
222 236 255
222 236 255
222 236 255
222 236 255
222 236 255
222 236 255
222 236 255
222 236 255
222 236 255
222 236 255
222 236 255
222 236 255
222 236 255
222 236 255
222 236 255
222 236 255
222 236 255
222 236 255
222 236 255
222 236 255
222 236 255
222 236 255
222 236 255
222 236 255
222 236 255
222 236 255
222 236 255
222 236 255
222 236 255
222 236 255
222 236 255
222 236 255
222 236 255
222 236 255
222 236 255
222 236 255
222 236 255
222 236 255
222 236 255
222 236 255
222 236 255
222 236 255
222 236 255
222 236 255
222 236 255
222 236 255
222 236 255
222 236 255
222 236 255
222 236 255
222 236 255
222 236 255
222 236 255
222 236 255
222 236 255
222 236 255
222 236 255
222 236 255
222 236 255
222 236 255
222 236 255
222 236 255
222 236 255
222 236 255
222 236 255
222 236 255
222 236 255
222 236 255
222 236 255
222 236 255
222 236 255
222 236 255
222 236 255
222 236 255
222 236 255
222 236 255
222 236 255
222 236 255
222 236 255
222 236 255
222 236 255
222 236 255
222 236 255
222 236 255
222 236 255
222 236 255
222 236 255
222 236 255
222 236 255
222 236 255
222 236 255
222 236 255
222 236 255
222 236 255
222 236 255
222 236 255
222 236 255
222 236 255
222 236 255
222 236 255
222 236 255
222 236 255
222 236 255
222 236 255
222 236 255
222 236 255
222 236 255
222 236 255
222 236 255
222 236 255
222 236 255
222 236 255
222 236 255
222 236 255
222 236 255
222 236 255
222 236 255
222 236 255
222 236 255
222 236 255
222 236 255
222 236 255
222 236 255
222 236 255
222 236 255
222 236 255
222 236 255
222 236 255
222 236 255
222 236 255
222 236 255
222 236 255
222 236 255
222 236 255
222 236 255
222 236 255
223 236 255
222 236 255
222 236 255
223 236 255
223 236 255
223 236 255
223 236 255
223 236 255
223 236 255
223 236 255
223 236 255
223 236 255
223 236 255
223 236 255
223 236 255
223 236 255
223 236 255
223 236 255
223 236 255
223 236 255
223 236 255
223 236 255
223 236 255
223 236 255
223 236 255
223 236 255
223 236 255
223 236 255
223 236 255
223 236 255
223 236 255
223 236 255
223 236 255
223 236 255
223 236 255
181 192 209
0 0 42
0 0 42
0 0 42
0 0 42
0 0 42
0 0 42
0 0 42
0 0 42
0 0 42
0 0 42
0 0 42
0 0 45
0 0 45
0 0 45
0 0 45
0 0 43
0 0 43
0 0 44
0 0 42
0 0 42
0 0 42
0 0 42
0 0 42
0 0 42
0 0 42
0 0 42
0 0 42
0 0 42
0 0 42
0 0 42
0 0 42
0 0 42
0 0 42
0 0 42
0 0 42
0 0 42
0 0 42
0 0 42
0 0 42
0 0 42
0 0 42
0 0 42
0 0 42
0 0 42
0 0 42
0 0 42
0 0 42
0 0 42
0 0 42
0 0 42
0 0 42
0 0 42
0 0 42
0 0 42
0 0 42
0 0 42
0 0 42
0 0 42
0 0 42
0 0 42
0 0 42
0 0 42
0 0 42
0 0 42
0 0 42
0 0 42
0 0 42
0 0 42
0 0 42
0 0 42
0 0 42
0 0 42
0 0 42
0 0 42
0 0 42
0 0 42
0 0 42
0 0 42
0 0 42
0 0 42
0 0 42
0 0 42
0 0 42
0 0 42
0 0 42
0 0 42
0 0 42
0 0 42
0 0 42
0 0 42
0 0 42
0 0 42
0 0 42
0 0 42
0 0 42
0 0 42
0 0 42
0 0 42
0 0 42
0 0 45
0 0 45
0 0 45
0 0 45
0 0 45
0 0 45
0 0 45
0 0 45
0 0 45
0 0 45
0 0 45
0 0 45
0 0 46
0 0 48
0 0 48
0 0 48
0 0 48
0 0 48
0 0 49
0 0 59
0 0 64
0 0 64
0 0 59
0 0 57
0 0 58
0 0 60
0 8 66
0 7 68
0 15 75
0 29 91
0 30 95
39 54 92
109 99 86
89 76 47
79 75 42
77 73 37
54 57 18
33 49 0
26 48 0
23 44 0
26 46 0
22 45 0
25 44 0
27 48 0
28 49 0
28 48 0
25 47 0
25 45 0
27 46 0
29 50 0
29 51 0
33 54 0
34 55 0
31 50 0
24 45 0
26 46 0
27 47 0
31 52 0
28 50 0
23 46 0
28 51 0
35 57 0
49 71 10
45 67 9
29 50 1
22 43 0
20 40 0
20 44 0
24 49 0
29 52 0
29 53 0
28 52 0
28 51 0
40 62 7
49 71 17
41 61 11
27 49 0
21 42 0
35 55 7
42 59 12
45 58 19
45 56 18
42 53 14
46 59 18
61 65 26
53 62 22
64 70 29
88 80 45
60 62 26
44 57 14
56 59 27
76 71 45
77 70 42
97 78 52
70 68 29
74 78 28
72 76 27
61 73 20
19 30 38
0 0 42
0 0 42
0 0 41
0 0 42
0 0 42
0 0 42
0 0 42
0 0 42
0 0 42
0 0 42
0 0 42
0 0 42
169 180 196
223 236 255
223 236 255
223 236 255
223 236 255
223 236 255
223 236 255
223 236 255
223 236 255
223 236 255
223 236 255
223 236 255
223 236 255
223 236 255
223 236 255
223 236 255
223 236 255
223 236 255
223 236 255
223 236 255
223 236 255
223 236 255
223 236 255
223 236 255
223 236 255
223 236 255
223 236 255
223 236 255
223 236 255
223 236 255
223 236 255
222 236 255
223 236 255
223 236 255
223 236 255
222 236 255
223 236 255
222 236 255
222 236 255
222 236 255
222 236 255
222 236 255
222 236 255
222 236 255
222 236 255
222 236 255
222 236 255
222 236 255
222 236 255
222 236 255
222 236 255
222 236 255
222 236 255
222 236 255
222 236 255
222 236 255
222 236 255
222 236 255
222 236 255
222 236 255
222 236 255
222 236 255
222 236 255
222 236 255
222 236 255
222 236 255
222 236 255
222 236 255
222 236 255
222 236 255
222 236 255
222 236 255
222 236 255
222 236 255
222 236 255
222 236 255
222 236 255
222 236 255
222 236 255
222 236 255
222 236 255
222 236 255
222 236 255
222 236 255
222 236 255
222 236 255
222 236 255
222 236 255
222 236 255
222 236 255
222 236 255
222 236 255
222 236 255
222 236 255
222 236 255
223 236 255
223 236 255
223 236 255
223 236 255
223 236 255
223 236 255
223 236 255
223 236 255
223 236 255
223 236 255
223 236 255
223 236 255
223 236 255
223 236 255
223 236 255
223 236 255
223 236 255
223 236 255
223 236 255
223 236 255
223 236 255
223 236 255
223 236 255
223 236 255
223 236 255
223 236 255
223 236 255
223 236 255
223 236 255
223 236 255
223 236 255
223 236 255
223 236 255
223 236 255
223 236 255
223 236 255
223 236 255
223 236 255
223 236 255
223 236 255
223 236 255
223 236 255
223 236 255
223 236 255
223 236 255
223 236 255
223 236 255
223 236 255
223 236 255
223 236 255
223 236 255
223 236 255
223 236 255
223 236 255
223 236 255
223 236 255
223 236 255
223 236 255
223 236 255
223 236 255
223 236 255
223 236 255
223 236 255
223 236 255
223 236 255
223 236 255
223 236 255
223 236 255
223 236 255
223 236 255
223 236 255
223 236 255
223 236 255
223 236 255
223 236 255
223 236 255
223 236 255
223 236 255
223 236 255
223 236 255
223 236 255
223 236 255
223 236 255
223 236 255
223 236 255
223 236 255
223 236 255
223 236 255
223 236 255
223 236 255
223 236 255
223 236 255
223 236 255
223 236 255
203 215 233
0 0 42
0 0 42
0 0 42
0 0 42
0 0 42
0 0 42
0 0 42
0 0 42
0 0 42
0 0 42
0 0 42
0 0 44
0 0 45
0 0 45
0 0 45
0 0 42
0 0 42
0 0 42
0 0 42
0 0 42
0 0 42
0 0 42
0 0 42
0 0 42
0 0 42
0 0 42
0 0 42
0 0 42
0 0 42
0 0 42
0 0 42
0 0 42
0 0 42
0 0 42
0 0 42
0 0 42
0 0 42
0 0 42
0 0 42
0 0 42
0 0 42
0 0 42
0 0 42
0 0 42
0 0 42
0 0 42
0 0 42
0 0 42
0 0 42
0 0 42
0 0 42
0 0 42
0 0 42
0 0 42
0 0 42
0 0 42
0 0 42
0 0 42
0 0 42
0 0 42
0 0 42
0 0 42
0 0 42
0 0 42
0 0 42
0 0 42
0 0 42
0 0 42
0 0 42
0 0 42
0 0 42
0 0 42
0 0 42
0 0 42
0 0 42
0 0 42
0 0 42
0 0 42
0 0 42
0 0 42
0 0 42
0 0 42
0 0 42
0 0 42
0 0 42
0 0 42
0 0 42
0 0 42
0 0 42
0 0 42
0 0 42
0 0 42
0 0 42
0 0 42
0 0 42
0 0 42
0 0 42
0 0 42
0 0 42
0 0 45
0 0 45
0 0 45
0 0 45
0 0 45
0 0 45
0 0 45
0 0 45
0 0 45
0 0 45
0 0 45
0 0 45
0 0 47
0 0 48
0 0 48
0 0 48
0 0 49
0 0 49
0 9 61
0 0 64
0 0 59
0 0 55
0 0 54
0 0 55
0 0 54
0 0 59
0 0 63
0 0 67
0 8 75
0 21 86
0 37 98
11 31 97
91 91 102
101 94 67
76 75 47
75 73 36
61 61 23
35 48 0
32 54 0
26 45 0
26 44 0
23 44 0
25 45 0
28 47 0
28 48 0
28 47 0
27 47 0
26 45 0
25 43 0
31 51 0
36 56 0
31 51 0
29 47 0
25 45 0
28 48 0
30 52 0
27 48 0
27 49 0
24 46 0
19 43 0
25 45 0
32 52 0
45 65 2
49 70 10
38 58 7
28 48 0
19 42 0
20 43 0
31 54 0
34 57 0
38 59 4
38 61 3
29 53 0
34 53 0
34 55 0
33 55 7
24 47 0
22 42 0
31 50 0
43 61 13
45 59 17
48 60 21
42 55 16
54 63 22
62 67 26
57 65 21
61 67 29
84 79 48
79 75 44
55 60 25
64 61 32
67 63 34
65 62 30
86 72 41
58 68 20
76 77 25
66 73 24
42 56 22
3 5 41
0 0 42
0 0 42
0 0 42
0 0 42
0 0 42
0 0 42
0 0 42
0 0 42
0 0 42
0 0 42
0 0 42
0 0 42
204 217 235
223 236 255
223 236 255
223 236 255
223 236 255
223 236 255
223 236 255
223 236 255
223 236 255
223 236 255
223 236 255
223 236 255
223 236 255
223 236 255
223 236 255
223 236 255
223 236 255
223 236 255
223 236 255
223 236 255
223 236 255
223 236 255
223 236 255
223 236 255
223 236 255
223 236 255
223 236 255
223 236 255
223 236 255
223 236 255
223 236 255
223 236 255
223 236 255
223 236 255
223 236 255
223 236 255
223 236 255
223 236 255
223 236 255
223 236 255
223 236 255
223 236 255
223 236 255
223 236 255
223 236 255
223 236 255
223 236 255
223 236 255
223 236 255
223 236 255
223 236 255
223 236 255
223 236 255
223 236 255
223 236 255
223 236 255
223 236 255
223 236 255
223 236 255
223 236 255
223 236 255
223 236 255
223 236 255
223 236 255
223 236 255
223 236 255
223 236 255
223 236 255
223 236 255
223 236 255
223 236 255
223 236 255
223 236 255
223 236 255
223 236 255
223 236 255
223 236 255
223 236 255
223 236 255
223 236 255
223 236 255
223 236 255
223 236 255
223 236 255
223 236 255
223 236 255
223 236 255
223 236 255
223 236 255
223 236 255
223 236 255
223 236 255
223 236 255
223 236 255
223 236 255
223 236 255
223 236 255
223 236 255
223 236 255
223 236 255
223 236 255
223 236 255
223 236 255
223 236 255
223 236 255
223 236 255
223 236 255
223 236 255
223 236 255
223 236 255
223 236 255
223 236 255
223 236 255
223 236 255
223 236 255
223 236 255
223 236 255
223 236 255
223 236 255
223 236 255
223 236 255
223 236 255
223 236 255
223 236 255
223 236 255
223 236 255
223 236 255
223 236 255
223 236 255
223 236 255
223 236 255
223 236 255
223 236 255
223 236 255
223 236 255
223 236 255
223 236 255
223 236 255
223 236 255
223 236 255
223 236 255
223 236 255
223 236 255
223 236 255
223 236 255
223 236 255
223 236 255
223 236 255
223 236 255
223 236 255
223 236 255
223 236 255
223 236 255
223 236 255
223 236 255
223 236 255
223 236 255
223 236 255
223 236 255
223 236 255
223 236 255
223 236 255
223 236 255
223 236 255
223 236 255
223 236 255
223 236 255
223 236 255
223 236 255
223 236 255
223 236 255
223 236 255
223 236 255
223 236 255
223 236 255
223 236 255
223 236 255
223 236 255
223 236 255
223 236 255
223 236 255
223 236 255
223 236 255
223 236 255
223 236 255
223 236 255
223 236 255
223 236 255
223 236 255
223 236 255
66 71 86
0 0 42
0 0 42
0 0 42
0 0 42
0 0 42
0 0 42
0 0 42
0 0 42
0 0 42
0 0 42
0 0 42
0 0 43
0 0 45
0 0 45
0 0 43
0 0 42
0 0 42
0 0 42
0 0 42
0 0 42
0 0 42
0 0 42
0 0 42
0 0 42
0 0 42
0 0 42
0 0 42
0 0 42
0 0 42
0 0 42
0 0 42
0 0 42
0 0 42
0 0 42
0 0 42
0 0 42
0 0 42
0 0 42
0 0 42
0 0 42
0 0 42
0 0 42
0 0 42
0 0 42
0 0 42
0 0 42
0 0 42
0 0 42
0 0 42
0 0 42
0 0 42
0 0 42
0 0 42
0 0 42
0 0 42
0 0 42
0 0 42
0 0 42
0 0 42
0 0 42
0 0 42
0 0 42
0 0 42
0 0 42
0 0 42
0 0 42
0 0 42
0 0 42
0 0 42
0 0 42
0 0 42
0 0 42
0 0 42
0 0 42
0 0 42
0 0 42
0 0 42
0 0 42
0 0 42
0 0 42
0 0 42
0 0 42
0 0 42
0 0 42
0 0 42
0 0 42
0 0 42
0 0 42
0 0 42
0 0 42
0 0 42
0 0 42
0 0 42
0 0 42
0 0 42
0 0 42
0 0 42
0 0 42
0 0 45
0 0 45
0 0 45
0 0 45
0 0 45
0 0 45
0 0 45
0 0 45
0 0 45
0 0 45
0 0 45
0 0 45
0 0 47
0 0 47
0 0 45
0 0 46
0 0 52
0 0 62
0 6 63
0 0 58
0 0 53
0 0 53
0 0 51
0 0 49
0 0 49
0 0 53
0 0 59
0 0 63
0 4 69
0 15 80
0 41 99
0 30 102
60 79 113
116 110 100
80 79 43
87 78 47
89 78 48
56 54 19
50 59 18
28 48 2
26 48 0
25 45 0
26 46 0
30 48 0
24 42 0
25 44 0
27 46 0
23 43 0
24 45 0
26 49 0
28 49 0
27 47 0
27 47 0
25 46 0
30 50 0
27 48 0
26 46 0
27 48 0
24 44 0
25 46 0
28 47 0
33 52 0
44 62 5
49 70 12
43 65 8
32 53 0
23 42 0
19 42 0
29 53 0
35 58 0
35 55 4
36 57 5
29 49 0
46 60 14
39 58 10
25 47 0
23 45 0
22 44 0
29 49 0
36 53 5
49 62 17
46 58 20
45 56 16
61 68 28
62 68 27
57 66 24
61 65 29
88 81 50
78 76 42
59 63 27
63 62 32
69 64 37
68 63 31
64 61 23
57 65 16
67 75 24
51 69 9
16 25 38
0 0 41
0 0 42
0 0 42
0 0 42
0 0 42
0 0 42
0 0 42
0 0 42
0 0 42
0 0 42
0 0 42
0 0 42
80 85 100
223 236 255
223 236 255
223 236 255
223 236 255
223 236 255
223 236 255
223 236 255
223 236 255
223 236 255
223 236 255
223 236 255
223 236 255
223 236 255
223 236 255
223 236 255
223 236 255
223 236 255
223 236 255
223 236 255
223 236 255
223 236 255
223 236 255
223 236 255
223 236 255
223 236 255
223 236 255
223 236 255
223 236 255
223 236 255
223 236 255
223 236 255
223 236 255
223 236 255
223 236 255
223 236 255
223 236 255
223 236 255
223 236 255
223 236 255
223 236 255
223 236 255
223 236 255
223 236 255
223 236 255
223 236 255
223 236 255
223 236 255
223 236 255
223 236 255
223 236 255
223 236 255
223 236 255
223 236 255
223 236 255
223 236 255
223 236 255
223 236 255
223 236 255
223 236 255
223 236 255
223 236 255
223 236 255
223 236 255
223 236 255
223 236 255
223 236 255
223 236 255
223 236 255
223 236 255
223 236 255
223 236 255
223 236 255
223 236 255
223 236 255
223 236 255
223 236 255
223 236 255
223 236 255
223 236 255
223 236 255
223 236 255
223 236 255
223 236 255
223 236 255
223 236 255
223 236 255
223 236 255
223 236 255
223 236 255
223 236 255
223 236 255
223 236 255
223 236 255
223 236 255
223 236 255
223 236 255
223 236 255
223 236 255
223 236 255
223 236 255
223 236 255
223 236 255
223 236 255
223 236 255
223 236 255
223 236 255
223 236 255
223 236 255
223 236 255
223 236 255
223 236 255
223 236 255
223 236 255
223 236 255
223 236 255
223 236 255
223 236 255
223 236 255
223 236 255
223 236 255
223 236 255
223 236 255
223 236 255
223 236 255
223 236 255
223 236 255
223 236 255
223 236 255
223 236 255
223 236 255
223 236 255
223 236 255
223 236 255
223 236 255
223 236 255
223 236 255
223 236 255
223 236 255
223 236 255
223 236 255
223 236 255
223 236 255
223 236 255
223 236 255
223 236 255
223 236 255
223 236 255
223 236 255
223 236 255
223 236 255
223 236 255
223 236 255
223 236 255
223 236 255
223 236 255
223 236 255
223 236 255
223 236 255
223 236 255
223 236 255
223 236 255
223 236 255
223 236 255
223 236 255
223 236 255
223 236 255
223 236 255
223 236 255
223 236 255
223 236 255
223 236 255
223 236 255
223 236 255
223 236 255
223 236 255
223 236 255
223 236 255
223 236 255
223 236 255
223 236 255
223 236 255
223 236 255
223 236 255
223 236 255
223 236 255
223 236 255
223 236 255
223 236 255
223 236 255
223 236 255
120 127 142
0 0 42
0 0 42
0 0 42
0 0 42
0 0 42
0 0 42
0 0 42
0 0 42
0 0 42
0 0 42
0 0 42
0 0 42
0 0 43
0 0 43
0 0 42
0 0 42
0 0 42
0 0 42
0 0 42
0 0 42
0 0 42
0 0 42
0 0 42
0 0 42
0 0 42
0 0 42
0 0 42
0 0 42
0 0 42
0 0 42
0 0 42
0 0 42
0 0 42
0 0 42
0 0 42
0 0 42
0 0 42
0 0 42
0 0 42
0 0 42
0 0 42
0 0 42
0 0 42
0 0 42
0 0 42
0 0 42
0 0 42
0 0 42
0 0 42
0 0 42
0 0 42
0 0 42
0 0 42
0 0 42
0 0 42
0 0 42
0 0 42
0 0 42
0 0 42
0 0 42
0 0 42
0 0 42
0 0 42
0 0 42
0 0 42
0 0 42
0 0 42
0 0 42
0 0 42
0 0 42
0 0 42
0 0 42
0 0 42
0 0 42
0 0 42
0 0 42
0 0 42
0 0 42
0 0 42
0 0 42
0 0 42
0 0 42
0 0 42
0 0 42
0 0 42
0 0 42
0 0 42
0 0 42
0 0 42
0 0 42
0 0 42
0 0 42
0 0 42
0 0 42
0 0 42
0 0 42
0 0 42
0 0 42
0 0 43
0 0 45
0 0 45
0 0 45
0 0 45
0 0 43
0 0 45
0 0 45
0 0 45
0 0 45
0 0 45
0 0 45
0 0 47
0 0 45
0 0 45
0 0 48
0 0 53
0 0 61
0 0 59
0 0 56
0 0 54
0 0 52
0 0 49
0 0 48
0 0 46
0 0 49
0 0 54
0 0 58
0 0 65
0 11 78
0 29 89
0 41 100
0 39 95
70 95 124
110 97 78
97 78 45
94 84 51
82 78 42
56 60 20
36 50 0
25 43 0
27 48 0
22 46 0
21 42 0
24 43 0
27 45 0
26 45 0
25 43 0
24 43 0
26 46 0
27 48 0
24 47 0
22 45 0
26 47 0
32 50 0
29 47 0
35 53 0
31 51 0
22 44 0
26 48 0
31 52 0
29 51 0
37 60 0
44 65 5
35 57 0
27 49 0
29 49 0
28 48 0
28 48 0
31 53 0
28 50 0
28 47 0
45 57 15
63 68 27
40 53 9
27 46 0
20 43 0
26 48 0
34 52 0
43 55 11
48 59 20
42 54 16
51 59 23
67 73 33
60 66 25
58 66 24
60 67 29
89 82 47
69 71 35
59 61 28
66 66 38
83 72 47
77 71 39
56 62 19
62 68 19
52 70 15
32 48 29
0 0 41
0 0 43
0 0 42
0 0 42
0 0 42
0 0 42
0 0 42
0 0 42
0 0 42
0 0 42
0 0 42
0 0 42
0 0 42
126 133 148
223 236 255
223 236 255
223 236 255
223 236 255
223 236 255
223 236 255
223 236 255
223 236 255
223 236 255
223 236 255
223 236 255
223 236 255
223 236 255
223 236 255
223 236 255
223 236 255
223 236 255
223 236 255
223 236 255
223 236 255
223 236 255
223 236 255
223 236 255
223 236 255
223 236 255
223 236 255
223 236 255
223 236 255
223 236 255
223 236 255
223 236 255
223 236 255
223 236 255
223 236 255
223 236 255
223 236 255
223 236 255
223 236 255
223 236 255
223 236 255
223 236 255
223 236 255
223 236 255
223 236 255
223 236 255
223 236 255
223 236 255
223 236 255
223 236 255
223 236 255
223 236 255
223 236 255
223 236 255
223 236 255
223 236 255
223 236 255
223 236 255
223 236 255
223 236 255
223 236 255
223 236 255
223 236 255
223 236 255
223 236 255
223 236 255
223 236 255
223 236 255
223 236 255
223 236 255
223 236 255
223 236 255
223 236 255
223 236 255
223 236 255
223 236 255
223 236 255
223 236 255
223 236 255
223 236 255
223 236 255
223 236 255
223 236 255
223 236 255
223 236 255
223 236 255
223 236 255
223 236 255
223 236 255
223 236 255
223 236 255
223 236 255
223 236 255
223 236 255
223 236 255
223 236 255
223 236 255
223 236 255
223 236 255
223 236 255
223 236 255
223 236 255
223 236 255
223 236 255
223 236 255
223 236 255
223 236 255
223 236 255
223 236 255
223 236 255
223 236 255
223 236 255
223 236 255
223 236 255
223 236 255
223 236 255
223 236 255
223 236 255
223 236 255
223 236 255
223 236 255
223 236 255
223 236 255
223 236 255
223 236 255
223 236 255
223 236 255
223 236 255
223 236 255
223 236 255
223 236 255
223 236 255
223 236 255
223 236 255
223 236 255
223 236 255
223 236 255
223 236 255
223 236 255
223 236 255
223 236 255
223 236 255
223 236 255
223 236 255
223 236 255
223 236 255
223 236 255
223 236 255
223 236 255
223 236 255
223 236 255
223 236 255
223 236 255
223 236 255
223 236 255
223 236 255
223 236 255
223 236 255
223 236 255
223 236 255
223 236 255
223 236 255
223 236 255
223 236 255
223 236 255
223 236 255
223 236 255
223 236 255
223 236 255
223 236 255
223 236 255
223 236 255
223 236 255
223 236 255
223 236 255
223 236 255
223 236 255
223 236 255
223 236 255
223 236 255
223 236 255
223 236 255
223 236 255
223 236 255
223 236 255
223 236 255
223 236 255
223 236 255
223 236 255
223 236 255
223 236 255
174 185 201
0 0 42
0 0 42
0 0 42
0 0 42
0 0 42
0 0 42
0 0 42
0 0 42
0 0 42
0 0 42
0 0 42
0 0 42
0 0 42
0 0 42
0 0 42
0 0 42
0 0 42
0 0 42
0 0 42
0 0 42
0 0 42
0 0 42
0 0 42
0 0 42
0 0 42
0 0 42
0 0 42
0 0 42
0 0 42
0 0 42
0 0 42
0 0 42
0 0 42
0 0 42
0 0 42
0 0 42
0 0 42
0 0 42
0 0 42
0 0 42
0 0 42
0 0 42
0 0 42
0 0 42
0 0 42
0 0 42
0 0 42
0 0 42
0 0 42
0 0 42
0 0 42
0 0 42
0 0 42
0 0 42
0 0 42
0 0 42
0 0 42
0 0 42
0 0 42
0 0 42
0 0 42
0 0 42
0 0 42
0 0 42
0 0 42
0 0 42
0 0 42
0 0 42
0 0 42
0 0 42
0 0 42
0 0 42
0 0 42
0 0 42
0 0 42
0 0 42
0 0 42
0 0 42
0 0 42
0 0 42
0 0 42
0 0 42
0 0 42
0 0 42
0 0 42
0 0 42
0 0 42
0 0 42
0 0 42
0 0 42
0 0 42
0 0 42
0 0 42
0 0 42
0 0 42
0 0 42
0 0 42
0 0 42
0 0 43
0 0 44
0 0 45
0 0 45
0 0 44
0 0 43
0 0 45
0 0 45
0 0 45
0 0 45
0 0 45
0 0 45
0 0 47
0 0 44
0 0 44
0 0 49
0 0 53
0 0 56
0 0 56
0 0 53
0 0 52
0 0 50
0 0 49
0 0 48
0 0 46
0 0 49
0 0 52
0 0 54
0 0 60
0 12 74
0 29 92
0 39 95
0 48 119
61 86 126
110 105 106
95 85 52
90 81 49
88 82 48
68 65 27
43 50 0
30 45 0
26 47 0
25 45 0
26 44 0
27 44 0
27 46 0
23 46 0
23 42 0
24 45 0
26 48 0
27 47 0
26 46 0
28 47 0
31 50 0
39 54 0
39 53 0
44 59 6
40 55 9
32 49 5
29 49 0
28 48 0
26 49 0
27 51 0
32 53 0
39 59 7
31 53 0
35 55 0
31 49 0
37 51 0
38 57 9
30 50 0
32 50 0
58 66 25
63 69 30
34 47 5
27 47 0
22 46 0
28 47 0
39 53 7
51 59 20
48 59 21
50 60 24
60 67 31
62 67 31
58 66 25
60 68 28
58 65 29
92 84 50
65 68 34
64 65 34
72 70 43
86 74 47
70 66 32
64 62 21
62 68 22
33 53 23
6 11 45
0 0 41
0 0 42
0 0 42
0 0 42
0 0 42
0 0 42
0 0 42
0 0 42
0 0 42
0 0 42
0 0 42
0 0 42
0 0 42
177 188 204
223 236 255
223 236 255
223 236 255
223 236 255
223 236 255
223 236 255
223 236 255
223 236 255
223 236 255
223 236 255
223 236 255
223 236 255
223 236 255
223 236 255
223 236 255
223 236 255
223 236 255
223 236 255
223 236 255
223 236 255
223 236 255
223 236 255
223 236 255
223 236 255
223 236 255
223 236 255
223 236 255
223 236 255
223 236 255
223 236 255
223 236 255
223 236 255
223 236 255
223 236 255
223 236 255
223 236 255
223 236 255
223 236 255
223 236 255
223 236 255
223 236 255
223 236 255
223 236 255
223 236 255
223 236 255
223 236 255
223 236 255
223 236 255
223 236 255
223 236 255
223 236 255
223 236 255
223 236 255
223 236 255
223 236 255
223 236 255
223 236 255
223 236 255
223 236 255
223 236 255
223 236 255
223 236 255
223 236 255
223 236 255
223 236 255
223 236 255
223 236 255
223 236 255
223 236 255
223 236 255
223 236 255
223 236 255
223 236 255
223 236 255
223 236 255
223 236 255
223 236 255
223 236 255
223 236 255
223 236 255
223 236 255
223 236 255
223 236 255
223 236 255
223 236 255
223 236 255
223 236 255
223 236 255
223 236 255
223 236 255
223 236 255
223 236 255
223 236 255
223 236 255
223 236 255
223 236 255
223 236 255
223 236 255
223 236 255
223 236 255
223 236 255
223 236 255
223 236 255
223 236 255
223 236 255
223 236 255
223 236 255
223 236 255
223 236 255
223 236 255
223 236 255
223 236 255
223 236 255
223 236 255
223 236 255
223 236 255
223 236 255
223 236 255
223 236 255
223 236 255
223 236 255
223 236 255
223 236 255
223 236 255
223 236 255
223 236 255
223 236 255
223 236 255
223 236 255
223 236 255
223 236 255
223 236 255
223 236 255
223 236 255
223 236 255
223 236 255
223 236 255
223 236 255
223 236 255
223 236 255
223 236 255
223 236 255
223 236 255
223 236 255
223 236 255
223 236 255
223 236 255
223 236 255
223 236 255
223 236 255
223 236 255
223 236 255
223 236 255
223 236 255
223 236 255
223 236 255
223 236 255
223 236 255
223 236 255
223 236 255
223 236 255
223 236 255
223 236 255
223 236 255
223 236 255
223 236 255
223 236 255
223 236 255
223 236 255
223 236 255
223 236 255
223 236 255
223 236 255
223 236 255
223 236 255
223 236 255
223 236 255
223 236 255
223 236 255
223 236 255
223 236 255
223 236 255
223 236 255
223 236 255
223 236 255
223 236 255
223 236 255
223 236 255
223 236 255
223 236 255
209 222 240
0 0 42
0 0 42
0 0 42
0 0 42
0 0 42
0 0 41
0 0 41
0 0 41
0 0 42
0 0 42
0 0 42
0 0 42
0 0 42
0 0 42
0 0 42
0 0 42
0 0 42
0 0 42
0 0 42
0 0 42
0 0 42
0 0 42
0 0 42
0 0 42
0 0 42
0 0 42
0 0 42
0 0 42
0 0 42
0 0 42
0 0 42
0 0 42
0 0 42
0 0 42
0 0 42
0 0 42
0 0 42
0 0 42
0 0 42
0 0 42
0 0 42
0 0 42
0 0 42
0 0 42
0 0 42
0 0 42
0 0 42
0 0 42
0 0 42
0 0 42
0 0 42
0 0 42
0 0 42
0 0 42
0 0 42
0 0 42
0 0 42
0 0 42
0 0 42
0 0 42
0 0 42
0 0 42
0 0 42
0 0 42
0 0 42
0 0 42
0 0 42
0 0 42
0 0 42
0 0 42
0 0 42
0 0 42
0 0 42
0 0 42
0 0 42
0 0 42
0 0 42
0 0 42
0 0 42
0 0 42
0 0 42
0 0 42
0 0 42
0 0 42
0 0 42
0 0 42
0 0 42
0 0 42
0 0 42
0 0 42
0 0 42
0 0 42
0 0 42
0 0 42
0 0 42
0 0 42
0 0 42
0 0 42
0 0 42
0 0 44
0 0 45
0 0 45
0 0 44
0 0 42
0 0 45
0 0 45
0 0 45
0 0 45
0 0 45
0 0 45
0 0 46
0 0 45
0 0 45
0 0 49
0 0 52
0 0 53
0 0 53
0 0 51
0 0 51
0 0 49
0 0 48
0 0 48
0 0 46
0 0 47
0 0 50
0 0 51
0 0 60
0 23 82
0 47 108
0 39 102
0 37 103
13 38 90
72 78 104
102 91 70
95 84 50
100 89 55
88 80 43
74 72 33
47 54 15
28 41 2
39 46 6
41 48 12
38 48 9
30 47 1
28 50 0
23 48 0
23 47 0
24 48 0
26 46 0
35 49 0
40 54 0
37 54 0
45 58 0
46 55 1
48 58 12
48 60 13
45 56 14
36 50 4
26 42 0
30 49 0
26 46 0
34 52 0
42 63 11
40 62 0
34 51 0
38 52 5
51 61 16
50 62 15
39 52 6
35 48 3
54 64 24
58 68 28
39 55 11
34 51 3
37 53 7
48 60 16
61 67 27
55 61 25
50 60 22
57 65 27
65 70 34
61 66 31
54 62 24
61 66 30
64 70 34
80 75 41
69 71 40
69 67 38
78 70 45
83 73 45
74 66 32
77 65 32
45 58 9
18 33 35
0 0 43
0 0 43
0 0 42
0 0 42
0 0 42
0 0 42
0 0 42
0 0 42
0 0 42
0 0 42
0 0 42
0 0 42
0 0 42
0 0 42
198 210 228
223 236 255
223 236 255
223 236 255
223 236 255
223 236 255
223 236 255
223 236 255
223 236 255
223 236 255
223 236 255
223 236 255
223 236 255
223 236 255
223 236 255
223 236 255
223 236 255
223 236 255
223 236 255
223 236 255
223 236 255
223 236 255
223 236 255
223 236 255
223 236 255
223 236 255
223 236 255
223 236 255
223 236 255
223 236 255
223 236 255
223 236 255
223 236 255
223 236 255
223 236 255
223 236 255
223 236 255
223 236 255
223 236 255
223 236 255
223 236 255
223 236 255
223 236 255
223 236 255
223 236 255
223 236 255
223 236 255
223 236 255
223 236 255
223 236 255
223 236 255
223 236 255
223 236 255
223 236 255
223 236 255
223 236 255
223 236 255
223 236 255
223 236 255
223 236 255
223 236 255
223 236 255
223 236 255
223 236 255
223 236 255
223 236 255
223 236 255
223 236 255
223 236 255
223 236 255
223 236 255
223 236 255
223 236 255
223 236 255
223 236 255
223 236 255
223 236 255
223 236 255
223 236 255
223 236 255
223 236 255
223 236 255
223 236 255
223 236 255
223 236 255
223 236 255
223 236 255
223 236 255
223 236 255
223 236 255
223 236 255
223 236 255
223 236 255
223 236 255
223 236 255
223 236 255
223 236 255
223 236 255
223 236 255
223 236 255
223 236 255
223 236 255
223 236 255
223 236 255
223 236 255
223 236 255
223 236 255
223 236 255
223 236 255
223 236 255
223 236 255
223 236 255
223 236 255
223 236 255
223 236 255
223 236 255
223 236 255
223 236 255
223 236 255
223 236 255
223 236 255
223 236 255
223 236 255
223 236 255
223 236 255
223 236 255
223 236 255
223 236 255
223 236 255
223 236 255
223 236 255
223 236 255
223 236 255
223 236 255
223 236 255
223 236 255
223 236 255
223 236 255
223 236 255
223 236 255
223 236 255
223 236 255
223 236 255
223 236 255
223 236 255
223 236 255
223 236 255
223 236 255
223 236 255
223 236 255
223 236 255
223 236 255
223 236 255
223 236 255
223 236 255
223 236 255
223 236 255
223 236 255
223 236 255
223 236 255
223 236 255
223 236 255
223 236 255
223 236 255
223 236 255
223 236 255
223 236 255
223 236 255
223 236 255
223 236 255
223 236 255
223 236 255
223 236 255
223 236 255
223 236 255
223 236 255
223 236 255
223 236 255
223 236 255
223 236 255
223 236 255
223 236 255
223 236 255
223 236 255
223 236 255
223 236 255
223 236 255
223 236 255
223 236 255
223 236 255
223 236 255
223 236 255
77 82 97
0 0 42
0 0 42
0 0 42
0 0 42
0 0 42
0 0 42
0 0 40
0 0 42
0 0 42
0 0 42
0 0 42
0 0 42
0 0 42
0 0 42
0 0 42
0 0 42
0 0 42
0 0 42
0 0 42
0 0 42
0 0 42
0 0 42
0 0 42
0 0 42
0 0 42
0 0 42
0 0 42
0 0 42
0 0 42
0 0 42
0 0 42
0 0 42
0 0 42
0 0 42
0 0 42
0 0 42
0 0 42
0 0 42
0 0 42
0 0 42
0 0 42
0 0 42
0 0 42
0 0 42
0 0 42
0 0 42
0 0 42
0 0 42
0 0 42
0 0 42
0 0 42
0 0 42
0 0 42
0 0 42
0 0 42
0 0 42
0 0 42
0 0 42
0 0 42
0 0 42
0 0 42
0 0 42
0 0 42
0 0 42
0 0 42
0 0 42
0 0 42
0 0 42
0 0 42
0 0 42
0 0 42
0 0 42
0 0 42
0 0 42
0 0 42
0 0 42
0 0 42
0 0 42
0 0 42
0 0 42
0 0 42
0 0 42
0 0 42
0 0 42
0 0 42
0 0 42
0 0 42
0 0 42
0 0 42
0 0 42
0 0 42
0 0 42
0 0 42
0 0 42
0 0 42
0 0 42
0 0 42
0 0 42
0 0 42
0 0 44
0 0 44
0 0 42
0 0 42
0 0 45
0 0 45
0 0 45
0 0 45
0 0 45
0 0 45
0 0 45
0 0 45
0 0 44
0 0 45
0 0 49
0 0 51
0 0 50
0 0 50
0 0 48
0 0 48
0 0 48
0 0 47
0 0 45
0 0 46
0 0 46
0 0 48
0 0 58
0 20 79
0 32 93
0 29 97
0 29 89
0 33 91
22 48 96
111 105 87
101 87 52
108 93 59
95 84 48
85 81 44
60 61 24
50 52 18
57 55 21
71 67 34
71 70 35
54 59 23
40 49 7
27 46 0
24 43 0
23 42 0
22 43 0
28 44 0
33 50 0
39 56 0
44 55 0
48 57 12
50 60 16
53 64 19
47 57 8
46 58 11
31 45 0
28 46 0
29 47 0
29 46 0
32 53 3
38 58 0
38 53 0
58 68 24
64 67 27
64 64 24
60 66 24
43 56 11
52 63 20
51 61 19
50 62 19
49 58 15
56 65 23
61 69 28
73 75 39
58 62 27
50 61 22
62 69 30
62 66 31
57 61 27
53 61 25
63 66 31
72 71 37
77 73 40
76 75 47
76 69 45
88 78 53
80 70 41
89 73 47
83 70 40
42 58 5
10 18 38
0 0 40
0 0 43
0 0 42
0 0 42
0 0 42
0 0 42
0 0 42
0 0 42
0 0 42
0 0 42
0 0 42
0 0 42
0 0 42
83 88 103
223 236 255
223 236 255
223 236 255
223 236 255
223 236 255
223 236 255
223 236 255
223 236 255
223 236 255
223 236 255
223 236 255
223 236 255
223 236 255
223 236 255
223 236 255
223 236 255
223 236 255
223 236 255
223 236 255
223 236 255
223 236 255
223 236 255
223 236 255
223 236 255
223 236 255
223 236 255
223 236 255
223 236 255
223 236 255
223 236 255
223 236 255
223 236 255
223 236 255
223 236 255
223 236 255
223 236 255
223 236 255
223 236 255
223 236 255
223 236 255
223 236 255
223 236 255
223 236 255
223 236 255
223 236 255
223 236 255
223 236 255
223 236 255
223 236 255
223 236 255
223 236 255
223 236 255
223 236 255
223 236 255
223 236 255
223 236 255
223 236 255
223 236 255
223 236 255
223 236 255
223 236 255
223 236 255
223 236 255
223 236 255
223 236 255
223 236 255
223 236 255
223 236 255
223 236 255
223 236 255
223 236 255
223 236 255
223 236 255
223 236 255
223 236 255
223 236 255
223 236 255
223 236 255
223 236 255
223 236 255
223 236 255
223 236 255
223 236 255
223 236 255
223 236 255
223 236 255
223 236 255
223 236 255
223 236 255
223 236 255
223 236 255
223 236 255
223 236 255
223 236 255
223 236 255
223 236 255
223 236 255
223 236 255
223 236 255
223 236 255
223 236 255
223 236 255
223 236 255
223 236 255
223 236 255
223 236 255
223 236 255
223 236 255
223 236 255
223 236 255
223 236 255
223 236 255
223 236 255
223 236 255
223 236 255
223 236 255
223 236 255
223 236 255
223 236 255
223 236 255
223 236 255
223 236 255
223 236 255
223 236 255
223 236 255
223 236 255
223 236 255
223 236 255
223 236 255
223 236 255
223 236 255
223 236 255
223 236 255
223 236 255
223 236 255
223 236 255
223 236 255
223 236 255
223 236 255
223 236 255
223 236 255
223 236 255
223 236 255
223 236 255
223 236 255
223 236 255
223 236 255
223 236 255
223 236 255
223 236 255
223 236 255
223 236 255
223 236 255
223 236 255
223 236 255
223 236 255
223 236 255
223 236 255
223 236 255
223 236 255
223 236 255
223 236 255
223 236 255
223 236 255
223 236 255
223 236 255
223 236 255
223 236 255
223 236 255
223 236 255
223 236 255
223 236 255
223 236 255
223 236 255
223 236 255
223 236 255
223 236 255
223 236 255
223 236 255
223 236 255
223 236 255
223 236 255
223 236 255
223 236 255
223 236 255
223 236 255
223 236 255
223 236 255
223 236 255
223 236 255
223 236 255
223 236 255
151 160 176
0 0 42
0 0 42
0 0 42
0 0 42
0 0 42
0 0 42
0 0 41
0 0 42
0 0 42
0 0 42
0 0 42
0 0 42
0 0 42
0 0 42
0 0 42
0 0 42
0 0 42
0 0 42
0 0 42
0 0 42
0 0 42
0 0 42
0 0 42
0 0 42
0 0 42
0 0 42
0 0 42
0 0 42
0 0 42
0 0 42
0 0 42
0 0 42
0 0 42
0 0 42
0 0 42
0 0 42
0 0 42
0 0 42
0 0 42
0 0 42
0 0 42
0 0 42
0 0 42
0 0 42
0 0 42
0 0 42
0 0 42
0 0 42
0 0 42
0 0 42
0 0 42
0 0 42
0 0 42
0 0 42
0 0 42
0 0 42
0 0 42
0 0 42
0 0 42
0 0 42
0 0 42
0 0 42
0 0 42
0 0 42
0 0 42
0 0 42
0 0 42
0 0 42
0 0 42
0 0 42
0 0 42
0 0 42
0 0 42
0 0 42
0 0 42
0 0 42
0 0 42
0 0 42
0 0 42
0 0 42
0 0 42
0 0 42
0 0 42
0 0 42
0 0 42
0 0 42
0 0 42
0 0 42
0 0 42
0 0 42
0 0 42
0 0 42
0 0 42
0 0 42
0 0 42
0 0 42
0 0 42
0 0 42
0 0 42
0 0 42
0 0 42
0 0 42
0 0 42
0 0 45
0 0 45
0 0 45
0 0 45
0 0 45
0 0 45
0 0 43
0 0 45
0 0 43
0 0 45
0 0 48
0 0 48
0 0 46
0 0 48
0 0 47
0 0 47
0 0 47
0 0 45
0 0 44
0 0 47
0 0 43
0 0 46
0 0 56
0 8 67
0 10 70
0 23 86
0 26 92
0 29 87
14 29 94
129 136 109
129 115 85
107 92 59
100 89 53
88 80 44
74 70 34
66 65 30
73 68 36
77 69 36
83 73 42
93 86 52
81 76 40
51 58 19
36 47 3
24 42 0
19 43 0
24 45 0
29 50 0
43 60 8
46 57 10
51 59 13
49 60 11
46 59 7
40 54 0
39 55 0
31 50 0
27 48 0
23 44 0
23 42 0
29 48 0
40 56 9
44 57 4
63 67 28
68 65 30
69 69 33
64 70 30
55 64 21
54 63 19
54 62 22
59 64 29
70 72 36
65 68 28
64 72 30
59 67 29
58 66 27
66 70 34
68 71 35
65 70 34
62 66 30
62 66 31
71 71 39
75 72 42
81 76 46
75 73 42
80 71 47
86 74 49
75 66 36
87 72 44
70 68 31
40 58 10
0 0 44
0 0 41
0 0 41
0 0 42
0 0 42
0 0 42
0 0 42
0 0 42
0 0 42
0 0 42
0 0 42
0 0 42
0 0 42
0 0 42
148 157 172
223 236 255
223 236 255
223 236 255
223 236 255
223 236 255
223 236 255
223 236 255
223 236 255
223 236 255
223 236 255
223 236 255
223 236 255
223 236 255
223 236 255
223 236 255
223 236 255
223 236 255
223 236 255
223 236 255
223 236 255
223 236 255
223 236 255
223 236 255
223 236 255
223 236 255
223 236 255
223 236 255
223 236 255
223 236 255
223 236 255
223 236 255
223 236 255
223 236 255
223 236 255
223 236 255
223 236 255
223 236 255
223 236 255
223 236 255
223 236 255
223 236 255
223 236 255
223 236 255
223 236 255
223 236 255
223 236 255
223 236 255
223 236 255
223 236 255
223 236 255
223 236 255
223 236 255
223 236 255
223 236 255
223 236 255
223 236 255
223 236 255
223 236 255
223 236 255
223 236 255
223 236 255
223 236 255
223 236 255
223 236 255
223 236 255
223 236 255
223 236 255
223 236 255
223 236 255
223 236 255
223 236 255
223 236 255
223 236 255
223 236 255
223 236 255
223 236 255
223 236 255
223 236 255
223 236 255
223 236 255
223 236 255
223 236 255
223 236 255
223 236 255
223 236 255
223 236 255
223 236 255
223 236 255
223 236 255
223 236 255
223 236 255
223 236 255
223 236 255
223 236 255
223 236 255
223 236 255
223 236 255
223 236 255
223 236 255
223 236 255
223 236 255
223 236 255
223 236 255
223 236 255
223 236 255
223 236 255
223 236 255
223 236 255
223 236 255
223 236 255
223 236 255
223 236 255
223 236 255
223 236 255
223 236 255
223 236 255
223 236 255
223 236 255
223 236 255
223 236 255
223 236 255
223 236 255
223 236 255
223 236 255
223 236 255
223 236 255
223 236 255
223 236 255
223 236 255
223 236 255
223 236 255
223 236 255
223 236 255
223 236 255
223 236 255
223 236 255
223 236 255
223 236 255
223 237 255
223 236 255
223 236 255
223 237 255
223 237 255
223 237 255
223 237 255
223 237 255
223 237 255
223 237 255
223 237 255
223 237 255
223 237 255
223 237 255
223 237 255
223 237 255
223 237 255
223 237 255
223 237 255
223 237 255
223 237 255
223 237 255
223 237 255
223 237 255
223 237 255
223 237 255
223 237 255
223 237 255
223 237 255
223 237 255
223 237 255
223 237 255
223 237 255
223 237 255
223 237 255
223 237 255
223 237 255
223 237 255
223 237 255
223 237 255
223 237 255
223 237 255
223 237 255
223 237 255
223 237 255
223 237 255
223 237 255
223 237 255
223 237 255
223 237 255
223 237 255
223 237 255
223 237 255
223 237 255
182 194 210
0 0 42
0 0 42
0 0 42
0 0 42
0 0 42
0 0 41
0 0 41
0 0 42
0 0 42
0 0 42
0 0 42
0 0 42
0 0 42
0 0 42
0 0 42
0 0 42
0 0 42
0 0 42
0 0 42
0 0 42
0 0 42
0 0 42
0 0 42
0 0 42
0 0 42
0 0 42
0 0 42
0 0 42
0 0 42
0 0 42
0 0 42
0 0 42
0 0 42
0 0 42
0 0 42
0 0 42
0 0 42
0 0 42
0 0 42
0 0 42
0 0 42
0 0 42
0 0 42
0 0 42
0 0 42
0 0 42
0 0 42
0 0 42
0 0 42
0 0 42
0 0 42
0 0 42
0 0 42
0 0 42
0 0 42
0 0 42
0 0 42
0 0 42
0 0 42
0 0 42
0 0 42
0 0 42
0 0 42
0 0 42
0 0 42
0 0 42
0 0 42
0 0 42
0 0 42
0 0 42
0 0 42
0 0 42
0 0 42
0 0 42
0 0 42
0 0 42
0 0 42
0 0 42
0 0 42
0 0 42
0 0 42
0 0 42
0 0 42
0 0 42
0 0 42
0 0 42
0 0 42
0 0 42
0 0 42
0 0 42
0 0 42
0 0 42
0 0 42
0 0 42
0 0 42
0 0 42
0 0 42
0 0 42
0 0 42
0 0 42
0 0 42
0 0 42
0 0 42
0 0 43
0 0 43
0 0 43
0 0 43
0 0 43
0 0 43
0 0 44
0 0 45
0 0 44
0 0 45
0 0 46
0 0 46
0 0 45
0 0 46
0 0 45
0 0 45
0 0 45
0 0 45
0 0 44
0 0 44
0 0 42
0 0 46
0 0 55
0 0 62
0 9 69
0 20 82
0 23 86
0 19 87
18 29 78
129 140 134
152 144 112
105 100 68
104 92 56
99 84 51
87 80 46
84 75 40
92 82 48
91 82 50
86 80 48
94 84 49
107 93 55
92 81 49
64 60 32
27 43 6
32 45 8
20 41 0
30 50 1
45 61 12
42 57 6
46 61 0
47 62 13
42 57 8
32 50 0
30 51 0
22 47 0
24 48 0
23 45 0
24 44 0
28 48 0
43 58 10
45 59 8
63 67 26
65 66 26
59 67 25
59 68 26
62 71 28
62 70 30
60 67 30
64 68 33
72 73 37
65 69 32
61 69 30
57 64 26
59 65 27
70 74 38
60 65 28
64 70 32
64 69 33
68 69 34
77 74 41
83 79 47
76 74 41
62 63 34
74 69 44
72 68 39
62 61 25
73 68 32
59 68 20
28 47 28
0 0 45
0 0 43
0 0 41
0 0 42
0 0 42
0 0 42
0 0 42
0 0 42
0 0 42
0 0 42
0 0 42
0 0 42
0 0 42
0 0 42
192 203 221
223 237 255
223 237 255
223 237 255
223 237 255
223 237 255
223 237 255
223 237 255
223 237 255
223 237 255
223 237 255
223 237 255
223 237 255
223 237 255
223 237 255
223 237 255
223 237 255
223 237 255
223 237 255
223 237 255
223 237 255
223 237 255
223 237 255
223 237 255
223 237 255
223 237 255
223 237 255
223 237 255
223 237 255
223 237 255
223 237 255
223 237 255
223 237 255
223 237 255
223 237 255
223 237 255
223 237 255
223 237 255
223 237 255
223 237 255
223 237 255
223 237 255
223 237 255
223 237 255
223 237 255
223 237 255
223 237 255
223 237 255
223 237 255
223 237 255
223 237 255
223 237 255
223 237 255
223 236 255
223 237 255
223 237 255
223 237 255
223 236 255
223 236 255
223 236 255
223 236 255
223 236 255
223 236 255
223 236 255
223 236 255
223 236 255
223 236 255
223 236 255
223 236 255
223 236 255
223 236 255
223 236 255
223 236 255
223 236 255
223 236 255
223 236 255
223 236 255
223 236 255
223 236 255
223 236 255
223 236 255
223 236 255
223 236 255
223 236 255
223 236 255
223 236 255
223 236 255
223 236 255
223 236 255
223 236 255
223 236 255
223 236 255
223 236 255
223 236 255
223 236 255
223 236 255
223 236 255
223 237 255
223 237 255
223 237 255
223 237 255
223 237 255
223 237 255
223 237 255
223 237 255
223 237 255
223 237 255
223 237 255
223 237 255
223 237 255
223 237 255
223 237 255
223 237 255
223 237 255
223 237 255
223 237 255
223 237 255
223 237 255
223 237 255
223 237 255
223 237 255
223 237 255
223 237 255
223 237 255
223 237 255
223 237 255
223 237 255
223 237 255
223 237 255
223 237 255
223 237 255
223 237 255
223 237 255
223 237 255
223 237 255
223 237 255
223 237 255
223 237 255
223 237 255
223 237 255
223 237 255
223 237 255
223 237 255
223 237 255
223 237 255
223 237 255
223 237 255
223 237 255
223 237 255
223 237 255
223 237 255
223 237 255
223 237 255
223 237 255
223 237 255
223 237 255
223 237 255
223 237 255
223 237 255
223 237 255
223 237 255
223 237 255
223 237 255
223 237 255
223 237 255
223 237 255
223 237 255
223 237 255
223 237 255
223 237 255
223 237 255
223 237 255
223 237 255
223 237 255
223 237 255
223 237 255
223 237 255
223 237 255
223 237 255
223 237 255
223 237 255
223 237 255
223 237 255
223 237 255
223 237 255
223 237 255
223 237 255
223 237 255
223 237 255
223 237 255
223 237 255
223 237 255
223 237 255
221 234 253
44 47 65
0 0 42
0 0 42
0 0 42
0 0 42
0 0 41
0 0 41
0 0 42
0 0 42
0 0 42
0 0 42
0 0 42
0 0 42
0 0 42
0 0 42
0 0 42
0 0 42
0 0 42
0 0 42
0 0 42
0 0 42
0 0 42
0 0 42
0 0 42
0 0 42
0 0 42
0 0 42
0 0 42
0 0 42
0 0 42
0 0 42
0 0 42
0 0 42
0 0 42
0 0 42
0 0 42
0 0 42
0 0 42
0 0 42
0 0 42
0 0 42
0 0 42
0 0 42
0 0 42
0 0 42
0 0 42
0 0 42
0 0 42
0 0 42
0 0 42
0 0 42
0 0 42
0 0 42
0 0 42
0 0 42
0 0 42
0 0 42
0 0 42
0 0 42
0 0 42
0 0 42
0 0 42
0 0 42
0 0 42
0 0 42
0 0 42
0 0 42
0 0 42
0 0 42
0 0 42
0 0 42
0 0 42
0 0 42
0 0 42
0 0 42
0 0 42
0 0 42
0 0 42
0 0 42
0 0 42
0 0 42
0 0 42
0 0 42
0 0 42
0 0 42
0 0 42
0 0 42
0 0 42
0 0 42
0 0 42
0 0 42
0 0 42
0 0 42
0 0 42
0 0 42
0 0 42
0 0 42
0 0 42
0 0 42
0 0 42
0 0 42
0 0 42
0 0 42
0 0 42
0 0 42
0 0 42
0 0 42
0 0 42
0 0 42
0 0 42
0 0 43
0 0 45
0 0 45
0 0 45
0 0 45
0 0 44
0 0 44
0 0 44
0 0 44
0 0 44
0 0 44
0 0 45
0 0 45
0 0 44
0 0 47
0 0 55
0 5 62
0 13 71
0 10 77
0 14 71
0 12 74
0 17 82
89 79 88
156 141 122
146 126 95
120 103 72
105 91 51
107 93 55
111 98 60
112 101 64
105 94 57
97 83 44
95 81 41
102 91 55
101 89 57
89 83 38
55 53 23
37 51 6
25 41 0
24 44 0
33 52 0
32 51 0
36 55 0
45 61 9
43 59 9
30 50 0
24 45 0
22 44 0
22 45 0
23 46 0
26 46 0
31 51 0
43 61 11
48 64 16
50 63 13
54 68 19
52 66 17
53 64 18
59 67 23
58 64 25
63 69 32
68 73 39
71 72 38
66 72 37
62 70 33
66 70 33
69 71 33
69 74 36
64 72 34
60 68 30
66 70 32
73 68 35
84 78 45
78 73 39
74 72 39
71 69 40
77 72 46
67 66 36
57 63 22
57 64 18
56 71 16
22 39 38
0 0 42
0 0 42
0 0 42
0 0 42
0 0 42
0 0 42
0 0 42
0 0 42
0 0 42
0 0 42
0 0 42
0 0 42
0 0 42
54 58 74
220 233 252
223 237 255
223 237 255
223 237 255
223 237 255
223 237 255
223 237 255
223 237 255
223 237 255
223 237 255
223 237 255
223 237 255
223 237 255
223 237 255
223 237 255
223 237 255
223 237 255
223 237 255
223 237 255
223 237 255
223 237 255
223 237 255
223 237 255
223 237 255
223 237 255
223 237 255
223 237 255
223 237 255
223 237 255
223 237 255
223 237 255
223 237 255
223 237 255
223 237 255
223 237 255
223 237 255
223 237 255
223 237 255
223 237 255
223 237 255
223 237 255
223 237 255
223 237 255
223 237 255
223 237 255
223 237 255
223 237 255
223 237 255
223 237 255
223 237 255
223 237 255
223 237 255
223 237 255
223 237 255
223 237 255
223 237 255
223 237 255
223 237 255
223 237 255
223 237 255
223 237 255
223 237 255
223 237 255
223 237 255
223 237 255
223 237 255
223 237 255
223 237 255
223 237 255
223 237 255
223 237 255
223 237 255
223 237 255
223 237 255
223 237 255
223 237 255
223 237 255
223 237 255
223 237 255
223 237 255
223 237 255
223 237 255
223 237 255
223 237 255
223 237 255
223 237 255
223 237 255
223 237 255
223 237 255
223 237 255
223 237 255
223 237 255
223 237 255
223 237 255
223 237 255
223 237 255
223 237 255
223 237 255
223 237 255
223 237 255
223 237 255
223 237 255
223 237 255
223 237 255
223 237 255
223 237 255
223 237 255
223 237 255
223 237 255
223 237 255
223 237 255
223 237 255
223 237 255
223 237 255
223 237 255
223 237 255
223 237 255
223 237 255
223 237 255
223 237 255
223 237 255
223 237 255
223 237 255
223 237 255
223 237 255
223 237 255
223 237 255
223 237 255
223 237 255
223 237 255
223 237 255
223 237 255
223 237 255
223 237 255
223 237 255
223 237 255
223 237 255
223 237 255
223 237 255
223 237 255
223 237 255
223 237 255
223 237 255
223 237 255
223 237 255
223 237 255
223 237 255
223 237 255
223 237 255
223 237 255
223 237 255
223 237 255
223 237 255
223 237 255
223 237 255
223 237 255
223 237 255
223 237 255
223 237 255
223 237 255
223 237 255
223 237 255
223 237 255
223 237 255
223 237 255
223 237 255
223 237 255
223 237 255
223 237 255
223 237 255
223 237 255
223 237 255
223 237 255
223 237 255
223 237 255
223 237 255
223 237 255
223 237 255
223 237 255
223 237 255
223 237 255
223 237 255
223 237 255
223 237 255
223 237 255
223 237 255
223 237 255
223 237 255
223 237 255
223 237 255
223 237 255
223 237 255
223 237 255
223 237 255
126 134 148
0 0 42
0 0 42
0 0 42
0 0 42
0 0 42
0 0 42
0 0 41
0 0 42
0 0 42
0 0 42
0 0 42
0 0 42
0 0 42
0 0 42
0 0 42
0 0 42
0 0 42
0 0 42
0 0 42
0 0 42
0 0 42
0 0 42
0 0 42
0 0 42
0 0 42
0 0 42
0 0 42
0 0 42
0 0 42
0 0 42
0 0 42
0 0 42
0 0 42
0 0 42
0 0 42
0 0 42
0 0 42
0 0 42
0 0 42
0 0 42
0 0 42
0 0 42
0 0 42
0 0 42
0 0 42
0 0 42
0 0 42
0 0 42
0 0 42
0 0 42
0 0 42
0 0 42
0 0 42
0 0 42
0 0 42
0 0 42
0 0 42
0 0 42
0 0 42
0 0 42
0 0 42
0 0 42
0 0 42
0 0 42
0 0 42
0 0 42
0 0 42
0 0 42
0 0 42
0 0 42
0 0 42
0 0 42
0 0 42
0 0 42
0 0 42
0 0 42
0 0 42
0 0 42
0 0 42
0 0 42
0 0 42
0 0 42
0 0 42
0 0 42
0 0 42
0 0 42
0 0 42
0 0 42
0 0 42
0 0 42
0 0 42
0 0 42
0 0 42
0 0 42
0 0 42
0 0 42
0 0 42
0 0 42
0 0 42
0 0 42
0 0 42
0 0 42
0 0 42
0 0 42
0 0 42
0 0 42
0 0 42
0 0 42
0 0 42
0 0 42
0 0 43
0 0 45
0 0 45
0 0 45
0 0 42
0 0 42
0 0 42
0 0 42
0 0 42
0 0 42
0 0 47
0 0 45
0 0 44
0 0 48
0 0 54
0 0 62
0 7 77
0 10 80
0 10 65
0 6 62
0 17 80
0 21 90
75 75 103
151 135 110
155 133 85
108 93 65
97 88 58
106 91 53
121 102 61
117 99 60
98 86 49
98 86 48
107 91 53
93 84 71
87 85 60
68 65 31
30 45 10
27 52 0
26 49 0
17 40 0
22 44 0
37 57 0
41 59 0
36 54 0
34 54 0
26 50 0
24 45 0
26 46 0
30 47 0
34 50 0
40 55 0
44 59 8
52 66 17
61 77 27
58 74 27
48 62 16
55 64 21
63 69 30
58 66 27
63 70 32
62 68 31
69 72 38
63 68 34
67 70 35
73 76 40
74 77 39
65 72 34
67 75 36
60 68 30
72 73 35
81 75 42
83 76 42
78 75 42
77 75 43
70 68 38
72 68 39
57 60 27
54 62 22
53 65 15
53 70 13
19 32 38
0 0 40
0 0 41
0 0 42
0 0 42
0 0 42
0 0 42
0 0 42
0 0 42
0 0 42
0 0 42
0 0 42
0 0 42
0 0 42
134 142 157
223 237 255
223 237 255
223 237 255
223 237 255
223 237 255
223 237 255
223 237 255
223 237 255
223 237 255
223 237 255
223 237 255
223 237 255
223 237 255
223 237 255
223 237 255
223 237 255
223 237 255
223 237 255
223 237 255
223 237 255
223 237 255
223 237 255
223 237 255
223 237 255
223 237 255
223 237 255
223 237 255
223 237 255
223 237 255
223 237 255
223 237 255
223 237 255
223 237 255
223 237 255
223 237 255
223 237 255
223 237 255
223 237 255
223 237 255
223 237 255
223 237 255
223 237 255
223 237 255
223 237 255
223 237 255
223 237 255
223 237 255
223 237 255
223 237 255
223 237 255
223 237 255
223 237 255
223 237 255
223 237 255
223 237 255
223 237 255
223 237 255
223 237 255
223 237 255
223 237 255
223 237 255
223 237 255
223 237 255
223 237 255
223 237 255
223 237 255
223 237 255
223 237 255
223 237 255
223 237 255
223 237 255
223 237 255
223 237 255
223 237 255
223 237 255
223 237 255
223 237 255
223 237 255
223 237 255
223 237 255
223 237 255
223 237 255
223 237 255
223 237 255
223 237 255
223 237 255
223 237 255
223 237 255
223 237 255
223 237 255
223 237 255
223 237 255
223 237 255
223 237 255
223 237 255
223 237 255
223 237 255
223 237 255
223 237 255
223 237 255
223 237 255
223 237 255
223 237 255
223 237 255
223 237 255
223 237 255
223 237 255
223 237 255
223 237 255
223 237 255
223 237 255
223 237 255
223 237 255
223 237 255
223 237 255
223 237 255
223 237 255
223 237 255
223 237 255
223 237 255
223 237 255
223 237 255
223 237 255
223 237 255
223 237 255
223 237 255
223 237 255
223 237 255
223 237 255
223 237 255
223 237 255
223 237 255
223 237 255
223 237 255
223 237 255
223 237 255
223 237 255
223 237 255
223 237 255
223 237 255
223 237 255
223 237 255
223 237 255
223 237 255
223 237 255
223 237 255
223 237 255
223 237 255
223 237 255
223 237 255
223 237 255
223 237 255
223 237 255
223 237 255
223 237 255
223 237 255
223 237 255
223 237 255
223 237 255
223 237 255
223 237 255
223 237 255
223 237 255
223 237 255
223 237 255
223 237 255
223 237 255
223 237 255
223 237 255
223 237 255
223 237 255
223 237 255
223 237 255
223 237 255
223 237 255
223 237 255
223 237 255
223 237 255
223 237 255
223 237 255
223 237 255
223 237 255
223 237 255
223 237 255
223 237 255
223 237 255
223 237 255
223 237 255
223 237 255
223 237 255
223 237 255
223 237 255
223 237 255
223 237 255
184 195 212
0 0 42
0 0 42
0 0 42
0 0 42
0 0 42
0 0 41
0 0 40
0 0 42
0 0 42
0 0 42
0 0 42
0 0 42
0 0 42
0 0 42
0 0 42
0 0 42
0 0 42
0 0 42
0 0 42
0 0 42
0 0 42
0 0 42
0 0 42
0 0 42
0 0 42
0 0 42
0 0 42
0 0 42
0 0 42
0 0 42
0 0 42
0 0 42
0 0 42
0 0 42
0 0 42
0 0 42
0 0 42
0 0 42
0 0 42
0 0 42
0 0 42
0 0 42
0 0 42
0 0 42
0 0 42
0 0 42
0 0 42
0 0 42
0 0 42
0 0 42
0 0 42
0 0 42
0 0 42
0 0 42
0 0 42
0 0 42
0 0 42
0 0 42
0 0 42
0 0 42
0 0 42
0 0 42
0 0 42
0 0 42
0 0 42
0 0 42
0 0 42
0 0 42
0 0 42
0 0 42
0 0 42
0 0 42
0 0 42
0 0 42
0 0 42
0 0 42
0 0 42
0 0 42
0 0 42
0 0 42
0 0 42
0 0 42
0 0 42
0 0 42
0 0 42
0 0 42
0 0 42
0 0 42
0 0 42
0 0 42
0 0 42
0 0 42
0 0 42
0 0 42
0 0 42
0 0 42
0 0 42
0 0 42
0 0 42
0 0 42
0 0 42
0 0 42
0 0 42
0 0 42
0 0 42
0 0 42
0 0 42
0 0 42
0 0 42
0 0 42
0 0 42
0 0 43
0 0 43
0 0 43
0 0 42
0 0 42
0 0 42
0 0 42
0 0 42
0 0 42
0 0 45
0 0 45
0 0 47
0 0 49
0 0 53
0 0 60
0 0 67
0 0 64
0 2 64
0 12 73
0 10 65
0 19 77
12 26 80
51 63 98
110 100 98
134 113 82
141 117 85
126 109 82
112 102 78
105 90 61
119 98 62
116 97 62
104 93 59
72 71 79
35 55 99
79 70 65
63 61 33
25 47 0
26 46 0
20 40 0
19 41 0
33 55 0
40 59 0
32 52 0
33 54 0
29 52 0
28 48 0
34 51 0
40 52 0
41 53 0
41 55 0
46 58 0
50 62 13
60 72 27
60 73 29
53 64 23
57 67 26
53 63 23
51 61 18
59 70 28
60 68 29
67 71 35
68 70 37
72 73 40
73 75 41
70 74 36
68 74 33
65 75 32
69 73 31
74 73 36
81 76 44
81 76 45
77 75 40
78 75 42
68 68 34
64 63 32
55 60 25
58 65 25
57 71 17
43 58 16
3 6 45
0 0 41
0 0 40
0 0 42
0 0 42
0 0 42
0 0 42
0 0 42
0 0 42
0 0 42
0 0 42
0 0 42
0 0 42
0 0 42
176 186 203
223 237 255
223 237 255
223 237 255
223 237 255
223 237 255
223 237 255
223 237 255
223 237 255
223 237 255
223 237 255
223 237 255
223 237 255
223 237 255
223 237 255
223 237 255
223 237 255
223 237 255
223 237 255
223 237 255
223 237 255
223 237 255
223 237 255
223 237 255
223 237 255
223 237 255
223 237 255
223 237 255
223 237 255
223 237 255
223 237 255
223 237 255
223 237 255
223 237 255
223 237 255
223 237 255
223 237 255
223 237 255
223 237 255
223 237 255
223 237 255
223 237 255
223 237 255
223 237 255
223 237 255
223 237 255
223 237 255
223 237 255
223 237 255
223 237 255
223 237 255
223 237 255
223 237 255
223 237 255
223 237 255
223 237 255
223 237 255
223 237 255
223 237 255
223 237 255
223 237 255
223 237 255
223 237 255
223 237 255
223 237 255
223 237 255
223 237 255
223 237 255
223 237 255
223 237 255
223 237 255
223 237 255
223 237 255
223 237 255
223 237 255
223 237 255
223 237 255
223 237 255
223 237 255
223 237 255
223 237 255
223 237 255
223 237 255
223 237 255
223 237 255
223 237 255
223 237 255
223 237 255
223 237 255
223 237 255
223 237 255
223 237 255
223 237 255
223 237 255
223 237 255
223 237 255
223 237 255
223 237 255
223 237 255
223 237 255
223 237 255
223 237 255
223 237 255
223 237 255
223 237 255
223 237 255
223 237 255
223 237 255
223 237 255
223 237 255
223 237 255
223 237 255
223 237 255
223 237 255
223 237 255
223 237 255
223 237 255
223 237 255
223 237 255
223 237 255
223 237 255
223 237 255
223 237 255
223 237 255
223 237 255
223 237 255
223 237 255
223 237 255
223 237 255
223 237 255
223 237 255
223 237 255
223 237 255
223 237 255
223 237 255
223 237 255
223 237 255
223 237 255
223 237 255
223 237 255
223 237 255
223 237 255
223 237 255
223 237 255
223 237 255
223 237 255
223 237 255
223 237 255
223 237 255
223 237 255
223 237 255
223 237 255
223 237 255
223 237 255
223 237 255
223 237 255
223 237 255
223 237 255
223 237 255
223 237 255
223 237 255
223 237 255
223 237 255
223 237 255
223 237 255
223 237 255
223 237 255
223 237 255
223 237 255
223 237 255
223 237 255
223 237 255
223 237 255
223 237 255
223 237 255
223 237 255
223 237 255
223 237 255
223 237 255
223 237 255
223 237 255
223 237 255
223 237 255
223 237 255
223 237 255
223 237 255
223 237 255
223 237 255
223 237 255
223 237 255
223 237 255
223 237 255
223 237 255
223 237 255
223 237 255
220 233 252
63 67 83
0 0 42
0 0 42
0 0 42
0 0 42
0 0 42
0 0 40
0 0 41
0 0 42
0 0 42
0 0 42
0 0 42
0 0 42
0 0 42
0 0 42
0 0 42
0 0 42
0 0 42
0 0 42
0 0 42
0 0 42
0 0 42
0 0 42
0 0 42
0 0 42
0 0 42
0 0 42
0 0 42
0 0 42
0 0 42
0 0 42
0 0 42
0 0 42
0 0 42
0 0 42
0 0 42
0 0 42
0 0 42
0 0 42
0 0 42
0 0 42
0 0 42
0 0 42
0 0 42
0 0 42
0 0 42
0 0 42
0 0 42
0 0 42
0 0 42
0 0 42
0 0 42
0 0 42
0 0 42
0 0 42
0 0 42
0 0 42
0 0 42
0 0 42
0 0 42
0 0 42
0 0 42
0 0 42
0 0 42
0 0 42
0 0 42
0 0 42
0 0 42
0 0 42
0 0 42
0 0 42
0 0 42
0 0 42
0 0 42
0 0 42
0 0 42
0 0 42
0 0 42
0 0 42
0 0 42
0 0 42
0 0 42
0 0 42
0 0 42
0 0 42
0 0 42
0 0 42
0 0 42
0 0 42
0 0 42
0 0 42
0 0 42
0 0 42
0 0 42
0 0 42
0 0 42
0 0 42
0 0 42
0 0 42
0 0 42
0 0 42
0 0 42
0 0 42
0 0 42
0 0 42
0 0 42
0 0 42
0 0 42
0 0 42
0 0 42
0 0 42
0 0 42
0 0 42
0 0 42
0 0 42
0 0 42
0 0 42
0 0 42
0 0 42
0 0 43
0 0 45
0 0 46
0 0 48
0 0 50
0 0 52
0 0 53
0 0 50
0 0 55
0 0 67
0 2 63
0 10 71
0 21 83
0 27 88
0 22 85
13 22 83
89 74 86
140 123 108
186 159 125
177 157 127
142 125 98
118 100 68
126 106 70
117 101 62
111 91 57
63 72 81
63 74 73
94 85 43
43 46 14
28 40 3
21 37 2
20 41 0
26 50 0
32 54 0
27 51 0
33 56 5
34 56 5
35 54 0
40 56 0
39 54 0
44 59 0
40 54 0
42 55 0
44 57 5
46 54 11
48 62 17
43 59 11
48 62 14
42 56 12
48 62 17
60 72 27
63 71 30
68 71 37
74 73 40
74 74 40
73 75 41
72 76 39
74 80 39
70 78 34
75 77 35
77 74 39
77 74 42
80 75 43
78 74 41
74 73 38
73 67 36
58 59 24
59 63 27
51 66 14
61 75 17
31 49 38
0 0 43
0 0 42
0 0 41
0 0 42
0 0 42
0 0 42
0 0 42
0 0 42
0 0 42
0 0 42
0 0 42
0 0 42
0 0 42
44 47 65
218 231 249
223 237 255
223 237 255
223 237 255
223 237 255
223 237 255
223 237 255
223 237 255
223 237 255
223 237 255
223 237 255
223 237 255
223 237 255
223 237 255
223 237 255
223 237 255
223 237 255
223 237 255
223 237 255
223 237 255
223 237 255
223 237 255
223 237 255
223 237 255
223 237 255
223 237 255
223 237 255
223 237 255
223 237 255
223 237 255
223 237 255
223 237 255
223 237 255
223 237 255
223 237 255
223 237 255
223 237 255
223 237 255
223 237 255
223 237 255
223 237 255
223 237 255
223 237 255
223 237 255
223 237 255
223 237 255
223 237 255
223 237 255
223 237 255
223 237 255
223 237 255
223 237 255
223 237 255
223 237 255
223 237 255
223 237 255
223 237 255
223 237 255
223 237 255
223 237 255
223 237 255
223 237 255
223 237 255
223 237 255
223 237 255
223 237 255
223 237 255
223 237 255
223 237 255
223 237 255
223 237 255
223 237 255
223 237 255
223 237 255
223 237 255
223 237 255
223 237 255
223 237 255
223 237 255
223 237 255
223 237 255
223 237 255
223 237 255
223 237 255
223 237 255
223 237 255
223 237 255
223 237 255
223 237 255
223 237 255
223 237 255
223 237 255
223 237 255
223 237 255
223 237 255
223 237 255
223 237 255
223 237 255
223 237 255
223 237 255
223 237 255
223 237 255
223 237 255
223 237 255
223 237 255
223 237 255
223 237 255
223 237 255
223 237 255
223 237 255
223 237 255
223 237 255
223 237 255
223 237 255
223 237 255
223 237 255
223 237 255
223 237 255
223 237 255
223 237 255
223 237 255
223 237 255
223 237 255
223 237 255
223 237 255
223 237 255
223 237 255
223 237 255
223 237 255
223 237 255
223 237 255
223 237 255
223 237 255
223 237 255
223 237 255
223 237 255
223 237 255
223 237 255
223 237 255
223 237 255
223 237 255
223 237 255
223 237 255
223 237 255
223 237 255
223 237 255
223 237 255
223 237 255
223 237 255
223 237 255
223 237 255
223 237 255
223 237 255
223 237 255
223 237 255
223 237 255
223 237 255
223 237 255
223 237 255
223 237 255
223 237 255
223 237 255
223 237 255
223 237 255
223 237 255
223 237 255
223 237 255
223 237 255
223 237 255
223 237 255
223 237 255
223 237 255
223 237 255
223 237 255
223 237 255
223 237 255
223 237 255
223 237 255
223 237 255
223 237 255
223 237 255
223 237 255
223 237 255
223 237 255
223 237 255
223 237 255
223 237 255
223 237 255
223 237 255
223 237 255
223 237 255
223 237 255
223 237 255
223 237 255
223 237 255
223 237 255
126 134 148
0 0 42
0 0 42
0 0 42
0 0 42
0 0 42
0 0 41
0 0 39
0 0 42
0 0 42
0 0 42
0 0 42
0 0 42
0 0 42
0 0 42
0 0 42
0 0 42
0 0 42
0 0 42
0 0 42
0 0 42
0 0 42
0 0 42
0 0 42
0 0 42
0 0 42
0 0 42
0 0 42
0 0 42
0 0 42
0 0 42
0 0 42
0 0 42
0 0 42
0 0 42
0 0 42
0 0 42
0 0 42
0 0 42
0 0 42
0 0 42
0 0 42
0 0 42
0 0 42
0 0 42
0 0 42
0 0 42
0 0 42
0 0 42
0 0 42
0 0 42
0 0 42
0 0 42
0 0 42
0 0 42
0 0 42
0 0 42
0 0 42
0 0 42
0 0 42
0 0 42
0 0 42
0 0 42
0 0 42
0 0 42
0 0 42
0 0 42
0 0 42
0 0 42
0 0 42
0 0 42
0 0 42
0 0 42
0 0 42
0 0 42
0 0 42
0 0 42
0 0 42
0 0 42
0 0 42
0 0 42
0 0 42
0 0 42
0 0 42
0 0 42
0 0 42
0 0 42
0 0 42
0 0 42
0 0 42
0 0 42
0 0 42
0 0 42
0 0 42
0 0 42
0 0 42
0 0 42
0 0 42
0 0 42
0 0 42
0 0 42
0 0 42
0 0 42
0 0 42
0 0 42
0 0 42
0 0 42
0 0 42
0 0 41
0 0 42
0 0 42
0 0 42
0 0 42
0 0 42
0 0 42
0 0 42
0 0 42
0 0 42
0 0 42
0 0 43
0 0 45
0 0 45
0 0 47
0 0 49
0 0 51
0 0 56
0 0 57
0 0 63
0 0 60
0 0 50
0 0 68
0 15 80
0 20 81
0 15 70
0 4 67
6 10 65
43 46 82
97 107 119
149 138 119
183 161 126
147 135 109
122 106 72
127 113 78
119 99 61
121 97 71
114 105 68
123 103 64
73 64 36
58 54 25
49 57 26
32 46 14
27 50 0
27 54 0
29 53 0
43 65 10
50 69 12
52 65 13
48 58 9
40 55 0
39 56 0
37 52 0
35 51 0
40 54 0
37 48 0
36 48 4
38 54 9
43 58 5
50 60 20
58 66 25
66 71 32
73 74 41
77 76 43
74 75 42
71 73 39
80 77 44
81 77 45
74 76 38
70 76 34
70 74 34
79 76 41
75 72 38
78 75 41
74 69 35
75 72 37
64 62 30
53 57 23
53 58 19
61 75 19
61 72 17
12 23 52
0 0 43
0 0 42
0 0 42
0 0 42
0 0 42
0 0 42
0 0 42
0 0 42
0 0 42
0 0 42
0 0 42
0 0 42
0 0 42
128 136 151
223 237 255
223 237 255
223 237 255
223 237 255
223 237 255
223 237 255
223 237 255
223 237 255
223 237 255
223 237 255
223 237 255
223 237 255
223 237 255
223 237 255
223 237 255
223 237 255
223 237 255
223 237 255
223 237 255
223 237 255
223 237 255
223 237 255
223 237 255
223 237 255
223 237 255
223 237 255
223 237 255
223 237 255
223 237 255
223 237 255
223 237 255
223 237 255
223 237 255
223 237 255
223 237 255
223 237 255
223 237 255
223 237 255
223 237 255
223 237 255
223 237 255
223 237 255
223 237 255
223 237 255
223 237 255
223 237 255
223 237 255
223 237 255
223 237 255
223 237 255
223 237 255
223 237 255
223 237 255
223 237 255
223 237 255
223 237 255
223 237 255
223 237 255
223 237 255
223 237 255
223 237 255
223 237 255
223 237 255
223 237 255
223 237 255
223 237 255
223 237 255
223 237 255
223 237 255
223 237 255
223 237 255
223 237 255
223 237 255
223 237 255
223 237 255
223 237 255
223 237 255
223 237 255
223 237 255
223 237 255
223 237 255
223 237 255
223 237 255
223 237 255
223 237 255
223 237 255
223 237 255
223 237 255
223 237 255
223 237 255
223 237 255
223 237 255
223 237 255
223 237 255
223 237 255
223 237 255
223 237 255
223 237 255
223 237 255
223 237 255
223 237 255
223 237 255
223 237 255
223 237 255
223 237 255
223 237 255
223 237 255
223 237 255
223 237 255
223 237 255
223 237 255
223 237 255
223 237 255
223 237 255
223 237 255
223 237 255
223 237 255
223 237 255
223 237 255
223 237 255
223 237 255
223 237 255
223 237 255
223 237 255
223 237 255
223 237 255
223 237 255
223 237 255
223 237 255
223 237 255
223 237 255
223 237 255
223 237 255
223 237 255
223 237 255
223 237 255
223 237 255
223 237 255
223 237 255
223 237 255
223 237 255
223 237 255
223 237 255
223 237 255
223 237 255
223 237 255
223 237 255
223 237 255
223 237 255
223 237 255
223 237 255
223 237 255
223 237 255
223 237 255
223 237 255
223 237 255
223 237 255
223 237 255
223 237 255
223 237 255
223 237 255
223 237 255
223 237 255
223 237 255
223 237 255
223 237 255
223 237 255
223 237 255
223 237 255
223 237 255
223 237 255
223 237 255
223 237 255
223 237 255
223 237 255
223 237 255
223 237 255
223 237 255
223 237 255
223 237 255
223 237 255
223 237 255
223 237 255
223 237 255
223 237 255
223 237 255
223 237 255
223 237 255
223 237 255
223 237 255
223 237 255
223 237 255
223 237 255
223 237 255
223 237 255
223 237 255
187 198 215
0 0 42
0 0 42
0 0 42
0 0 42
0 0 42
0 0 41
0 0 43
0 0 42
0 0 42
0 0 42
0 0 42
0 0 42
0 0 42
0 0 42
0 0 42
0 0 42
0 0 42
0 0 42
0 0 42
0 0 42
0 0 42
0 0 42
0 0 42
0 0 42
0 0 42
0 0 42
0 0 42
0 0 42
0 0 42
0 0 42
0 0 42
0 0 42
0 0 42
0 0 42
0 0 42
0 0 42
0 0 42
0 0 42
0 0 42
0 0 42
0 0 42
0 0 42
0 0 42
0 0 42
0 0 42
0 0 42
0 0 42
0 0 42
0 0 42
0 0 42
0 0 42
0 0 42
0 0 42
0 0 42
0 0 42
0 0 42
0 0 42
0 0 42
0 0 42
0 0 42
0 0 42
0 0 42
0 0 42
0 0 42
0 0 42
0 0 42
0 0 42
0 0 42
0 0 42
0 0 42
0 0 42
0 0 42
0 0 42
0 0 42
0 0 42
0 0 42
0 0 42
0 0 42
0 0 42
0 0 42
0 0 42
0 0 42
0 0 42
0 0 42
0 0 42
0 0 42
0 0 42
0 0 42
0 0 42
0 0 42
0 0 42
0 0 42
0 0 42
0 0 42
0 0 42
0 0 42
0 0 42
0 0 42
0 0 42
0 0 42
0 0 42
0 0 42
0 0 42
0 0 42
0 0 42
0 0 42
0 0 42
0 0 41
0 0 42
0 0 42
0 0 42
0 0 42
0 0 42
0 0 42
0 0 42
0 0 42
0 0 42
0 0 42
0 0 42
0 0 44
0 0 45
0 0 45
0 0 45
0 0 46
0 0 47
0 0 50
0 0 53
0 0 53
0 0 54
0 0 55
0 3 64
0 13 78
0 7 70
0 0 64
0 0 60
0 9 68
0 29 89
32 57 107
111 112 116
181 156 136
149 123 95
123 105 68
131 107 71
140 114 75
141 118 79
141 118 86
128 108 75
87 75 44
89 81 53
75 71 43
43 50 14
25 47 0
33 56 2
49 69 14
61 76 23
67 78 29
62 74 26
41 59 0
38 56 0
35 51 0
33 49 0
34 50 0
33 49 0
24 40 0
37 54 12
57 68 29
61 70 34
58 64 27
69 74 37
70 73 36
72 72 39
72 73 39
72 74 40
77 76 44
76 70 39
76 75 41
72 76 38
69 73 34
79 76 40
78 75 40
79 76 41
77 71 37
71 66 34
52 59 24
58 62 27
66 66 27
69 78 23
40 50 36
0 4 50
0 0 42
0 0 42
0 0 42
0 0 42
0 0 42
0 0 42
0 0 42
0 0 42
0 0 42
0 0 42
0 0 42
0 0 42
0 0 42
187 198 215
223 237 255
223 237 255
223 237 255
223 237 255
223 237 255
223 237 255
223 237 255
223 237 255
223 237 255
223 237 255
223 237 255
223 237 255
223 237 255
223 237 255
223 237 255
223 237 255
223 237 255
223 237 255
223 237 255
223 237 255
223 237 255
223 237 255
223 237 255
223 237 255
223 237 255
223 237 255
223 237 255
223 237 255
223 237 255
223 237 255
223 237 255
223 237 255
223 237 255
223 237 255
223 237 255
223 237 255
223 237 255
223 237 255
223 237 255
223 237 255
223 237 255
223 237 255
223 237 255
223 237 255
223 237 255
223 237 255
223 237 255
223 237 255
223 237 255
223 237 255
223 237 255
223 237 255
223 237 255
223 237 255
223 237 255
223 237 255
223 237 255
223 237 255
223 237 255
223 237 255
223 237 255
223 237 255
223 237 255
223 237 255
223 237 255
223 237 255
223 237 255
223 237 255
223 237 255
223 237 255
223 237 255
223 237 255
223 237 255
223 237 255
223 237 255
223 237 255
223 237 255
223 237 255
223 237 255
223 237 255
223 237 255
223 237 255
223 237 255
223 237 255
223 237 255
223 237 255
223 237 255
223 237 255
223 237 255
223 237 255
223 237 255
223 237 255
223 237 255
223 237 255
223 237 255
223 237 255
223 237 255
223 237 255
223 237 255
223 237 255
223 237 255
223 237 255
223 237 255
223 237 255
223 237 255
223 237 255
223 237 255
223 237 255
223 237 255
223 237 255
223 237 255
223 237 255
223 237 255
223 237 255
223 237 255
223 237 255
223 237 255
223 237 255
223 237 255
223 237 255
223 237 255
223 237 255
223 237 255
223 237 255
223 237 255
223 237 255
223 237 255
223 237 255
223 237 255
223 237 255
223 237 255
223 237 255
223 237 255
223 237 255
223 237 255
223 237 255
223 237 255
223 237 255
223 237 255
223 237 255
223 237 255
223 237 255
223 237 255
223 237 255
223 237 255
223 237 255
223 237 255
223 237 255
223 237 255
223 237 255
223 237 255
223 237 255
223 237 255
223 237 255
223 237 255
223 237 255
223 237 255
223 237 255
223 237 255
223 237 255
223 237 255
223 237 255
223 237 255
223 237 255
223 237 255
223 237 255
223 237 255
223 237 255
223 237 255
223 237 255
223 237 255
223 237 255
223 237 255
223 237 255
223 237 255
223 237 255
223 237 255
223 237 255
223 237 255
223 237 255
223 237 255
223 237 255
223 237 255
223 237 255
223 237 255
223 237 255
223 237 255
223 237 255
223 237 255
223 237 255
223 237 255
223 237 255
223 237 255
223 237 255
223 237 255
223 237 255
221 234 253
63 67 83
0 0 42
0 0 42
0 0 42
0 0 42
0 0 42
0 0 43
0 0 42
0 0 42
0 0 42
0 0 42
0 0 42
0 0 42
0 0 42
0 0 42
0 0 42
0 0 42
0 0 42
0 0 42
0 0 42
0 0 42
0 0 42
0 0 42
0 0 42
0 0 42
0 0 42
0 0 42
0 0 42
0 0 42
0 0 42
0 0 42
0 0 42
0 0 42
0 0 42
0 0 42
0 0 42
0 0 42
0 0 42
0 0 42
0 0 42
0 0 42
0 0 42
0 0 42
0 0 42
0 0 42
0 0 42
0 0 42
0 0 42
0 0 42
0 0 42
0 0 42
0 0 42
0 0 42
0 0 42
0 0 42
0 0 42
0 0 42
0 0 42
0 0 42
0 0 42
0 0 42
0 0 42
0 0 42
0 0 42
0 0 42
0 0 42
0 0 42
0 0 42
0 0 42
0 0 42
0 0 42
0 0 42
0 0 42
0 0 42
0 0 42
0 0 42
0 0 42
0 0 42
0 0 42
0 0 42
0 0 42
0 0 42
0 0 42
0 0 42
0 0 42
0 0 42
0 0 42
0 0 42
0 0 42
0 0 42
0 0 42
0 0 42
0 0 42
0 0 42
0 0 42
0 0 42
0 0 42
0 0 42
0 0 42
0 0 42
0 0 42
0 0 42
0 0 42
0 0 42
0 0 42
0 0 42
0 0 42
0 0 42
0 0 42
0 0 42
0 0 42
0 0 42
0 0 42
0 0 42
0 0 42
0 0 42
0 0 42
0 0 42
0 0 42
0 0 42
0 0 44
0 0 45
0 0 45
0 0 45
0 0 46
0 0 48
0 0 50
0 0 50
0 0 53
0 0 53
0 0 58
0 0 64
0 0 59
0 0 61
0 0 57
0 6 62
0 14 78
0 23 79
23 35 88
131 120 108
174 141 102
140 116 85
136 110 75
146 120 82
150 127 91
152 123 91
159 135 98
126 108 71
110 87 60
109 90 66
85 75 50
58 61 27
39 53 8
38 54 3
66 78 30
62 73 25
50 66 16
41 59 0
41 58 0
39 54 0
32 48 0
30 50 0
31 51 0
30 52 0
41 55 16
56 61 30
62 68 35
61 68 33
67 73 36
63 67 31
70 70 37
72 74 40
72 73 40
76 74 43
78 72 42
74 72 37
69 72 35
69 70 33
75 73 38
77 75 37
78 75 37
79 73 39
73 71 38
48 58 22
66 67 28
74 71 34
59 68 20
12 21 54
0 0 47
0 0 42
0 0 42
0 0 42
0 0 42
0 0 42
0 0 42
0 0 42
0 0 42
0 0 42
0 0 42
0 0 42
0 0 42
63 67 83
223 237 255
223 237 255
223 237 255
223 237 255
223 237 255
223 237 255
223 237 255
223 237 255
223 237 255
223 237 255
223 237 255
223 237 255
223 237 255
223 237 255
223 237 255
223 237 255
223 237 255
223 237 255
223 237 255
223 237 255
223 237 255
223 237 255
223 237 255
223 237 255
223 237 255
223 237 255
223 237 255
223 237 255
223 237 255
223 237 255
223 237 255
223 237 255
223 237 255
223 237 255
223 237 255
223 237 255
223 237 255
223 237 255
223 237 255
223 237 255
223 237 255
223 237 255
223 237 255
223 237 255
223 237 255
223 237 255
223 237 255
223 237 255
223 237 255
223 237 255
223 237 255
223 237 255
223 237 255
223 237 255
223 237 255
223 237 255
223 237 255
223 237 255
223 237 255
223 237 255
223 237 255
223 237 255
223 237 255
223 237 255
223 237 255
223 237 255
223 237 255
223 237 255
223 237 255
223 237 255
223 237 255
223 237 255
223 237 255
223 237 255
223 237 255
223 237 255
223 237 255
223 237 255
223 237 255
223 237 255
223 237 255
223 237 255
223 237 255
223 237 255
223 237 255
223 237 255
223 237 255
223 237 255
223 237 255
223 237 255
223 237 255
223 237 255
223 237 255
223 237 255
223 237 255
223 237 255
223 237 255
223 237 255
223 237 255
223 237 255
223 237 255
223 237 255
223 237 255
223 237 255
223 237 255
223 237 255
223 237 255
223 237 255
223 237 255
223 237 255
223 237 255
223 237 255
223 237 255
223 237 255
223 237 255
223 237 255
223 237 255
223 237 255
223 237 255
223 237 255
223 237 255
223 237 255
223 237 255
223 237 255
223 237 255
223 237 255
223 237 255
223 237 255
223 237 255
223 237 255
223 237 255
223 237 255
223 237 255
223 237 255
223 237 255
223 237 255
223 237 255
223 237 255
223 237 255
223 237 255
223 237 255
223 237 255
223 237 255
223 237 255
223 237 255
223 237 255
223 237 255
223 237 255
223 237 255
223 237 255
223 237 255
223 237 255
223 237 255
223 237 255
223 237 255
223 237 255
223 237 255
223 237 255
223 237 255
223 237 255
223 237 255
223 237 255
223 237 255
223 237 255
223 237 255
223 237 255
223 237 255
223 237 255
223 237 255
223 237 255
223 237 255
223 237 255
223 237 255
223 237 255
223 237 255
223 237 255
223 237 255
223 237 255
223 237 255
223 237 255
223 237 255
223 237 255
223 237 255
223 237 255
223 237 255
223 237 255
223 237 255
223 237 255
223 237 255
223 237 255
223 237 255
223 237 255
223 237 255
223 237 255
223 237 255
223 237 255
223 237 255
223 237 255
136 144 159
0 0 42
0 0 42
0 0 42
0 0 42
0 0 42
0 0 41
0 0 41
0 0 42
0 0 42
0 0 42
0 0 42
0 0 42
0 0 42
0 0 42
0 0 42
0 0 42
0 0 42
0 0 42
0 0 42
0 0 42
0 0 42
0 0 42
0 0 42
0 0 42
0 0 42
0 0 42
0 0 42
0 0 42
0 0 42
0 0 42
0 0 42
0 0 42
0 0 42
0 0 42
0 0 42
0 0 42
0 0 42
0 0 42
0 0 42
0 0 42
0 0 42
0 0 42
0 0 42
0 0 42
0 0 42
0 0 42
0 0 42
0 0 42
0 0 42
0 0 42
0 0 42
0 0 42
0 0 42
0 0 42
0 0 42
0 0 42
0 0 42
0 0 42
0 0 42
0 0 42
0 0 42
0 0 42
0 0 42
0 0 42
0 0 42
0 0 42
0 0 42
0 0 42
0 0 42
0 0 42
0 0 42
0 0 42
0 0 42
0 0 42
0 0 42
0 0 42
0 0 42
0 0 42
0 0 42
0 0 42
0 0 42
0 0 42
0 0 42
0 0 42
0 0 42
0 0 42
0 0 42
0 0 42
0 0 42
0 0 42
0 0 42
0 0 42
0 0 42
0 0 42
0 0 42
0 0 42
0 0 42
0 0 42
0 0 42
0 0 42
0 0 42
0 0 42
0 0 42
0 0 42
0 0 42
0 0 42
0 0 42
0 0 42
0 0 42
0 0 42
0 0 42
0 0 42
0 0 42
0 0 42
0 0 42
0 0 42
0 0 42
0 0 42
0 0 42
0 0 42
0 0 44
0 0 45
0 0 45
0 0 47
0 0 48
0 0 48
0 0 50
0 0 53
0 0 53
0 0 54
0 0 55
0 0 54
0 0 61
0 0 62
0 4 65
0 2 59
0 3 59
0 4 58
19 27 76
115 109 108
181 154 126
144 116 81
130 108 65
146 122 82
152 121 81
168 137 98
133 108 72
111 95 64
89 77 44
72 65 33
67 67 33
51 61 18
43 56 9
60 68 23
50 61 12
43 59 9
40 56 0
45 61 9
45 60 13
37 54 3
31 51 0
31 51 0
33 51 0
37 45 14
57 60 32
59 65 31
61 70 32
70 77 39
71 74 37
76 76 42
76 76 42
72 74 39
72 72 37
72 69 36
72 72 36
76 77 40
71 70 35
75 74 38
75 73 36
80 77 41
83 77 42
65 66 31
50 57 20
67 68 29
63 63 27
49 62 42
0 16 54
0 0 44
0 0 42
0 0 42
0 0 42
0 0 42
0 0 42
0 0 42
0 0 42
0 0 42
0 0 42
0 0 42
0 0 42
0 0 42
134 142 157
223 237 255
223 237 255
223 237 255
223 237 255
223 237 255
223 237 255
223 237 255
223 237 255
223 237 255
223 237 255
223 237 255
223 237 255
223 237 255
223 237 255
223 237 255
223 237 255
223 237 255
223 237 255
223 237 255
223 237 255
223 237 255
223 237 255
223 237 255
223 237 255
223 237 255
223 237 255
223 237 255
223 237 255
223 237 255
223 237 255
223 237 255
223 237 255
223 237 255
223 237 255
223 237 255
223 237 255
223 237 255
223 237 255
223 237 255
223 237 255
223 237 255
223 237 255
223 237 255
223 237 255
223 237 255
223 237 255
223 237 255
223 237 255
223 237 255
223 237 255
223 237 255
223 237 255
223 237 255
223 237 255
223 237 255
223 237 255
223 237 255
223 237 255
223 237 255
223 237 255
223 237 255
223 237 255
223 237 255
223 237 255
223 237 255
223 237 255
223 237 255
223 237 255
223 237 255
223 237 255
223 237 255
223 237 255
223 237 255
223 237 255
223 237 255
223 237 255
223 237 255
223 237 255
223 237 255
223 237 255
223 237 255
223 237 255
223 237 255
223 237 255
223 237 255
223 237 255
223 237 255
223 237 255
223 237 255
223 237 255
223 237 255
223 237 255
223 237 255
223 237 255
223 237 255
223 237 255
223 237 255
223 237 255
223 237 255
223 237 255
223 237 255
223 237 255
223 237 255
223 237 255
223 237 255
223 237 255
223 237 255
223 237 255
223 237 255
223 237 255
223 237 255
223 237 255
223 237 255
223 237 255
223 237 255
223 237 255
223 237 255
223 237 255
223 237 255
223 237 255
223 237 255
223 237 255
223 237 255
223 237 255
223 237 255
223 237 255
223 237 255
223 237 255
223 237 255
223 237 255
223 237 255
223 237 255
223 237 255
223 237 255
223 237 255
223 237 255
223 237 255
223 237 255
223 237 255
223 237 255
223 237 255
223 237 255
223 237 255
223 237 255
223 237 255
223 237 255
223 237 255
223 237 255
223 237 255
223 237 255
223 237 255
223 237 255
223 237 255
223 237 255
223 237 255
223 237 255
223 237 255
223 237 255
223 237 255
223 237 255
223 237 255
223 237 255
223 237 255
223 237 255
223 237 255
223 237 255
223 237 255
223 237 255
223 237 255
223 237 255
223 237 255
223 237 255
223 237 255
223 237 255
223 237 255
223 237 255
223 237 255
223 237 255
223 237 255
223 237 255
223 237 255
223 237 255
223 237 255
223 237 255
223 237 255
223 237 255
223 237 255
223 237 255
223 237 255
223 237 255
223 237 255
223 237 255
223 237 255
223 237 255
223 237 255
223 237 255
223 237 255
223 237 255
206 218 236
0 0 42
0 0 42
0 0 42
0 0 42
0 0 42
0 0 42
0 0 42
0 0 42
0 0 42
0 0 42
0 0 42
0 0 42
0 0 42
0 0 42
0 0 42
0 0 42
0 0 42
0 0 42
0 0 42
0 0 42
0 0 42
0 0 42
0 0 42
0 0 42
0 0 42
0 0 42
0 0 42
0 0 42
0 0 42
0 0 42
0 0 42
0 0 42
0 0 42
0 0 42
0 0 42
0 0 42
0 0 42
0 0 42
0 0 42
0 0 42
0 0 42
0 0 42
0 0 42
0 0 42
0 0 42
0 0 42
0 0 42
0 0 42
0 0 42
0 0 42
0 0 42
0 0 42
0 0 42
0 0 42
0 0 42
0 0 42
0 0 42
0 0 42
0 0 42
0 0 42
0 0 42
0 0 42
0 0 42
0 0 42
0 0 42
0 0 42
0 0 42
0 0 42
0 0 42
0 0 42
0 0 42
0 0 42
0 0 42
0 0 42
0 0 42
0 0 42
0 0 42
0 0 42
0 0 42
0 0 42
0 0 42
0 0 42
0 0 42
0 0 42
0 0 42
0 0 42
0 0 42
0 0 42
0 0 42
0 0 42
0 0 42
0 0 42
0 0 42
0 0 42
0 0 42
0 0 42
0 0 42
0 0 42
0 0 42
0 0 42
0 0 42
0 0 42
0 0 42
0 0 42
0 0 42
0 0 42
0 0 42
0 0 42
0 0 42
0 0 42
0 0 42
0 0 42
0 0 42
0 0 42
0 0 42
0 0 42
0 0 42
0 0 42
0 0 42
0 0 42
0 0 43
0 0 45
0 0 45
0 0 43
0 0 44
0 0 47
0 0 48
0 0 50
0 0 50
0 0 54
0 0 56
0 0 57
0 0 61
0 0 64
0 0 59
0 0 54
0 0 55
0 0 59
0 0 61
68 67 97
172 146 116
140 112 80
149 127 79
169 144 101
176 146 97
135 128 66
124 113 62
117 100 63
107 91 60
80 72 44
73 68 36
42 49 12
51 60 17
63 64 24
52 60 19
48 61 14
46 59 4
47 61 11
47 62 16
41 59 7
33 53 0
38 52 2
48 60 18
57 64 28
64 69 35
59 67 31
62 72 30
68 74 35
77 78 42
77 78 42
74 76 41
74 77 41
71 75 39
71 72 36
74 74 36
77 75 38
78 77 41
76 75 39
74 72 35
78 76 38
72 70 34
58 59 23
54 57 21
61 66 28
61 64 20
24 35 50
0 0 42
0 0 42
0 0 42
0 0 42
0 0 42
0 0 42
0 0 42
0 0 42
0 0 42
0 0 42
0 0 42
0 0 42
0 0 42
31 33 55
211 223 241
223 237 255
223 237 255
223 237 255
223 237 255
223 237 255
223 237 255
223 237 255
223 237 255
223 237 255
223 237 255
223 237 255
223 237 255
223 237 255
223 237 255
223 237 255
223 237 255
223 237 255
223 237 255
223 237 255
223 237 255
223 237 255
223 237 255
223 237 255
223 237 255
223 237 255
223 237 255
223 237 255
223 237 255
223 237 255
223 237 255
223 237 255
223 237 255
223 237 255
223 237 255
223 237 255
223 237 255
223 237 255
223 237 255
223 237 255
223 237 255
223 237 255
223 237 255
223 237 255
223 237 255
223 237 255
223 237 255
223 237 255
223 237 255
223 237 255
223 237 255
223 237 255
223 237 255
223 237 255
223 237 255
223 237 255
223 237 255
223 237 255
223 237 255
223 237 255
223 237 255
223 237 255
223 237 255
223 237 255
223 237 255
223 237 255
223 237 255
223 237 255
223 237 255
223 237 255
223 237 255
223 237 255
223 237 255
223 237 255
223 237 255
223 237 255
223 237 255
223 237 255
223 237 255
223 237 255
223 237 255
223 237 255
223 237 255
223 237 255
223 237 255
223 237 255
223 237 255
223 237 255
223 237 255
223 237 255
223 237 255
223 237 255
223 237 255
223 237 255
223 237 255
223 237 255
223 237 255
223 237 255
223 237 255
223 237 255
223 237 255
223 237 255
223 237 255
223 237 255
223 237 255
223 237 255
223 237 255
223 237 255
223 237 255
223 237 255
223 237 255
223 237 255
223 237 255
223 237 255
223 237 255
223 237 255
223 237 255
223 237 255
223 237 255
223 237 255
223 237 255
223 237 255
223 237 255
223 237 255
223 237 255
223 237 255
223 237 255
223 237 255
223 237 255
223 237 255
223 237 255
223 237 255
223 237 255
223 237 255
223 237 255
223 237 255
223 237 255
223 237 255
223 237 255
223 237 255
223 237 255
223 237 255
223 237 255
223 237 255
223 237 255
223 237 255
223 237 255
223 237 255
223 237 255
223 237 255
224 237 255
223 237 255
223 237 255
224 237 255
223 237 255
224 237 255
224 237 255
224 237 255
224 237 255
224 237 255
224 237 255
224 237 255
224 237 255
224 237 255
224 237 255
224 237 255
224 237 255
224 237 255
224 237 255
224 237 255
224 237 255
224 237 255
224 237 255
224 237 255
224 237 255
224 237 255
224 237 255
224 237 255
224 237 255
224 237 255
224 237 255
224 237 255
224 237 255
224 237 255
224 237 255
224 237 255
224 237 255
224 237 255
224 237 255
224 237 255
224 237 255
224 237 255
224 237 255
224 237 255
224 237 255
224 237 255
224 237 255
224 237 255
224 237 255
224 237 255
105 111 125
0 0 42
0 0 42
0 0 42
0 0 42
0 0 42
0 0 42
0 0 42
0 0 42
0 0 42
0 0 42
0 0 42
0 0 42
0 0 42
0 0 42
0 0 42
0 0 42
0 0 42
0 0 42
0 0 42
0 0 42
0 0 42
0 0 42
0 0 42
0 0 42
0 0 42
0 0 42
0 0 42
0 0 42
0 0 42
0 0 42
0 0 42
0 0 42
0 0 42
0 0 42
0 0 42
0 0 42
0 0 42
0 0 42
0 0 42
0 0 42
0 0 42
0 0 42
0 0 42
0 0 42
0 0 42
0 0 42
0 0 42
0 0 42
0 0 42
0 0 42
0 0 42
0 0 42
0 0 42
0 0 42
0 0 42
0 0 42
0 0 42
0 0 42
0 0 42
0 0 42
0 0 42
0 0 42
0 0 42
0 0 42
0 0 42
0 0 42
0 0 42
0 0 42
0 0 42
0 0 42
0 0 42
0 0 42
0 0 42
0 0 42
0 0 42
0 0 42
0 0 42
0 0 42
0 0 42
0 0 42
0 0 42
0 0 42
0 0 42
0 0 42
0 0 42
0 0 42
0 0 42
0 0 42
0 0 42
0 0 42
0 0 42
0 0 42
0 0 42
0 0 42
0 0 42
0 0 42
0 0 42
0 0 42
0 0 42
0 0 42
0 0 42
0 0 42
0 0 42
0 0 42
0 0 42
0 0 42
0 0 42
0 0 42
0 0 42
0 0 42
0 0 42
0 0 42
0 0 42
0 0 42
0 0 42
0 0 42
0 0 42
0 0 42
0 0 42
0 0 42
0 0 44
0 0 45
0 0 43
0 0 44
0 0 46
0 0 48
0 0 48
0 0 50
0 0 53
0 0 54
0 0 55
0 0 55
0 0 54
0 0 51
0 0 51
0 0 50
0 0 55
0 0 54
77 67 84
142 124 103
125 98 75
136 112 67
133 107 64
177 150 105
167 153 99
144 127 87
136 114 81
119 99 67
105 93 61
73 69 37
43 53 11
56 64 24
66 64 28
59 63 23
54 63 16
50 62 13
45 60 10
42 58 11
37 58 0
37 54 4
56 67 24
57 66 27
48 57 12
47 54 16
52 62 22
63 72 31
72 76 38
73 75 41
75 78 40
77 79 40
74 78 41
74 77 41
72 77 39
76 76 38
70 71 33
67 70 32
72 71 35
74 75 37
65 69 29
60 64 26
57 62 26
61 63 30
54 62 28
39 47 37
0 1 45
0 0 42
0 0 42
0 0 42
0 0 42
0 0 42
0 0 42
0 0 42
0 0 42
0 0 42
0 0 42
0 0 42
0 0 42
0 0 42
89 94 109
224 237 255
224 237 255
224 237 255
224 237 255
224 237 255
224 237 255
224 237 255
224 237 255
224 237 255
224 237 255
224 237 255
224 237 255
224 237 255
224 237 255
224 237 255
224 237 255
224 237 255
224 237 255
224 237 255
224 237 255
224 237 255
224 237 255
224 237 255
224 237 255
224 237 255
224 237 255
224 237 255
224 237 255
224 237 255
224 237 255
224 237 255
224 237 255
224 237 255
224 237 255
224 237 255
224 237 255
224 237 255
224 237 255
224 237 255
224 237 255
224 237 255
224 237 255
224 237 255
224 237 255
224 237 255
223 237 255
224 237 255
224 237 255
224 237 255
223 237 255
223 237 255
223 237 255
223 237 255
223 237 255
223 237 255
223 237 255
223 237 255
223 237 255
223 237 255
223 237 255
223 237 255
223 237 255
223 237 255
223 237 255
223 237 255
223 237 255
223 237 255
223 237 255
223 237 255
223 237 255
223 237 255
223 237 255
223 237 255
223 237 255
223 237 255
223 237 255
223 237 255
223 237 255
223 237 255
223 237 255
223 237 255
223 237 255
223 237 255
223 237 255
223 237 255
223 237 255
223 237 255
223 237 255
223 237 255
223 237 255
223 237 255
223 237 255
223 237 255
223 237 255
223 237 255
223 237 255
223 237 255
223 237 255
223 237 255
223 237 255
224 237 255
224 237 255
224 237 255
224 237 255
224 237 255
224 237 255
224 237 255
224 237 255
224 237 255
224 237 255
224 237 255
224 237 255
224 237 255
224 237 255
224 237 255
224 237 255
224 237 255
224 237 255
224 237 255
224 237 255
224 237 255
224 237 255
224 237 255
224 237 255
224 237 255
224 237 255
224 237 255
224 237 255
224 237 255
224 237 255
224 237 255
224 237 255
224 237 255
224 237 255
224 237 255
224 237 255
224 237 255
224 237 255
224 237 255
224 237 255
224 237 255
224 237 255
224 237 255
224 237 255
224 237 255
224 237 255
224 237 255
224 237 255
224 237 255
224 237 255
224 237 255
224 237 255
224 237 255
224 237 255
224 237 255
224 237 255
224 237 255
224 237 255
224 237 255
224 237 255
224 237 255
224 237 255
224 237 255
224 237 255
224 237 255
224 237 255
224 237 255
224 237 255
224 237 255
224 237 255
224 237 255
224 237 255
224 237 255
224 237 255
224 237 255
224 237 255
224 237 255
224 237 255
224 237 255
224 237 255
224 237 255
224 237 255
224 237 255
224 237 255
224 237 255
224 237 255
224 237 255
224 237 255
224 237 255
224 237 255
224 237 255
224 237 255
224 237 255
224 237 255
224 237 255
224 237 255
224 237 255
224 237 255
224 237 255
224 237 255
187 198 215
0 0 42
0 0 42
0 0 42
0 0 42
0 0 42
0 0 42
0 0 42
0 0 42
0 0 42
0 0 42
0 0 42
0 0 42
0 0 42
0 0 42
0 0 42
0 0 42
0 0 42
0 0 42
0 0 42
0 0 42
0 0 42
0 0 42
0 0 42
0 0 42
0 0 42
0 0 42
0 0 42
0 0 42
0 0 42
0 0 42
0 0 42
0 0 42
0 0 42
0 0 42
0 0 42
0 0 42
0 0 42
0 0 42
0 0 42
0 0 42
0 0 42
0 0 42
0 0 42
0 0 42
0 0 42
0 0 42
0 0 42
0 0 42
0 0 42
0 0 42
0 0 42
0 0 42
0 0 42
0 0 42
0 0 42
0 0 42
0 0 42
0 0 42
0 0 42
0 0 42
0 0 42
0 0 42
0 0 42
0 0 42
0 0 42
0 0 42
0 0 42
0 0 42
0 0 42
0 0 42
0 0 42
0 0 42
0 0 42
0 0 42
0 0 42
0 0 42
0 0 42
0 0 42
0 0 42
0 0 42
0 0 42
0 0 42
0 0 42
0 0 42
0 0 42
0 0 42
0 0 42
0 0 42
0 0 42
0 0 42
0 0 42
0 0 42
0 0 42
0 0 42
0 0 42
0 0 42
0 0 42
0 0 42
0 0 42
0 0 42
0 0 42
0 0 42
0 0 42
0 0 42
0 0 42
0 0 42
0 0 42
0 0 42
0 0 42
0 0 42
0 0 42
0 0 42
0 0 42
0 0 42
0 0 42
0 0 42
0 0 42
0 0 42
0 0 42
0 0 42
0 0 42
0 0 44
0 0 43
0 0 44
0 0 45
0 0 46
0 0 47
0 0 48
0 0 50
0 0 50
0 0 48
0 0 48
0 0 48
0 0 57
0 0 49
0 0 51
0 0 55
0 0 65
62 61 86
157 140 120
126 103 81
140 110 79
129 105 74
143 114 77
158 125 95
152 127 94
131 113 80
127 107 75
103 93 56
64 63 32
49 56 18
59 61 25
74 68 39
66 62 31
55 61 23
51 60 18
42 55 4
38 54 0
35 57 0
47 62 14
64 72 31
52 62 20
48 65 18
52 63 24
60 69 28
68 73 34
74 75 40
72 74 38
69 76 34
69 76 33
67 77 34
78 82 43
79 82 42
71 72 33
59 67 27
65 68 30
73 73 36
74 75 35
62 66 28
58 63 26
60 64 27
57 64 22
51 63 36
13 21 48
0 0 42
0 0 42
0 0 42
0 0 42
0 0 42
0 0 42
0 0 42
0 0 42
0 0 42
0 0 42
0 0 42
0 0 42
0 0 42
0 0 42
180 191 207
224 237 255
224 237 255
224 237 255
224 237 255
224 237 255
224 237 255
224 237 255
224 237 255
224 237 255
224 237 255
224 237 255
224 237 255
224 237 255
224 237 255
224 237 255
224 237 255
224 237 255
224 237 255
224 237 255
224 237 255
224 237 255
224 237 255
224 237 255
224 237 255
224 237 255
224 237 255
224 237 255
224 237 255
224 237 255
224 237 255
224 237 255
224 237 255
224 237 255
224 237 255
224 237 255
224 237 255
224 237 255
224 237 255
224 237 255
224 237 255
224 237 255
224 237 255
224 237 255
224 237 255
224 237 255
224 237 255
224 237 255
224 237 255
224 237 255
224 237 255
224 237 255
224 237 255
224 237 255
224 237 255
224 237 255
224 237 255
224 237 255
224 237 255
224 237 255
224 237 255
224 237 255
224 237 255
224 237 255
224 237 255
224 237 255
224 237 255
224 237 255
224 237 255
224 237 255
224 237 255
224 237 255
224 237 255
224 237 255
224 237 255
224 237 255
224 237 255
224 237 255
224 237 255
224 237 255
224 237 255
224 237 255
224 237 255
224 237 255
224 237 255
224 237 255
224 237 255
224 237 255
224 237 255
224 237 255
224 237 255
224 237 255
224 237 255
224 237 255
224 237 255
224 237 255
224 237 255
224 237 255
224 237 255
224 237 255
224 237 255
224 237 255
224 237 255
224 237 255
224 237 255
224 237 255
224 237 255
224 237 255
224 237 255
224 237 255
224 237 255
224 237 255
224 237 255
224 237 255
224 237 255
224 237 255
224 237 255
224 237 255
224 237 255
224 237 255
224 237 255
224 237 255
224 237 255
224 237 255
224 237 255
224 237 255
224 237 255
224 237 255
224 237 255
224 237 255
224 237 255
224 237 255
224 237 255
224 237 255
224 237 255
224 237 255
224 237 255
224 237 255
224 237 255
224 237 255
224 237 255
224 237 255
224 237 255
224 237 255
224 237 255
224 237 255
224 237 255
224 237 255
224 237 255
224 237 255
224 237 255
224 237 255
224 237 255
224 237 255
224 237 255
224 237 255
224 237 255
224 237 255
224 237 255
224 237 255
224 237 255
224 237 255
224 237 255
224 237 255
224 237 255
224 237 255
224 237 255
224 237 255
224 237 255
224 237 255
224 237 255
224 237 255
224 237 255
224 237 255
224 237 255
224 237 255
224 237 255
224 237 255
224 237 255
224 237 255
224 237 255
224 237 255
224 237 255
224 237 255
224 237 255
224 237 255
224 237 255
224 237 255
224 237 255
224 237 255
224 237 255
224 237 255
224 237 255
224 237 255
224 237 255
224 237 255
224 237 255
224 237 255
224 237 255
224 237 255
224 237 255
224 237 255
59 62 79
0 0 42
0 0 42
0 0 42
0 0 42
0 0 42
0 0 42
0 0 42
0 0 42
0 0 42
0 0 42
0 0 42
0 0 42
0 0 42
0 0 42
0 0 42
0 0 42
0 0 42
0 0 42
0 0 42
0 0 42
0 0 42
0 0 42
0 0 42
0 0 42
0 0 42
0 0 42
0 0 42
0 0 42
0 0 42
0 0 42
0 0 42
0 0 42
0 0 42
0 0 42
0 0 42
0 0 42
0 0 42
0 0 42
0 0 42
0 0 42
0 0 42
0 0 42
0 0 42
0 0 42
0 0 42
0 0 42
0 0 42
0 0 42
0 0 42
0 0 42
0 0 42
0 0 42
0 0 42
0 0 42
0 0 42
0 0 42
0 0 42
0 0 42
0 0 42
0 0 42
0 0 42
0 0 42
0 0 42
0 0 42
0 0 42
0 0 42
0 0 42
0 0 42
0 0 42
0 0 42
0 0 42
0 0 42
0 0 42
0 0 42
0 0 42
0 0 42
0 0 42
0 0 42
0 0 42
0 0 42
0 0 42
0 0 42
0 0 42
0 0 42
0 0 42
0 0 42
0 0 42
0 0 42
0 0 42
0 0 42
0 0 42
0 0 42
0 0 42
0 0 42
0 0 42
0 0 42
0 0 42
0 0 42
0 0 42
0 0 42
0 0 42
0 0 42
0 0 42
0 0 42
0 0 42
0 0 42
0 0 42
0 0 42
0 0 42
0 0 42
0 0 42
0 0 42
0 0 42
0 0 42
0 0 42
0 0 42
0 0 42
0 0 42
0 0 42
0 0 42
0 0 42
0 0 42
0 0 44
0 0 45
0 0 47
0 0 46
0 0 47
0 0 48
0 0 49
0 0 50
0 0 51
0 0 52
0 0 53
0 0 56
0 0 58
0 0 57
0 0 67
57 61 88
181 155 130
149 123 97
168 135 106
152 132 104
138 110 81
175 142 113
159 132 97
106 90 55
121 102 69
96 85 48
50 54 18
50 60 21
60 62 29
66 62 35
70 71 42
56 61 23
49 58 15
44 57 12
38 55 0
33 57 1
46 63 18
54 65 24
45 60 16
56 72 25
57 68 27
65 73 30
74 79 39
71 73 35
73 78 38
65 74 30
65 75 28
62 74 28
76 82 39
78 81 41
65 72 29
56 67 26
67 71 31
70 72 33
71 72 35
68 69 32
61 62 27
69 70 34
71 72 39
42 51 62
0 0 41
0 0 42
0 0 42
0 0 42
0 0 42
0 0 42
0 0 42
0 0 42
0 0 42
0 0 42
0 0 42
0 0 42
0 0 42
0 0 42
77 82 97
223 236 254
224 237 255
224 237 255
224 237 255
224 237 255
224 237 255
224 237 255
224 237 255
224 237 255
224 237 255
224 237 255
224 237 255
224 237 255
224 237 255
224 237 255
224 237 255
224 237 255
224 237 255
224 237 255
224 237 255
224 237 255
224 237 255
224 237 255
224 237 255
224 237 255
224 237 255
224 237 255
224 237 255
224 237 255
224 237 255
224 237 255
224 237 255
224 237 255
224 237 255
224 237 255
224 237 255
224 237 255
224 237 255
224 237 255
224 237 255
224 237 255
224 237 255
224 237 255
224 237 255
224 237 255
224 237 255
224 237 255
224 237 255
224 237 255
224 237 255
224 237 255
224 237 255
224 237 255
224 237 255
224 237 255
224 237 255
224 237 255
224 237 255
224 237 255
224 237 255
224 237 255
224 237 255
224 237 255
224 237 255
224 237 255
224 237 255
224 237 255
224 237 255
224 237 255
224 237 255
224 237 255
224 237 255
224 237 255
224 237 255
224 237 255
224 237 255
224 237 255
224 237 255
224 237 255
224 237 255
224 237 255
224 237 255
224 237 255
224 237 255
224 237 255
224 237 255
224 237 255
224 237 255
224 237 255
224 237 255
224 237 255
224 237 255
224 237 255
224 237 255
224 237 255
224 237 255
224 237 255
224 237 255
224 237 255
224 237 255
224 237 255
224 237 255
224 237 255
224 237 255
224 237 255
224 237 255
224 237 255
224 237 255
224 237 255
224 237 255
224 237 255
224 237 255
224 237 255
224 237 255
224 237 255
224 237 255
224 237 255
224 237 255
224 237 255
224 237 255
224 237 255
224 237 255
224 237 255
224 237 255
224 237 255
224 237 255
224 237 255
224 237 255
224 237 255
224 237 255
224 237 255
224 237 255
224 237 255
224 237 255
224 237 255
224 237 255
224 237 255
224 237 255
224 237 255
224 237 255
224 237 255
224 237 255
224 237 255
224 237 255
224 237 255
224 237 255
224 237 255
224 237 255
224 237 255
224 237 255
224 237 255
224 237 255
224 237 255
224 237 255
224 237 255
224 237 255
224 237 255
224 237 255
224 237 255
224 237 255
224 237 255
224 237 255
224 237 255
224 237 255
224 237 255
224 237 255
224 237 255
224 237 255
224 237 255
224 237 255
224 237 255
224 237 255
224 237 255
224 237 255
224 237 255
224 237 255
224 237 255
224 237 255
224 237 255
224 237 255
224 237 255
224 237 255
224 237 255
224 237 255
224 237 255
224 237 255
224 237 255
224 237 255
224 237 255
224 237 255
224 237 255
224 237 255
224 237 255
224 237 255
224 237 255
224 237 255
224 237 255
224 237 255
224 237 255
224 237 255
224 237 255
224 237 255
160 169 185
0 0 42
0 0 42
0 0 42
0 0 42
0 0 42
0 0 42
0 0 42
0 0 42
0 0 42
0 0 42
0 0 42
0 0 42
0 0 42
0 0 42
0 0 42
0 0 42
0 0 42
0 0 42
0 0 42
0 0 42
0 0 42
0 0 42
0 0 42
0 0 42
0 0 42
0 0 42
0 0 42
0 0 42
0 0 42
0 0 42
0 0 42
0 0 42
0 0 42
0 0 42
0 0 42
0 0 42
0 0 42
0 0 42
0 0 42
0 0 42
0 0 42
0 0 42
0 0 42
0 0 42
0 0 42
0 0 42
0 0 42
0 0 42
0 0 42
0 0 42
0 0 42
0 0 42
0 0 42
0 0 42
0 0 42
0 0 42
0 0 42
0 0 42
0 0 42
0 0 42
0 0 42
0 0 42
0 0 42
0 0 42
0 0 42
0 0 42
0 0 42
0 0 42
0 0 42
0 0 42
0 0 42
0 0 42
0 0 42
0 0 42
0 0 42
0 0 42
0 0 42
0 0 42
0 0 42
0 0 42
0 0 42
0 0 42
0 0 42
0 0 42
0 0 42
0 0 42
0 0 42
0 0 42
0 0 42
0 0 42
0 0 42
0 0 42
0 0 42
0 0 42
0 0 42
0 0 42
0 0 42
0 0 42
0 0 42
0 0 42
0 0 42
0 0 42
0 0 42
0 0 42
0 0 42
0 0 42
0 0 42
0 0 42
0 0 42
0 0 42
0 0 42
0 0 42
0 0 42
0 0 42
0 0 42
0 0 42
0 0 42
0 0 42
0 0 42
0 0 42
0 0 42
0 0 41
0 0 43
0 0 45
0 0 47
0 0 48
0 0 48
0 0 49
0 0 51
0 0 53
0 0 53
0 0 53
0 0 52
0 0 54
0 0 59
0 2 59
0 13 76
78 79 99
169 132 104
143 113 90
158 126 91
158 135 104
170 148 122
203 166 138
159 131 99
104 89 53
116 96 64
85 73 42
44 51 12
51 60 21
56 58 26
62 60 34
63 65 33
57 61 25
50 59 16
46 60 16
42 59 15
43 63 13
51 64 20
53 64 22
51 65 20
58 72 28
60 69 26
66 74 32
67 73 31
67 71 26
68 77 31
61 72 25
68 80 33
66 77 31
67 75 30
72 75 34
58 69 27
58 66 26
65 71 29
69 72 34
67 68 34
62 65 28
60 65 29
61 68 27
74 84 39
14 19 66
0 0 40
0 0 42
0 0 42
0 0 42
0 0 42
0 0 42
0 0 42
0 0 42
0 0 42
0 0 42
0 0 42
0 0 42
0 0 42
0 0 42
156 166 181
224 237 255
224 237 255
224 237 255
224 237 255
224 237 255
224 237 255
224 237 255
224 237 255
224 237 255
224 237 255
224 237 255
224 237 255
224 237 255
224 237 255
224 237 255
224 237 255
224 237 255
224 237 255
224 237 255
224 237 255
224 237 255
224 237 255
224 237 255
224 237 255
224 237 255
224 237 255
224 237 255
224 237 255
224 237 255
224 237 255
224 237 255
224 237 255
224 237 255
224 237 255
224 237 255
224 237 255
224 237 255
224 237 255
224 237 255
224 237 255
224 237 255
224 237 255
224 237 255
224 237 255
224 237 255
224 237 255
224 237 255
224 237 255
224 237 255
224 237 255
224 237 255
224 237 255
224 237 255
224 237 255
224 237 255
224 237 255
224 237 255
224 237 255
224 237 255
224 237 255
224 237 255
224 237 255
224 237 255
224 237 255
224 237 255
224 237 255
224 237 255
224 237 255
224 237 255
224 237 255
224 237 255
224 237 255
224 237 255
224 237 255
224 237 255
224 237 255
224 237 255
224 237 255
224 237 255
224 237 255
224 237 255
224 237 255
224 237 255
224 237 255
224 237 255
224 237 255
224 237 255
224 237 255
224 237 255
224 237 255
224 237 255
224 237 255
224 237 255
224 237 255
224 237 255
224 237 255
224 237 255
224 237 255
224 237 255
224 237 255
224 237 255
224 237 255
224 237 255
224 237 255
224 237 255
224 237 255
224 237 255
224 237 255
224 237 255
224 237 255
224 237 255
224 237 255
224 237 255
224 237 255
224 237 255
224 237 255
224 237 255
224 237 255
224 237 255
224 237 255
224 237 255
224 237 255
224 237 255
224 237 255
224 237 255
224 237 255
224 237 255
224 237 255
224 237 255
224 237 255
224 237 255
224 237 255
224 237 255
224 237 255
224 237 255
224 237 255
224 237 255
224 237 255
224 237 255
224 237 255
224 237 255
224 237 255
224 237 255
224 237 255
224 237 255
224 237 255
224 237 255
224 237 255
224 237 255
224 237 255
224 237 255
224 237 255
224 237 255
224 237 255
224 237 255
224 237 255
224 237 255
224 237 255
224 237 255
224 237 255
224 237 255
224 237 255
224 237 255
224 237 255
224 237 255
224 237 255
224 237 255
224 237 255
224 237 255
224 237 255
224 237 255
224 237 255
224 237 255
224 237 255
224 237 255
224 237 255
224 237 255
224 237 255
224 237 255
224 237 255
224 237 255
224 237 255
224 237 255
224 237 255
224 237 255
224 237 255
224 237 255
224 237 255
224 237 255
224 237 255
224 237 255
224 237 255
224 237 255
224 237 255
224 237 255
224 237 255
224 237 255
224 237 255
224 237 255
224 237 255
224 237 255
224 237 255
205 217 235
50 53 70
0 0 42
0 0 42
0 0 42
0 0 42
0 0 42
0 0 42
0 0 42
0 0 42
0 0 42
0 0 42
0 0 42
0 0 42
0 0 42
0 0 42
0 0 42
0 0 42
0 0 42
0 0 42
0 0 42
0 0 42
0 0 42
0 0 42
0 0 42
0 0 42
0 0 42
0 0 42
0 0 42
0 0 42
0 0 42
0 0 42
0 0 42
0 0 42
0 0 42
0 0 42
0 0 42
0 0 42
0 0 42
0 0 42
0 0 42
0 0 42
0 0 42
0 0 42
0 0 42
0 0 42
0 0 42
0 0 42
0 0 42
0 0 42
0 0 42
0 0 42
0 0 42
0 0 42
0 0 42
0 0 42
0 0 42
0 0 42
0 0 42
0 0 42
0 0 42
0 0 42
0 0 42
0 0 42
0 0 42
0 0 42
0 0 42
0 0 42
0 0 42
0 0 42
0 0 42
0 0 42
0 0 42
0 0 42
0 0 42
0 0 42
0 0 42
0 0 42
0 0 42
0 0 42
0 0 42
0 0 42
0 0 42
0 0 42
0 0 42
0 0 42
0 0 42
0 0 42
0 0 42
0 0 42
0 0 42
0 0 42
0 0 42
0 0 42
0 0 42
0 0 42
0 0 42
0 0 42
0 0 42
0 0 42
0 0 42
0 0 42
0 0 42
0 0 42
0 0 42
0 0 42
0 0 42
0 0 42
0 0 42
0 0 42
0 0 42
0 0 42
0 0 42
0 0 42
0 0 42
0 0 42
0 0 42
0 0 42
0 0 42
0 0 42
0 0 42
0 0 42
0 0 41
0 0 42
0 0 45
0 0 46
0 0 48
0 0 49
0 0 50
0 0 53
0 0 54
0 0 54
0 0 53
0 0 50
0 0 53
0 0 56
0 3 64
0 8 76
95 85 99
188 153 126
152 124 99
150 116 82
160 132 98
160 135 103
175 140 114
146 119 86
117 100 63
116 97 65
87 81 51
45 51 17
53 58 23
60 60 29
60 58 32
63 64 30
58 63 26
47 56 12
47 59 16
46 62 16
44 60 11
54 66 23
58 68 24
58 70 24
58 71 26
62 73 28
59 69 22
65 75 26
65 76 26
62 73 27
76 83 40
69 80 32
72 82 35
67 76 32
65 70 31
61 69 31
61 70 28
60 69 24
61 66 29
54 60 24
53 61 21
46 58 18
44 59 38
16 22 64
0 0 45
0 0 42
0 0 42
0 0 42
0 0 42
0 0 42
0 0 42
0 0 42
0 0 42
0 0 42
0 0 42
0 0 42
0 0 42
0 0 42
59 62 79
219 232 250
224 237 255
224 237 255
224 237 255
224 237 255
224 237 255
224 237 255
224 237 255
224 237 255
224 237 255
224 237 255
224 237 255
224 237 255
224 237 255
224 237 255
224 237 255
224 237 255
224 237 255
224 237 255
224 237 255
224 237 255
224 237 255
224 237 255
224 237 255
224 237 255
224 237 255
224 237 255
224 237 255
224 237 255
224 237 255
224 237 255
224 237 255
224 237 255
224 237 255
224 237 255
224 237 255
224 237 255
224 237 255
224 237 255
224 237 255
224 237 255
224 237 255
224 237 255
224 237 255
224 237 255
224 237 255
224 237 255
224 237 255
224 237 255
224 237 255
224 237 255
224 237 255
224 237 255
224 237 255
224 237 255
224 237 255
224 237 255
224 237 255
224 237 255
224 237 255
224 237 255
224 237 255
224 237 255
224 237 255
224 237 255
224 237 255
224 237 255
224 237 255
224 237 255
224 237 255
224 237 255
224 237 255
224 237 255
224 237 255
224 237 255
224 237 255
224 237 255
224 237 255
224 237 255
224 237 255
224 237 255
224 237 255
224 237 255
224 237 255
224 237 255
224 237 255
224 237 255
224 237 255
224 237 255
224 237 255
224 237 255
224 237 255
224 237 255
224 237 255
224 237 255
224 237 255
224 237 255
224 237 255
224 237 255
224 237 255
224 237 255
224 237 255
224 237 255
224 237 255
224 237 255
224 237 255
224 237 255
224 237 255
224 237 255
224 237 255
224 237 255
224 237 255
224 237 255
224 237 255
224 237 255
224 237 255
224 237 255
224 237 255
224 237 255
224 237 255
224 237 255
224 237 255
224 237 255
224 237 255
224 237 255
224 237 255
224 237 255
224 237 255
224 237 255
224 237 255
224 237 255
224 237 255
224 237 255
224 237 255
224 237 255
224 237 255
224 237 255
224 237 255
224 237 255
224 237 255
224 237 255
224 237 255
224 237 255
224 237 255
224 237 255
224 237 255
224 237 255
224 237 255
224 237 255
224 237 255
224 237 255
224 237 255
224 237 255
224 237 255
224 237 255
224 237 255
224 237 255
224 237 255
224 237 255
224 237 255
224 237 255
224 237 255
224 237 255
224 237 255
224 237 255
224 237 255
224 237 255
224 237 255
224 237 255
224 237 255
224 237 255
224 237 255
224 237 255
224 237 255
224 237 255
224 237 255
224 237 255
224 237 255
224 237 255
224 237 255
224 237 255
224 237 255
224 237 255
224 237 255
224 237 255
224 237 255
224 237 255
224 237 255
224 237 255
224 237 255
224 237 255
224 237 255
224 237 255
224 237 255
224 237 255
224 237 255
224 237 255
224 237 255
224 237 255
224 237 255
224 237 255
224 237 255
224 237 255
224 237 255
152 161 176
0 0 42
0 0 42
0 0 42
0 0 42
0 0 42
0 0 42
0 0 42
0 0 42
0 0 42
0 0 42
0 0 42
0 0 42
0 0 42
0 0 42
0 0 42
0 0 42
0 0 42
0 0 42
0 0 42
0 0 42
0 0 42
0 0 42
0 0 42
0 0 42
0 0 42
0 0 42
0 0 42
0 0 42
0 0 42
0 0 42
0 0 42
0 0 42
0 0 42
0 0 42
0 0 42
0 0 42
0 0 42
0 0 42
0 0 42
0 0 42
0 0 42
0 0 42
0 0 42
0 0 42
0 0 42
0 0 42
0 0 42
0 0 42
0 0 42
0 0 42
0 0 42
0 0 42
0 0 42
0 0 42
0 0 42
0 0 42
0 0 42
0 0 42
0 0 42
0 0 42
0 0 42
0 0 42
0 0 42
0 0 42
0 0 42
0 0 42
0 0 42
0 0 42
0 0 42
0 0 42
0 0 42
0 0 42
0 0 42
0 0 42
0 0 42
0 0 42
0 0 42
0 0 42
0 0 42
0 0 42
0 0 42
0 0 42
0 0 42
0 0 42
0 0 42
0 0 42
0 0 42
0 0 42
0 0 42
0 0 42
0 0 42
0 0 42
0 0 42
0 0 42
0 0 42
0 0 42
0 0 42
0 0 42
0 0 42
0 0 42
0 0 42
0 0 42
0 0 42
0 0 42
0 0 42
0 0 42
0 0 42
0 0 42
0 0 42
0 0 42
0 0 42
0 0 42
0 0 42
0 0 42
0 0 42
0 0 42
0 0 42
0 0 42
0 0 42
0 0 42
0 0 42
0 0 42
0 0 43
0 0 45
0 0 46
0 0 48
0 0 50
0 0 51
0 0 51
0 0 50
0 0 51
0 0 52
0 0 55
0 0 53
0 0 60
6 6 65
116 98 99
193 167 142
154 128 107
140 112 88
157 124 93
157 125 94
157 124 95
134 112 73
138 111 73
119 104 71
60 63 34
41 50 10
54 60 23
63 63 29
60 62 30
59 61 29
55 61 22
59 69 24
60 72 26
46 61 15
37 55 2
48 62 18
49 63 17
52 65 19
59 70 28
59 71 28
63 75 27
68 81 28
62 74 25
68 79 35
76 82 40
69 75 31
64 73 27
63 72 29
59 66 29
65 71 29
65 68 31
57 64 25
52 63 22
46 57 17
40 61 41
38 56 34
20 26 53
0 0 47
0 0 42
0 0 42
0 0 42
0 0 42
0 0 42
0 0 42
0 0 42
0 0 42
0 0 42
0 0 42
0 0 42
0 0 42
0 0 42
0 0 42
153 162 178
224 237 255
224 237 255
224 237 255
224 237 255
224 237 255
224 237 255
224 237 255
224 237 255
224 237 255
224 237 255
224 237 255
224 237 255
224 237 255
224 237 255
224 237 255
224 237 255
224 237 255
224 237 255
224 237 255
224 237 255
224 237 255
224 237 255
224 237 255
224 237 255
224 237 255
224 237 255
224 237 255
224 237 255
224 237 255
224 237 255
224 237 255
224 237 255
224 237 255
224 237 255
224 237 255
224 237 255
224 237 255
224 237 255
224 237 255
224 237 255
224 237 255
224 237 255
224 237 255
224 237 255
224 237 255
224 237 255
224 237 255
224 237 255
224 237 255
224 237 255
224 237 255
224 237 255
224 237 255
224 237 255
224 237 255
224 237 255
224 237 255
224 237 255
224 237 255
224 237 255
224 237 255
224 237 255
224 237 255
224 237 255
224 237 255
224 237 255
224 237 255
224 237 255
224 237 255
224 237 255
224 237 255
224 237 255
224 237 255
224 237 255
224 237 255
224 237 255
224 237 255
224 237 255
224 237 255
224 237 255
224 237 255
224 237 255
224 237 255
224 237 255
224 237 255
224 237 255
224 237 255
224 237 255
224 237 255
224 237 255
224 237 255
224 237 255
224 237 255
224 237 255
224 237 255
224 237 255
224 237 255
224 237 255
224 237 255
224 237 255
224 237 255
224 237 255
224 237 255
224 237 255
224 237 255
224 237 255
224 237 255
224 237 255
224 237 255
224 237 255
224 237 255
224 237 255
224 237 255
224 237 255
224 237 255
224 237 255
224 237 255
224 237 255
224 237 255
224 237 255
224 237 255
224 237 255
224 237 255
224 237 255
224 237 255
224 237 255
224 237 255
224 237 255
224 237 255
224 237 255
224 237 255
224 237 255
224 237 255
224 237 255
224 237 255
224 237 255
224 237 255
224 237 255
224 237 255
224 237 255
224 237 255
224 237 255
224 237 255
224 237 255
224 237 255
224 237 255
224 237 255
224 237 255
224 237 255
224 237 255
224 237 255
224 237 255
224 237 255
224 237 255
224 237 255
224 237 255
224 237 255
224 237 255
224 237 255
224 237 255
224 237 255
224 237 255
224 237 255
224 237 255
224 237 255
224 237 255
224 237 255
224 237 255
224 237 255
224 237 255
224 237 255
224 237 255
224 237 255
224 237 255
224 237 255
224 237 255
224 237 255
224 237 255
224 237 255
224 237 255
224 237 255
224 237 255
224 237 255
224 237 255
224 237 255
224 237 255
224 237 255
224 237 255
224 237 255
224 237 255
224 237 255
224 237 255
224 237 255
224 237 255
224 237 255
224 237 255
224 237 255
224 237 255
224 237 255
224 237 255
224 237 255
224 237 255
224 237 255
224 237 255
211 224 241
31 33 55
0 0 42
0 0 42
0 0 42
0 0 42
0 0 42
0 0 42
0 0 42
0 0 42
0 0 42
0 0 42
0 0 42
0 0 42
0 0 42
0 0 42
0 0 42
0 0 42
0 0 42
0 0 42
0 0 42
0 0 42
0 0 42
0 0 42
0 0 42
0 0 42
0 0 42
0 0 42
0 0 42
0 0 42
0 0 42
0 0 42
0 0 42
0 0 42
0 0 42
0 0 42
0 0 42
0 0 42
0 0 42
0 0 42
0 0 42
0 0 42
0 0 42
0 0 42
0 0 42
0 0 42
0 0 42
0 0 42
0 0 42
0 0 42
0 0 42
0 0 42
0 0 42
0 0 42
0 0 42
0 0 42
0 0 42
0 0 42
0 0 42
0 0 42
0 0 42
0 0 42
0 0 42
0 0 42
0 0 42
0 0 42
0 0 42
0 0 42
0 0 42
0 0 42
0 0 42
0 0 42
0 0 42
0 0 42
0 0 42
0 0 42
0 0 42
0 0 42
0 0 42
0 0 42
0 0 42
0 0 42
0 0 42
0 0 42
0 0 42
0 0 42
0 0 42
0 0 42
0 0 42
0 0 42
0 0 42
0 0 42
0 0 42
0 0 42
0 0 42
0 0 42
0 0 42
0 0 42
0 0 42
0 0 42
0 0 42
0 0 42
0 0 42
0 0 42
0 0 42
0 0 42
0 0 42
0 0 42
0 0 42
0 0 42
0 0 42
0 0 42
0 0 42
0 0 42
0 0 42
0 0 42
0 0 42
0 0 42
0 0 42
0 0 42
0 0 42
0 0 41
0 0 42
0 0 42
0 0 42
0 0 45
0 0 46
0 0 47
0 0 48
0 0 49
0 0 49
0 0 52
0 0 57
0 0 57
0 0 53
0 0 56
33 28 70
139 114 100
169 147 132
169 141 123
136 119 95
160 125 101
159 123 95
145 120 88
154 129 89
157 127 92
85 74 44
30 44 3
46 58 19
55 62 25
63 69 32
57 63 29
57 62 27
55 63 22
70 81 37
66 77 31
44 60 16
39 57 13
40 56 11
46 62 19
45 59 18
58 71 27
64 75 26
66 79 26
61 73 23
75 83 39
74 81 38
62 72 30
49 62 18
52 64 17
59 68 28
60 68 25
67 76 31
58 70 26
50 62 20
39 45 29
12 19 47
15 21 54
6 9 48
0 2 47
0 0 39
0 0 42
0 0 42
0 0 42
0 0 42
0 0 42
0 0 42
0 0 42
0 0 42
0 0 42
0 0 42
0 0 42
0 0 42
0 0 42
22 23 49
210 222 240
224 237 255
224 237 255
224 237 255
224 237 255
224 237 255
224 237 255
224 237 255
224 237 255
224 237 255
224 237 255
224 237 255
224 237 255
224 237 255
224 237 255
224 237 255
224 237 255
224 237 255
224 237 255
224 237 255
224 237 255
224 237 255
224 237 255
224 237 255
224 237 255
224 237 255
224 237 255
224 237 255
224 237 255
224 237 255
224 237 255
224 237 255
224 237 255
224 237 255
224 237 255
224 237 255
224 237 255
224 237 255
224 237 255
224 237 255
224 237 255
224 237 255
224 237 255
224 237 255
224 237 255
224 237 255
224 237 255
224 237 255
224 237 255
224 237 255
224 237 255
224 237 255
224 237 255
224 237 255
224 237 255
224 237 255
224 237 255
224 237 255
224 237 255
224 237 255
224 237 255
224 237 255
224 237 255
224 237 255
224 237 255
224 237 255
224 237 255
224 237 255
224 237 255
224 237 255
224 237 255
224 237 255
224 237 255
224 237 255
224 237 255
224 237 255
224 237 255
224 237 255
224 237 255
224 237 255
224 237 255
224 237 255
224 237 255
224 237 255
224 237 255
224 237 255
224 237 255
224 237 255
224 237 255
224 237 255
224 237 255
224 237 255
224 237 255
224 237 255
224 237 255
224 237 255
224 237 255
224 237 255
224 237 255
224 237 255
224 237 255
224 237 255
224 237 255
224 237 255
224 237 255
224 237 255
224 237 255
224 237 255
224 237 255
224 237 255
224 237 255
224 237 255
224 237 255
224 237 255
224 237 255
224 237 255
224 237 255
224 237 255
224 237 255
224 237 255
224 237 255
224 237 255
224 237 255
224 237 255
224 237 255
224 237 255
224 237 255
224 237 255
224 237 255
224 237 255
224 237 255
224 237 255
224 237 255
224 237 255
224 237 255
224 237 255
224 237 255
224 237 255
224 237 255
224 237 255
224 237 255
224 237 255
224 237 255
224 237 255
224 237 255
224 237 255
224 237 255
224 237 255
224 237 255
224 237 255
224 237 255
224 237 255
224 237 255
224 237 255
224 237 255
224 237 255
224 237 255
224 237 255
224 237 255
224 237 255
224 237 255
224 237 255
224 237 255
224 237 255
224 237 255
224 237 255
224 237 255
224 237 255
224 237 255
224 237 255
224 237 255
224 237 255
224 237 255
224 237 255
224 237 255
224 237 255
224 237 255
224 237 255
224 237 255
224 237 255
224 237 255
224 237 255
224 237 255
224 237 255
224 237 255
224 237 255
224 237 255
224 237 255
224 237 255
224 237 255
224 237 255
224 237 255
224 237 255
224 237 255
224 237 255
224 237 255
224 237 255
224 237 255
224 237 255
224 237 255
224 237 255
224 237 255
224 237 255
224 237 255
224 237 255
224 237 255
138 146 161
0 0 42
0 0 42
0 0 42
0 0 42
0 0 42
0 0 42
0 0 42
0 0 42
0 0 42
0 0 42
0 0 42
0 0 42
0 0 42
0 0 42
0 0 42
0 0 42
0 0 42
0 0 42
0 0 42
0 0 42
0 0 42
0 0 42
0 0 42
0 0 42
0 0 42
0 0 42
0 0 42
0 0 42
0 0 42
0 0 42
0 0 42
0 0 42
0 0 42
0 0 42
0 0 42
0 0 42
0 0 42
0 0 42
0 0 42
0 0 42
0 0 42
0 0 42
0 0 42
0 0 42
0 0 42
0 0 42
0 0 42
0 0 42
0 0 42
0 0 42
0 0 42
0 0 42
0 0 42
0 0 42
0 0 42
0 0 42
0 0 42
0 0 42
0 0 42
0 0 42
0 0 42
0 0 42
0 0 42
0 0 42
0 0 42
0 0 42
0 0 42
0 0 42
0 0 42
0 0 42
0 0 42
0 0 42
0 0 42
0 0 42
0 0 42
0 0 42
0 0 42
0 0 42
0 0 42
0 0 42
0 0 42
0 0 42
0 0 42
0 0 42
0 0 42
0 0 42
0 0 42
0 0 42
0 0 42
0 0 42
0 0 42
0 0 42
0 0 42
0 0 42
0 0 42
0 0 42
0 0 42
0 0 42
0 0 42
0 0 42
0 0 42
0 0 42
0 0 42
0 0 42
0 0 42
0 0 42
0 0 42
0 0 42
0 0 42
0 0 42
0 0 42
0 0 42
0 0 42
0 0 42
0 0 42
0 0 42
0 0 42
0 0 42
0 0 42
0 0 41
0 0 42
0 0 43
0 0 44
0 0 45
0 0 43
0 0 45
0 0 46
0 0 48
0 0 48
0 0 54
0 0 59
0 0 54
0 0 56
0 12 80
80 68 80
160 135 115
161 138 112
154 127 112
152 122 105
161 128 101
169 134 106
152 128 93
163 131 93
139 116 79
47 51 19
44 59 19
57 65 29
61 64 30
64 69 31
59 65 27
52 61 19
50 61 18
54 65 23
51 64 21
42 57 17
40 53 10
48 62 21
47 60 16
47 60 16
65 74 30
70 78 29
67 75 25
73 83 34
68 78 33
58 69 25
51 66 24
52 66 25
54 66 20
58 67 23
57 66 23
52 61 26
51 61 33
20 34 41
5 11 51
0 0 48
0 0 44
0 0 47
0 0 42
0 0 40
0 0 43
0 0 42
0 0 42
0 0 42
0 0 42
0 0 42
0 0 42
0 0 42
0 0 42
0 0 42
0 0 42
0 0 42
0 0 42
140 148 163
224 237 255
224 237 255
224 237 255
224 237 255
224 237 255
224 237 255
224 237 255
224 237 255
224 237 255
224 237 255
224 237 255
224 237 255
224 237 255
224 237 255
224 237 255
224 237 255
224 237 255
224 237 255
224 237 255
224 237 255
224 237 255
224 237 255
224 237 255
224 237 255
224 237 255
224 237 255
224 237 255
224 237 255
224 237 255
224 237 255
224 237 255
224 237 255
224 237 255
224 237 255
224 237 255
224 237 255
224 237 255
224 237 255
224 237 255
224 237 255
224 237 255
224 237 255
224 237 255
224 237 255
224 237 255
224 237 255
224 237 255
224 237 255
224 237 255
224 237 255
224 237 255
224 237 255
224 237 255
224 237 255
224 237 255
224 237 255
224 237 255
224 237 255
224 237 255
224 237 255
224 237 255
224 237 255
224 237 255
224 237 255
224 237 255
224 237 255
224 237 255
224 237 255
224 237 255
224 237 255
224 237 255
224 237 255
224 237 255
224 237 255
224 237 255
224 237 255
224 237 255
224 237 255
224 237 255
224 237 255
224 237 255
224 237 255
224 237 255
224 237 255
224 237 255
224 237 255
224 237 255
224 237 255
224 237 255
224 237 255
224 237 255
224 237 255
224 237 255
224 237 255
224 237 255
224 237 255
224 237 255
224 237 255
224 237 255
224 237 255
224 237 255
224 237 255
224 237 255
224 237 255
224 237 255
224 237 255
224 237 255
224 237 255
224 237 255
224 237 255
224 237 255
224 237 255
224 237 255
224 237 255
224 237 255
224 237 255
224 237 255
224 237 255
224 237 255
224 237 255
224 237 255
224 237 255
224 237 255
224 237 255
224 237 255
224 237 255
224 237 255
224 237 255
224 237 255
224 237 255
224 237 255
224 237 255
224 237 255
224 237 255
224 237 255
224 237 255
224 237 255
224 237 255
224 237 255
224 237 255
224 237 255
224 237 255
224 237 255
224 237 255
224 237 255
224 237 255
224 237 255
224 237 255
224 237 255
224 237 255
224 237 255
224 237 255
224 237 255
224 237 255
224 237 255
224 237 255
224 237 255
224 237 255
224 237 255
224 237 255
224 237 255
224 237 255
224 237 255
224 237 255
224 237 255
224 237 255
224 237 255
224 237 255
224 237 255
224 237 255
224 237 255
224 237 255
224 237 255
224 237 255
224 237 255
224 237 255
224 237 255
224 237 255
224 237 255
224 237 255
224 237 255
224 237 255
224 237 255
224 237 255
224 237 255
224 237 255
224 237 255
224 237 255
224 237 255
224 237 255
224 237 255
224 237 255
224 237 255
224 237 255
224 237 255
224 237 255
224 237 255
224 237 255
224 237 255
224 237 255
224 237 255
224 237 255
224 237 255
224 237 255
224 237 255
224 237 255
216 229 247
31 33 55
0 0 42
0 0 42
0 0 42
0 0 42
0 0 42
0 0 42
0 0 42
0 0 42
0 0 42
0 0 42
0 0 42
0 0 42
0 0 42
0 0 42
0 0 42
0 0 42
0 0 42
0 0 42
0 0 42
0 0 42
0 0 42
0 0 42
0 0 42
0 0 42
0 0 42
0 0 42
0 0 42
0 0 42
0 0 42
0 0 42
0 0 42
0 0 42
0 0 42
0 0 42
0 0 42
0 0 42
0 0 42
0 0 42
0 0 42
0 0 42
0 0 42
0 0 42
0 0 42
0 0 42
0 0 42
0 0 42
0 0 42
0 0 42
0 0 42
0 0 42
0 0 42
0 0 42
0 0 42
0 0 42
0 0 42
0 0 42
0 0 42
0 0 42
0 0 42
0 0 42
0 0 42
0 0 42
0 0 42
0 0 42
0 0 42
0 0 42
0 0 42
0 0 42
0 0 42
0 0 42
0 0 42
0 0 42
0 0 42
0 0 42
0 0 42
0 0 42
0 0 42
0 0 42
0 0 42
0 0 42
0 0 42
0 0 42
0 0 42
0 0 42
0 0 42
0 0 42
0 0 42
0 0 42
0 0 42
0 0 42
0 0 42
0 0 42
0 0 42
0 0 42
0 0 42
0 0 42
0 0 42
0 0 42
0 0 42
0 0 42
0 0 42
0 0 42
0 0 42
0 0 42
0 0 42
0 0 42
0 0 42
0 0 42
0 0 42
0 0 42
0 0 42
0 0 42
0 0 42
0 0 42
0 0 42
0 0 42
0 0 42
0 0 42
0 0 42
0 0 42
0 0 44
0 0 45
0 0 45
0 0 44
0 0 45
0 0 46
0 0 48
0 0 48
0 0 50
0 0 59
0 0 52
0 0 70
39 47 91
124 110 103
161 134 109
152 124 98
151 124 104
165 136 117
161 129 106
168 139 112
160 133 100
172 141 106
108 95 63
41 50 13
58 67 30
64 66 31
65 65 32
62 64 28
55 65 23
48 60 17
50 63 21
56 70 31
49 63 21
50 64 21
42 57 9
46 60 17
45 60 13
44 58 11
60 71 26
64 74 28
72 81 33
70 81 34
56 69 23
52 67 22
43 58 16
43 58 18
47 58 14
44 55 12
35 50 6
15 34 43
4 11 57
0 0 57
0 0 46
0 0 45
0 0 43
0 0 43
0 0 40
0 0 41
0 0 42
0 0 42
0 0 42
0 0 42
0 0 42
0 0 42
0 0 42
0 0 42
0 0 42
0 0 42
0 0 42
0 0 42
54 58 74
212 225 243
224 237 255
224 237 255
224 237 255
224 237 255
224 237 255
224 237 255
224 237 255
224 237 255
224 237 255
224 237 255
224 237 255
224 237 255
224 237 255
224 237 255
224 237 255
224 237 255
224 237 255
224 237 255
224 237 255
224 237 255
224 237 255
224 237 255
224 237 255
224 237 255
224 237 255
224 237 255
224 237 255
224 237 255
224 237 255
224 237 255
224 237 255
224 237 255
224 237 255
224 237 255
224 237 255
224 237 255
224 237 255
224 237 255
224 237 255
224 237 255
224 237 255
224 237 255
224 237 255
224 237 255
224 237 255
224 237 255
224 237 255
224 237 255
224 237 255
224 237 255
224 237 255
224 237 255
224 237 255
224 237 255
224 237 255
224 237 255
224 237 255
224 237 255
224 237 255
224 237 255
224 237 255
224 237 255
224 237 255
224 237 255
224 237 255
224 237 255
224 237 255
224 237 255
224 237 255
224 237 255
224 237 255
224 237 255
224 237 255
224 237 255
224 237 255
224 237 255
224 237 255
224 237 255
224 237 255
224 237 255
224 237 255
224 237 255
224 237 255
224 237 255
224 237 255
224 237 255
224 237 255
224 237 255
224 237 255
224 237 255
224 237 255
224 237 255
224 237 255
224 237 255
224 237 255
224 237 255
224 237 255
224 237 255
224 237 255
224 237 255
224 237 255
224 237 255
224 237 255
224 237 255
224 237 255
224 237 255
224 237 255
224 237 255
224 237 255
224 237 255
224 237 255
224 237 255
224 237 255
224 237 255
224 237 255
224 237 255
224 237 255
224 237 255
224 237 255
224 237 255
224 237 255
224 237 255
224 237 255
224 237 255
224 237 255
224 237 255
224 237 255
224 237 255
224 237 255
224 237 255
224 237 255
224 237 255
224 237 255
224 237 255
224 237 255
224 237 255
224 237 255
224 237 255
224 237 255
224 237 255
224 237 255
224 237 255
224 237 255
224 237 255
224 237 255
224 237 255
224 237 255
224 237 255
224 237 255
224 237 255
224 237 255
224 237 255
224 237 255
224 237 255
224 237 255
224 237 255
224 237 255
224 237 255
224 237 255
224 237 255
224 237 255
224 237 255
224 237 255
224 237 255
224 237 255
224 237 255
224 237 255
224 237 255
224 237 255
224 237 255
224 237 255
224 237 255
224 237 255
224 237 255
224 237 255
224 237 255
224 237 255
224 237 255
224 237 255
224 237 255
224 237 255
224 237 255
224 237 255
224 237 255
224 237 255
224 237 255
224 237 255
224 237 255
224 237 255
224 237 255
224 237 255
224 237 255
224 237 255
224 237 255
224 237 255
224 237 255
224 237 255
224 237 255
224 237 255
224 237 255
224 237 255
224 237 255
224 237 255
224 237 255
224 237 255
224 237 255
224 237 255
152 161 176
0 0 42
0 0 42
0 0 42
0 0 42
0 0 42
0 0 42
0 0 42
0 0 42
0 0 42
0 0 42
0 0 42
0 0 42
0 0 42
0 0 42
0 0 42
0 0 42
0 0 42
0 0 42
0 0 42
0 0 42
0 0 42
0 0 42
0 0 42
0 0 42
0 0 42
0 0 42
0 0 42
0 0 42
0 0 42
0 0 42
0 0 42
0 0 42
0 0 42
0 0 42
0 0 42
0 0 42
0 0 42
0 0 42
0 0 42
0 0 42
0 0 42
0 0 42
0 0 42
0 0 42
0 0 42
0 0 42
0 0 42
0 0 42
0 0 42
0 0 42
0 0 42
0 0 42
0 0 42
0 0 42
0 0 42
0 0 42
0 0 42
0 0 42
0 0 42
0 0 42
0 0 42
0 0 42
0 0 42
0 0 42
0 0 42
0 0 42
0 0 42
0 0 42
0 0 42
0 0 42
0 0 42
0 0 42
0 0 42
0 0 42
0 0 42
0 0 42
0 0 42
0 0 42
0 0 42
0 0 42
0 0 42
0 0 42
0 0 42
0 0 42
0 0 42
0 0 42
0 0 42
0 0 42
0 0 42
0 0 42
0 0 42
0 0 42
0 0 42
0 0 42
0 0 42
0 0 42
0 0 42
0 0 42
0 0 42
0 0 42
0 0 42
0 0 42
0 0 42
0 0 42
0 0 42
0 0 42
0 0 42
0 0 42
0 0 42
0 0 42
0 0 42
0 0 42
0 0 42
0 0 42
0 0 42
0 0 42
0 0 42
0 0 42
0 0 42
0 0 42
0 0 44
0 0 45
0 0 45
0 0 45
0 0 45
0 0 48
0 0 48
0 0 50
0 0 53
0 0 53
0 0 56
0 0 51
43 44 75
149 126 107
170 137 109
155 123 98
162 134 105
155 127 106
157 126 105
160 131 103
159 129 98
138 115 85
50 50 15
41 52 14
50 58 21
63 68 34
63 69 34
54 62 27
44 58 16
43 56 13
43 56 13
49 64 25
42 59 14
40 58 12
43 62 16
45 63 17
43 61 13
40 58 9
48 63 19
54 68 23
57 70 25
54 67 22
51 65 18
50 64 19
39 53 9
45 57 19
29 45 0
27 46 8
15 37 51
3 11 54
0 0 48
0 0 44
0 0 45
0 0 40
0 0 40
0 0 40
0 0 42
0 0 41
0 0 42
0 0 42
0 0 42
0 0 42
0 0 42
0 0 42
0 0 42
0 0 42
0 0 42
0 0 42
0 0 42
0 0 42
145 154 169
224 237 255
224 237 255
224 237 255
224 237 255
224 237 255
224 237 255
224 237 255
224 237 255
224 237 255
224 237 255
224 237 255
224 237 255
224 237 255
224 237 255
224 237 255
224 237 255
224 237 255
224 237 255
224 237 255
224 237 255
224 237 255
224 237 255
224 237 255
224 237 255
224 237 255
224 237 255
224 237 255
224 237 255
224 237 255
224 237 255
224 237 255
224 237 255
224 237 255
224 237 255
224 237 255
224 237 255
224 237 255
224 237 255
224 237 255
224 237 255
224 237 255
224 237 255
224 237 255
224 237 255
224 237 255
224 237 255
224 237 255
224 237 255
224 237 255
224 237 255
224 237 255
224 237 255
224 237 255
224 237 255
224 237 255
224 237 255
224 237 255
224 237 255
224 237 255
224 237 255
224 237 255
224 237 255
224 237 255
224 237 255
224 237 255
224 237 255
224 237 255
224 237 255
224 237 255
224 237 255
224 237 255
224 237 255
224 237 255
224 237 255
224 237 255
224 237 255
224 237 255
224 237 255
224 237 255
224 237 255
224 237 255
224 237 255
224 237 255
224 237 255
224 237 255
224 237 255
224 237 255
224 237 255
224 237 255
224 237 255
224 237 255
224 237 255
224 237 255
224 237 255
224 237 255
224 237 255
224 237 255
224 237 255
224 237 255
224 237 255
224 237 255
224 237 255
224 237 255
224 237 255
224 237 255
224 237 255
224 237 255
224 237 255
224 237 255
224 237 255
224 237 255
224 237 255
224 237 255
224 237 255
224 237 255
224 237 255
224 237 255
224 237 255
224 237 255
224 237 255
224 237 255
224 237 255
224 237 255
224 237 255
224 237 255
224 237 255
224 237 255
224 237 255
224 237 255
224 237 255
224 237 255
224 237 255
224 237 255
224 237 255
224 237 255
224 237 255
224 237 255
224 237 255
224 237 255
224 237 255
224 237 255
224 237 255
224 237 255
224 237 255
224 237 255
224 237 255
224 237 255
224 237 255
224 237 255
224 237 255
224 237 255
224 237 255
224 237 255
224 237 255
224 237 255
224 237 255
224 237 255
224 237 255
224 237 255
224 237 255
224 237 255
224 237 255
224 237 255
224 237 255
224 237 255
224 237 255
224 237 255
224 237 255
224 237 255
224 237 255
224 237 255
224 237 255
224 237 255
224 237 255
224 237 255
224 237 255
224 237 255
224 237 255
224 237 255
224 237 255
224 237 255
224 237 255
224 237 255
224 237 255
224 237 255
224 237 255
224 237 255
224 237 255
224 237 255
224 237 255
224 237 255
224 237 255
224 237 255
224 237 255
224 237 255
224 237 255
224 237 255
224 237 255
224 237 255
224 237 255
224 237 255
224 237 255
224 237 255
224 237 255
224 237 255
224 237 255
224 237 255
224 237 255
213 225 243
71 75 90
0 0 42
0 0 42
0 0 42
0 0 42
0 0 42
0 0 42
0 0 42
0 0 42
0 0 42
0 0 42
0 0 42
0 0 42
0 0 42
0 0 42
0 0 42
0 0 42
0 0 42
0 0 42
0 0 42
0 0 42
0 0 42
0 0 42
0 0 42
0 0 42
0 0 42
0 0 42
0 0 42
0 0 42
0 0 42
0 0 42
0 0 42
0 0 42
0 0 42
0 0 42
0 0 42
0 0 42
0 0 42
0 0 42
0 0 42
0 0 42
0 0 42
0 0 42
0 0 42
0 0 42
0 0 42
0 0 42
0 0 42
0 0 42
0 0 42
0 0 42
0 0 42
0 0 42
0 0 42
0 0 42
0 0 42
0 0 42
0 0 42
0 0 42
0 0 42
0 0 42
0 0 42
0 0 42
0 0 42
0 0 42
0 0 42
0 0 42
0 0 42
0 0 42
0 0 42
0 0 42
0 0 42
0 0 42
0 0 42
0 0 42
0 0 42
0 0 42
0 0 42
0 0 42
0 0 42
0 0 42
0 0 42
0 0 42
0 0 42
0 0 42
0 0 42
0 0 42
0 0 42
0 0 42
0 0 42
0 0 42
0 0 42
0 0 42
0 0 42
0 0 42
0 0 42
0 0 42
0 0 42
0 0 42
0 0 42
0 0 42
0 0 42
0 0 42
0 0 42
0 0 42
0 0 42
0 0 42
0 0 42
0 0 42
0 0 42
0 0 42
0 0 42
0 0 42
0 0 42
0 0 42
0 0 42
0 0 42
0 0 42
0 0 42
0 0 42
0 0 45
0 0 45
0 0 45
0 0 45
0 0 46
0 0 48
0 0 50
0 0 51
0 0 51
0 0 57
0 0 56
0 0 57
53 50 71
173 142 113
177 145 117
163 130 103
148 119 95
150 124 106
164 132 113
158 131 104
133 107 77
92 81 53
49 58 23
40 52 16
51 62 23
49 57 15
49 60 20
49 59 21
47 59 19
43 56 15
38 53 10
38 54 9
40 58 14
40 58 12
43 61 16
44 63 16
43 60 12
43 59 12
47 62 21
49 64 20
51 65 22
48 62 18
47 61 15
43 55 8
48 59 20
39 52 12
22 45 19
15 34 47
0 0 50
0 0 49
0 0 44
0 0 45
0 0 42
0 0 43
0 0 42
0 0 42
0 0 42
0 0 42
0 0 42
0 0 42
0 0 42
0 0 42
0 0 42
0 0 42
0 0 42
0 0 42
0 0 42
0 0 42
0 0 42
38 41 60
220 232 250
224 237 255
224 237 255
224 237 255
224 237 255
224 237 255
224 237 255
224 237 255
224 237 255
224 237 255
224 237 255
224 237 255
224 237 255
224 237 255
224 237 255
224 237 255
224 237 255
224 237 255
224 237 255
224 237 255
224 237 255
224 237 255
224 237 255
224 237 255
224 237 255
224 237 255
224 237 255
224 237 255
224 237 255
224 237 255
224 237 255
224 237 255
224 237 255
224 237 255
224 237 255
224 237 255
224 237 255
224 237 255
224 237 255
224 237 255
224 237 255
224 237 255
224 237 255
224 237 255
224 237 255
224 237 255
224 237 255
224 237 255
224 237 255
224 237 255
224 237 255
224 237 255
224 237 255
224 237 255
224 237 255
224 237 255
224 237 255
224 237 255
224 237 255
224 237 255
224 237 255
224 237 255
224 237 255
224 237 255
224 237 255
224 237 255
224 237 255
224 237 255
224 237 255
224 237 255
224 237 255
224 237 255
224 237 255
224 237 255
224 237 255
224 237 255
224 237 255
224 237 255
224 237 255
224 237 255
224 237 255
224 237 255
224 237 255
224 237 255
224 237 255
224 237 255
224 237 255
224 237 255
224 237 255
224 237 255
224 237 255
224 237 255
224 237 255
224 237 255
224 237 255
224 237 255
224 237 255
224 237 255
224 237 255
224 237 255
224 237 255
224 237 255
224 237 255
224 237 255
224 237 255
224 237 255
224 237 255
224 237 255
224 237 255
224 237 255
224 237 255
224 237 255
224 237 255
224 237 255
224 237 255
224 237 255
224 237 255
224 237 255
224 237 255
224 237 255
224 237 255
224 237 255
224 237 255
224 237 255
224 237 255
224 237 255
224 237 255
224 237 255
224 237 255
224 237 255
224 237 255
224 237 255
224 237 255
224 237 255
224 237 255
224 237 255
224 237 255
224 237 255
224 237 255
224 237 255
224 237 255
224 237 255
224 237 255
224 237 255
224 237 255
224 237 255
224 237 255
224 237 255
224 237 255
224 237 255
224 237 255
224 237 255
224 237 255
224 237 255
224 237 255
224 237 255
224 237 255
224 237 255
224 237 255
224 237 255
224 237 255
224 237 255
224 237 255
224 237 255
224 237 255
224 237 255
224 237 255
224 237 255
224 237 255
224 237 255
224 237 255
224 237 255
224 237 255
224 237 255
224 237 255
224 237 255
224 237 255
224 237 255
224 237 255
224 237 255
224 237 255
224 237 255
224 237 255
224 237 255
224 237 255
224 237 255
224 237 255
224 237 255
224 237 255
224 237 255
224 237 255
224 237 255
224 237 255
224 237 255
224 237 255
224 237 255
224 237 255
224 237 255
224 237 255
224 237 255
224 237 255
224 237 255
224 237 255
224 237 255
224 237 255
224 237 255
224 237 255
224 237 255
224 237 255
224 237 255
160 169 185
0 0 42
0 0 42
0 0 42
0 0 42
0 0 42
0 0 42
0 0 42
0 0 42
0 0 42
0 0 42
0 0 42
0 0 42
0 0 42
0 0 42
0 0 42
0 0 42
0 0 42
0 0 42
0 0 42
0 0 42
0 0 42
0 0 42
0 0 42
0 0 42
0 0 42
0 0 42
0 0 42
0 0 42
0 0 42
0 0 42
0 0 42
0 0 42
0 0 42
0 0 42
0 0 42
0 0 42
0 0 42
0 0 42
0 0 42
0 0 42
0 0 42
0 0 42
0 0 42
0 0 42
0 0 42
0 0 42
0 0 42
0 0 42
0 0 42
0 0 42
0 0 42
0 0 42
0 0 42
0 0 42
0 0 42
0 0 42
0 0 42
0 0 42
0 0 42
0 0 42
0 0 42
0 0 42
0 0 42
0 0 42
0 0 42
0 0 42
0 0 42
0 0 42
0 0 42
0 0 42
0 0 42
0 0 42
0 0 42
0 0 42
0 0 42
0 0 42
0 0 42
0 0 42
0 0 42
0 0 42
0 0 42
0 0 42
0 0 42
0 0 42
0 0 42
0 0 42
0 0 42
0 0 42
0 0 42
0 0 42
0 0 42
0 0 42
0 0 42
0 0 42
0 0 42
0 0 42
0 0 42
0 0 42
0 0 42
0 0 42
0 0 42
0 0 42
0 0 42
0 0 42
0 0 42
0 0 42
0 0 42
0 0 42
0 0 42
0 0 42
0 0 42
0 0 42
0 0 42
0 0 42
0 0 42
0 0 42
0 0 42
0 0 42
0 0 42
0 0 45
0 0 45
0 0 45
0 0 44
0 0 46
0 0 50
0 0 51
0 0 51
0 0 54
0 0 60
0 0 59
0 0 71
70 64 79
152 121 97
165 133 100
155 122 96
138 107 89
157 131 109
166 131 108
153 127 98
105 91 63
62 61 35
43 52 16
59 68 30
55 64 25
49 58 16
49 58 16
46 54 17
49 59 19
43 56 14
40 56 14
36 53 9
40 56 14
48 62 19
52 65 22
49 61 16
50 63 19
45 58 16
46 60 18
43 58 15
48 62 20
47 60 19
46 59 18
39 50 10
46 54 17
39 52 16
15 43 45
1 9 58
0 0 48
0 0 45
0 0 45
0 0 44
0 0 42
0 0 42
0 0 42
0 0 42
0 0 42
0 0 42
0 0 42
0 0 42
0 0 42
0 0 42
0 0 42
0 0 42
0 0 42
0 0 42
0 0 42
0 0 42
0 0 42
165 174 190
224 237 255
224 237 255
224 237 255
224 237 255
224 237 255
224 237 255
224 237 255
224 237 255
224 237 255
224 237 255
224 237 255
224 237 255
224 237 255
224 237 255
224 237 255
224 237 255
224 237 255
224 237 255
224 237 255
224 237 255
224 237 255
224 237 255
224 237 255
224 237 255
224 237 255
224 237 255
224 237 255
224 237 255
224 237 255
224 237 255
224 237 255
224 237 255
224 237 255
224 237 255
224 237 255
224 237 255
224 237 255
224 237 255
224 237 255
224 237 255
224 237 255
224 237 255
224 237 255
224 237 255
224 237 255
224 237 255
224 237 255
224 237 255
224 237 255
224 237 255
224 237 255
224 237 255
224 237 255
224 237 255
224 237 255
224 237 255
224 237 255
224 237 255
224 237 255
224 237 255
224 237 255
224 237 255
224 237 255
224 237 255
224 237 255
224 237 255
224 237 255
224 237 255
224 237 255
224 237 255
224 237 255
224 237 255
224 237 255
224 237 255
224 237 255
224 237 255
224 237 255
224 237 255
224 237 255
224 237 255
224 237 255
224 237 255
224 237 255
224 237 255
224 237 255
224 237 255
224 237 255
224 237 255
224 237 255
224 237 255
224 237 255
224 237 255
224 237 255
224 237 255
224 237 255
224 237 255
224 237 255
224 237 255
224 237 255
224 237 255
224 237 255
224 237 255
224 237 255
224 237 255
224 237 255
224 237 255
224 237 255
224 237 255
224 237 255
224 237 255
224 237 255
224 237 255
224 237 255
224 237 255
224 237 255
224 237 255
224 237 255
224 237 255
224 237 255
224 237 255
224 237 255
224 237 255
224 237 255
224 237 255
224 237 255
224 237 255
224 237 255
224 237 255
224 237 255
224 237 255
224 237 255
224 237 255
224 237 255
224 237 255
224 237 255
224 237 255
224 237 255
224 237 255
224 237 255
224 237 255
224 237 255
224 237 255
224 237 255
224 237 255
224 237 255
224 237 255
224 237 255
224 237 255
224 237 255
224 237 255
224 237 255
224 237 255
224 237 255
224 237 255
224 237 255
224 237 255
224 237 255
224 237 255
224 237 255
224 237 255
224 237 255
224 237 255
224 237 255
224 237 255
224 237 255
224 237 255
224 237 255
224 237 255
224 237 255
224 237 255
224 237 255
224 237 255
224 237 255
224 237 255
224 237 255
224 237 255
224 237 255
224 237 255
224 237 255
224 237 255
224 237 255
224 237 255
224 237 255
224 237 255
224 237 255
224 237 255
224 237 255
224 237 255
224 237 255
224 237 255
224 237 255
224 237 255
224 237 255
224 237 255
224 237 255
224 237 255
224 237 255
224 237 255
224 237 255
224 237 255
224 237 255
224 237 255
224 237 255
224 237 255
224 237 255
224 237 255
224 237 255
224 237 255
224 237 255
224 237 255
215 228 245
77 82 97
0 0 42
0 0 42
0 0 42
0 0 42
0 0 42
0 0 42
0 0 42
0 0 42
0 0 42
0 0 42
0 0 42
0 0 42
0 0 42
0 0 42
0 0 42
0 0 42
0 0 42
0 0 42
0 0 42
0 0 42
0 0 42
0 0 42
0 0 42
0 0 42
0 0 42
0 0 42
0 0 42
0 0 42
0 0 42
0 0 42
0 0 42
0 0 42
0 0 42
0 0 42
0 0 42
0 0 42
0 0 42
0 0 42
0 0 42
0 0 42
0 0 42
0 0 42
0 0 42
0 0 42
0 0 42
0 0 42
0 0 42
0 0 42
0 0 42
0 0 42
0 0 42
0 0 42
0 0 42
0 0 42
0 0 42
0 0 42
0 0 42
0 0 42
0 0 42
0 0 42
0 0 42
0 0 42
0 0 42
0 0 42
0 0 42
0 0 42
0 0 42
0 0 42
0 0 42
0 0 42
0 0 42
0 0 42
0 0 42
0 0 42
0 0 42
0 0 42
0 0 42
0 0 42
0 0 42
0 0 42
0 0 42
0 0 42
0 0 42
0 0 42
0 0 42
0 0 42
0 0 42
0 0 42
0 0 42
0 0 42
0 0 42
0 0 42
0 0 42
0 0 42
0 0 42
0 0 42
0 0 42
0 0 42
0 0 42
0 0 42
0 0 42
0 0 42
0 0 42
0 0 42
0 0 42
0 0 42
0 0 42
0 0 42
0 0 42
0 0 42
0 0 42
0 0 42
0 0 42
0 0 42
0 0 42
0 0 42
0 0 42
0 0 43
0 0 45
0 0 45
0 0 45
0 0 43
0 0 47
0 0 51
0 0 53
0 0 55
0 0 59
0 0 61
0 0 61
0 0 59
94 70 74
143 109 83
155 120 87
144 118 90
132 107 87
138 114 92
164 137 113
135 112 80
103 87 61
53 55 24
54 63 27
56 64 24
53 63 23
49 59 17
48 56 16
42 53 13
51 59 23
51 61 24
40 55 14
45 60 20
43 56 17
47 60 18
52 62 22
50 60 17
47 61 17
50 64 22
33 48 8
45 60 17
53 65 27
45 56 14
34 44 5
42 51 14
38 47 14
31 47 25
7 18 62
0 0 50
0 0 45
0 0 45
0 0 45
0 0 45
0 0 45
0 0 43
0 0 42
0 0 42
0 0 42
0 0 42
0 0 42
0 0 42
0 0 42
0 0 42
0 0 42
0 0 42
0 0 42
0 0 42
0 0 42
0 0 42
67 71 86
223 236 254
224 237 255
224 237 255
224 237 255
224 237 255
224 237 255
224 237 255
224 237 255
224 237 255
224 237 255
224 237 255
224 237 255
224 237 255
224 237 255
224 237 255
224 237 255
224 237 255
224 237 255
224 237 255
224 237 255
224 237 255
224 237 255
224 237 255
224 237 255
224 237 255
224 237 255
224 237 255
224 237 255
224 237 255
224 237 255
224 237 255
224 237 255
224 237 255
224 237 255
224 237 255
224 237 255
224 237 255
224 237 255
224 237 255
224 237 255
224 237 255
224 237 255
224 237 255
224 237 255
224 237 255
224 237 255
224 237 255
224 237 255
224 237 255
224 237 255
224 237 255
224 237 255
224 237 255
224 237 255
224 237 255
224 237 255
224 237 255
224 237 255
224 237 255
224 237 255
224 237 255
224 237 255
224 237 255
224 237 255
224 237 255
224 237 255
224 237 255
224 237 255
224 237 255
224 237 255
224 237 255
224 237 255
224 237 255
224 237 255
224 237 255
224 237 255
224 237 255
224 237 255
224 237 255
224 237 255
224 237 255
224 237 255
224 237 255
224 237 255
224 237 255
224 237 255
224 237 255
224 237 255
224 237 255
224 237 255
224 237 255
224 237 255
224 237 255
224 237 255
224 237 255
224 237 255
224 237 255
224 237 255
224 237 255
224 237 255
224 237 255
224 237 255
224 237 255
224 237 255
224 237 255
224 237 255
224 237 255
224 237 255
224 237 255
224 237 255
224 237 255
224 237 255
224 237 255
224 237 255
224 237 255
224 237 255
224 237 255
224 237 255
224 237 255
224 237 255
224 237 255
224 237 255
224 237 255
224 237 255
224 237 255
224 237 255
224 237 255
224 237 255
224 237 255
224 237 255
224 237 255
224 237 255
224 237 255
224 237 255
224 237 255
224 237 255
224 237 255
224 237 255
224 237 255
224 237 255
224 237 255
224 237 255
224 237 255
224 237 255
224 237 255
224 237 255
224 237 255
224 237 255
224 237 255
224 237 255
224 237 255
224 237 255
224 237 255
224 237 255
224 237 255
224 237 255
224 237 255
224 237 255
224 237 255
224 237 255
224 237 255
224 237 255
224 237 255
224 237 255
224 237 255
224 237 255
224 237 255
224 237 255
224 237 255
224 237 255
224 237 255
224 237 255
224 237 255
224 237 255
224 237 255
224 237 255
224 237 255
224 237 255
224 237 255
224 237 255
224 237 255
224 237 255
224 237 255
224 237 255
224 237 255
224 237 255
224 237 255
224 237 255
224 237 255
224 237 255
224 237 255
224 237 255
224 237 255
224 237 255
224 237 255
224 237 255
224 237 255
224 237 255
224 237 255
224 237 255
224 237 255
224 237 255
224 237 255
224 237 255
224 237 255
224 237 255
224 237 255
224 237 255
224 237 255
224 237 255
224 237 255
224 237 255
171 181 196
0 0 42
0 0 42
0 0 42
0 0 42
0 0 42
0 0 42
0 0 42
0 0 42
0 0 42
0 0 42
0 0 42
0 0 42
0 0 42
0 0 42
0 0 42
0 0 42
0 0 42
0 0 42
0 0 42
0 0 42
0 0 42
0 0 42
0 0 42
0 0 42
0 0 42
0 0 42
0 0 42
0 0 42
0 0 42
0 0 42
0 0 42
0 0 42
0 0 42
0 0 42
0 0 42
0 0 42
0 0 42
0 0 42
0 0 42
0 0 42
0 0 42
0 0 42
0 0 42
0 0 42
0 0 42
0 0 42
0 0 42
0 0 42
0 0 42
0 0 42
0 0 42
0 0 42
0 0 42
0 0 42
0 0 42
0 0 42
0 0 42
0 0 42
0 0 42
0 0 42
0 0 42
0 0 42
0 0 42
0 0 42
0 0 42
0 0 42
0 0 42
0 0 42
0 0 42
0 0 42
0 0 42
0 0 42
0 0 42
0 0 42
0 0 42
0 0 42
0 0 42
0 0 42
0 0 42
0 0 42
0 0 42
0 0 42
0 0 42
0 0 42
0 0 42
0 0 42
0 0 42
0 0 42
0 0 42
0 0 42
0 0 42
0 0 42
0 0 42
0 0 42
0 0 42
0 0 42
0 0 42
0 0 42
0 0 42
0 0 42
0 0 42
0 0 42
0 0 42
0 0 42
0 0 42
0 0 42
0 0 42
0 0 42
0 0 42
0 0 42
0 0 42
0 0 42
0 0 42
0 0 42
0 0 42
0 0 42
0 0 42
0 0 44
0 0 45
0 0 46
0 0 46
0 0 47
0 0 47
0 0 51
0 0 53
0 0 53
0 0 55
0 0 55
0 0 63
36 33 71
127 100 83
128 100 69
139 106 77
126 105 81
139 113 97
142 116 95
160 130 105
133 109 79
96 82 55
54 56 22
55 64 27
54 64 26
50 60 19
51 61 21
51 60 23
46 56 19
50 56 21
52 62 26
54 65 26
57 70 30
49 62 22
48 59 19
54 64 25
48 60 18
47 60 18
42 55 14
31 46 6
51 62 23
53 62 24
43 52 16
37 46 2
35 47 5
27 44 2
23 43 46
0 3 56
0 0 47
0 0 45
0 0 44
0 0 44
0 0 45
0 0 44
0 0 42
0 0 42
0 0 42
0 0 42
0 0 42
0 0 42
0 0 42
0 0 42
0 0 42
0 0 42
0 0 42
0 0 42
0 0 42
0 0 42
0 0 42
172 182 198
224 237 255
224 237 255
224 237 255
224 237 255
224 237 255
224 237 255
224 237 255
224 237 255
224 237 255
224 237 255
224 237 255
224 237 255
224 237 255
224 237 255
224 237 255
224 237 255
224 237 255
224 237 255
224 237 255
224 237 255
224 237 255
224 237 255
224 237 255
224 237 255
224 237 255
224 237 255
224 237 255
224 237 255
224 237 255
224 237 255
224 237 255
224 237 255
224 237 255
224 237 255
224 237 255
224 237 255
224 237 255
224 237 255
224 237 255
224 237 255
224 237 255
224 237 255
224 237 255
224 237 255
224 237 255
224 237 255
224 237 255
224 237 255
224 237 255
224 237 255
224 237 255
224 237 255
224 237 255
224 237 255
224 237 255
224 237 255
224 237 255
224 237 255
224 237 255
224 237 255
224 237 255
224 237 255
224 237 255
224 237 255
224 237 255
224 237 255
224 237 255
224 237 255
224 237 255
224 237 255
224 237 255
224 237 255
224 237 255
224 237 255
224 237 255
224 237 255
224 237 255
224 237 255
224 237 255
224 237 255
224 237 255
224 237 255
224 237 255
224 237 255
224 237 255
224 237 255
224 237 255
224 237 255
224 237 255
224 237 255
224 237 255
224 237 255
224 237 255
224 237 255
224 237 255
224 237 255
224 237 255
224 237 255
224 237 255
224 237 255
224 237 255
224 237 255
224 237 255
224 237 255
224 237 255
224 237 255
224 237 255
224 237 255
224 237 255
224 237 255
224 237 255
224 237 255
224 237 255
224 237 255
224 237 255
224 237 255
224 237 255
224 237 255
224 237 255
224 237 255
224 237 255
224 237 255
224 237 255
224 237 255
224 237 255
224 237 255
224 237 255
224 237 255
224 237 255
224 237 255
224 237 255
224 237 255
224 237 255
224 237 255
224 237 255
224 237 255
224 237 255
224 237 255
224 237 255
224 237 255
224 237 255
224 237 255
224 237 255
224 237 255
224 237 255
224 237 255
224 237 255
224 237 255
224 237 255
224 237 255
224 237 255
224 237 255
224 237 255
224 237 255
224 237 255
224 237 255
224 237 255
224 237 255
224 237 255
224 237 255
224 237 255
224 237 255
224 237 255
224 237 255
224 237 255
224 237 255
224 237 255
224 237 255
224 237 255
224 237 255
224 237 255
224 237 255
224 237 255
224 237 255
224 237 255
224 237 255
224 237 255
224 237 255
224 237 255
224 237 255
224 237 255
224 237 255
224 237 255
224 237 255
224 237 255
224 237 255
224 237 255
224 237 255
224 237 255
224 237 255
224 237 255
224 237 255
224 237 255
224 237 255
224 237 255
224 237 255
224 237 255
224 237 255
224 237 255
224 237 255
224 237 255
224 237 255
224 237 255
224 237 255
224 237 255
224 237 255
224 237 255
224 237 255
224 237 255
224 237 255
224 237 255
224 237 255
224 237 255
103 108 123
0 0 42
0 0 42
0 0 42
0 0 42
0 0 42
0 0 42
0 0 42
0 0 42
0 0 42
0 0 42
0 0 42
0 0 42
0 0 42
0 0 42
0 0 42
0 0 42
0 0 42
0 0 42
0 0 42
0 0 42
0 0 42
0 0 42
0 0 42
0 0 42
0 0 42
0 0 42
0 0 42
0 0 42
0 0 42
0 0 42
0 0 42
0 0 42
0 0 42
0 0 42
0 0 42
0 0 42
0 0 42
0 0 42
0 0 42
0 0 42
0 0 42
0 0 42
0 0 42
0 0 42
0 0 42
0 0 42
0 0 42
0 0 42
0 0 42
0 0 42
0 0 42
0 0 42
0 0 42
0 0 42
0 0 42
0 0 42
0 0 40
0 0 42
0 0 42
0 0 42
0 0 42
0 0 42
0 0 42
0 0 42
0 0 42
0 0 42
0 0 42
0 0 42
0 0 42
0 0 42
0 0 42
0 0 42
0 0 42
0 0 42
0 0 42
0 0 42
0 0 42
0 0 42
0 0 42
0 0 42
0 0 42
0 0 42
0 0 42
0 0 42
0 0 42
0 0 42
0 0 42
0 0 42
0 0 42
0 0 42
0 0 42
0 0 42
0 0 42
0 0 42
0 0 42
0 0 42
0 0 42
0 0 42
0 0 42
0 0 42
0 0 42
0 0 42
0 0 42
0 0 42
0 0 42
0 0 42
0 0 42
0 0 42
0 0 42
0 0 42
0 0 42
0 0 42
0 0 42
0 0 42
0 0 41
0 0 42
0 0 45
0 0 47
0 0 48
0 0 48
0 0 48
0 0 50
0 0 50
0 0 50
0 0 52
0 0 52
0 0 59
0 0 67
62 54 63
136 110 80
136 113 83
155 128 108
136 118 100
150 126 110
162 140 121
160 131 104
124 108 76
81 76 45
57 66 28
63 71 32
50 59 21
49 60 20
50 60 19
54 64 28
58 64 31
62 70 35
55 66 28
51 60 21
50 61 23
48 58 19
46 55 19
52 62 26
50 64 22
42 55 12
37 51 8
38 52 10
48 59 20
48 57 18
45 53 16
41 50 11
37 51 10
31 51 17
17 38 58
0 0 50
0 0 43
0 0 45
0 0 43
0 0 43
0 0 45
0 0 43
0 0 42
0 0 42
0 0 42
0 0 42
0 0 42
0 0 42
0 0 42
0 0 42
0 0 42
0 0 42
0 0 42
0 0 42
0 0 42
0 0 42
105 111 125
224 237 255
224 237 255
224 237 255
224 237 255
224 237 255
224 237 255
224 237 255
224 237 255
224 237 255
224 237 255
224 237 255
224 237 255
224 237 255
224 237 255
224 237 255
224 237 255
224 237 255
224 237 255
224 237 255
224 237 255
224 237 255
224 237 255
224 237 255
224 237 255
224 237 255
224 237 255
224 237 255
224 237 255
224 237 255
224 237 255
224 237 255
224 237 255
224 237 255
224 237 255
224 237 255
224 237 255
224 237 255
224 237 255
224 237 255
224 237 255
224 237 255
224 237 255
224 237 255
224 237 255
224 237 255
224 237 255
224 237 255
224 237 255
224 237 255
224 237 255
224 237 255
224 237 255
224 237 255
224 237 255
224 237 255
224 237 255
224 237 255
224 237 255
224 237 255
224 237 255
224 237 255
224 237 255
224 237 255
224 237 255
224 237 255
224 237 255
224 237 255
224 237 255
224 237 255
224 237 255
224 237 255
224 237 255
224 237 255
224 237 255
224 237 255
224 237 255
224 237 255
224 237 255
224 237 255
224 237 255
224 237 255
224 237 255
224 237 255
224 237 255
224 237 255
224 237 255
224 237 255
224 237 255
224 237 255
224 237 255
224 237 255
224 237 255
224 237 255
224 237 255
224 237 255
224 237 255
224 237 255
224 237 255
224 237 255
224 237 255
224 237 255
224 237 255
224 237 255
224 237 255
224 237 255
224 237 255
224 237 255
224 237 255
224 237 255
224 237 255
224 237 255
224 237 255
224 237 255
224 237 255
224 237 255
224 237 255
224 237 255
224 237 255
224 237 255
224 237 255
224 237 255
224 237 255
224 237 255
224 237 255
224 237 255
224 237 255
224 237 255
224 237 255
224 237 255
224 237 255
224 237 255
224 237 255
224 237 255
224 237 255
224 237 255
224 237 255
224 237 255
224 237 255
224 237 255
224 237 255
224 237 255
224 237 255
224 237 255
224 237 255
224 237 255
224 237 255
224 237 255
224 237 255
224 237 255
224 237 255
224 237 255
224 237 255
224 237 255
224 237 255
224 237 255
224 237 255
224 237 255
224 237 255
224 237 255
224 237 255
224 237 255
224 237 255
224 237 255
224 237 255
224 237 255
224 237 255
224 237 255
224 237 255
224 237 255
224 237 255
224 237 255
224 237 255
224 237 255
224 237 255
224 237 255
224 237 255
224 237 255
224 237 255
224 237 255
224 237 255
224 237 255
224 237 255
224 237 255
224 237 255
224 237 255
224 237 255
224 237 255
224 237 255
224 237 255
224 237 255
224 237 255
224 237 255
224 237 255
224 237 255
224 237 255
224 237 255
224 237 255
224 237 255
224 237 255
224 237 255
224 237 255
224 237 255
224 237 255
224 237 255
224 237 255
224 237 255
224 237 255
224 237 255
224 237 255
224 237 255
224 237 255
224 237 255
224 237 255
224 237 255
197 208 225
38 41 60
0 0 42
0 0 42
0 0 42
0 0 42
0 0 42
0 0 42
0 0 42
0 0 42
0 0 42
0 0 42
0 0 42
0 0 42
0 0 42
0 0 42
0 0 42
0 0 42
0 0 42
0 0 42
0 0 42
0 0 42
0 0 42
0 0 42
0 0 42
0 0 42
0 0 42
0 0 42
0 0 42
0 0 42
0 0 42
0 0 42
0 0 42
0 0 42
0 0 42
0 0 42
0 0 42
0 0 42
0 0 42
0 0 42
0 0 42
0 0 42
0 0 42
0 0 42
0 0 42
0 0 42
0 0 42
0 0 42
0 0 42
0 0 42
0 0 42
0 0 42
0 0 42
0 0 42
0 0 42
0 0 42
0 0 42
0 0 42
0 0 42
0 0 40
0 0 40
0 0 42
0 0 42
0 0 42
0 0 42
0 0 42
0 0 42
0 0 42
0 0 42
0 0 42
0 0 42
0 0 42
0 0 42
0 0 42
0 0 42
0 0 42
0 0 42
0 0 42
0 0 42
0 0 42
0 0 42
0 0 42
0 0 42
0 0 42
0 0 42
0 0 42
0 0 42
0 0 42
0 0 42
0 0 42
0 0 42
0 0 42
0 0 42
0 0 42
0 0 42
0 0 42
0 0 42
0 0 42
0 0 42
0 0 42
0 0 42
0 0 42
0 0 42
0 0 42
0 0 42
0 0 42
0 0 42
0 0 42
0 0 42
0 0 42
0 0 42
0 0 42
0 0 42
0 0 42
0 0 42
0 0 41
0 0 44
0 0 47
0 0 48
0 0 50
0 0 51
0 0 52
0 0 52
0 0 52
0 0 52
0 0 55
0 0 55
0 4 61
29 24 69
109 97 81
140 114 85
128 100 76
146 126 112
139 126 113
134 119 97
148 131 108
138 122 91
118 106 76
51 64 24
66 76 37
60 67 30
53 63 24
52 61 24
53 63 26
64 69 36
70 74 41
56 66 28
48 63 22
52 64 23
52 61 21
48 58 20
46 56 18
48 59 19
48 59 16
42 55 11
49 62 21
53 66 26
54 68 28
50 62 20
49 57 20
45 51 15
37 46 15
28 46 21
2 12 59
0 0 45
0 0 44
0 0 45
0 0 43
0 0 42
0 0 44
0 0 42
0 0 42
0 0 41
0 0 42
0 0 42
0 0 42
0 0 42
0 0 42
0 0 42
0 0 42
0 0 42
0 0 42
0 0 42
0 0 42
0 0 42
207 219 236
224 237 255
224 237 255
224 237 255
224 237 255
224 237 255
224 237 255
224 237 255
224 237 255
224 237 255
224 237 255
224 237 255
224 237 255
224 237 255
224 237 255
224 237 255
224 237 255
224 237 255
224 237 255
224 237 255
224 237 255
224 237 255
224 237 255
224 237 255
224 237 255
224 237 255
224 237 255
224 237 255
224 237 255
224 237 255
224 237 255
224 237 255
224 237 255
224 237 255
224 237 255
224 237 255
224 237 255
224 237 255
224 237 255
224 237 255
224 237 255
224 237 255
224 237 255
224 237 255
224 237 255
224 237 255
224 237 255
224 237 255
224 237 255
224 237 255
224 237 255
224 237 255
224 237 255
224 237 255
224 237 255
224 237 255
224 237 255
224 237 255
224 237 255
224 237 255
224 237 255
224 237 255
224 237 255
224 237 255
224 237 255
224 237 255
224 237 255
224 237 255
224 237 255
224 237 255
224 237 255
224 237 255
224 237 255
224 237 255
224 237 255
224 237 255
224 237 255
224 237 255
224 237 255
224 237 255
224 237 255
224 237 255
224 237 255
224 237 255
224 237 255
224 237 255
224 237 255
224 237 255
224 237 255
224 237 255
224 237 255
224 237 255
224 237 255
224 237 255
224 237 255
224 237 255
224 237 255
224 237 255
224 237 255
224 237 255
224 237 255
224 237 255
224 237 255
224 237 255
224 237 255
224 237 255
224 237 255
224 237 255
224 237 255
224 237 255
224 237 255
224 237 255
224 237 255
224 237 255
224 237 255
224 237 255
224 237 255
224 237 255
224 237 255
224 237 255
224 237 255
224 237 255
224 237 255
224 237 255
224 237 255
224 237 255
224 237 255
224 237 255
224 237 255
224 237 255
224 237 255
224 237 255
224 237 255
224 237 255
224 237 255
224 237 255
224 237 255
224 237 255
224 237 255
224 237 255
224 237 255
224 237 255
224 237 255
224 237 255
224 237 255
224 237 255
224 237 255
224 237 255
224 237 255
224 237 255
224 237 255
224 237 255
224 237 255
224 237 255
224 237 255
224 237 255
224 237 255
224 237 255
224 237 255
224 237 255
224 237 255
224 237 255
224 237 255
224 237 255
224 237 255
224 237 255
224 237 255
224 237 255
224 237 255
224 237 255
224 237 255
224 237 255
224 237 255
224 237 255
224 237 255
224 237 255
224 237 255
224 237 255
224 237 255
224 237 255
224 237 255
224 237 255
224 237 255
224 237 255
224 237 255
224 237 255
224 237 255
224 237 255
224 237 255
224 237 255
224 237 255
224 237 255
224 237 255
224 237 255
224 237 255
224 237 255
224 237 255
224 237 255
224 237 255
224 237 255
224 237 255
224 237 255
224 237 255
224 237 255
224 237 255
224 237 255
224 237 255
224 237 255
224 237 255
224 237 255
224 237 255
224 237 255
224 237 255
224 237 255
224 237 255
224 237 255
152 161 176
0 0 42
0 0 42
0 0 42
0 0 42
0 0 42
0 0 42
0 0 42
0 0 42
0 0 42
0 0 42
0 0 42
0 0 42
0 0 42
0 0 42
0 0 42
0 0 42
0 0 42
0 0 42
0 0 42
0 0 42
0 0 42
0 0 42
0 0 42
0 0 42
0 0 42
0 0 42
0 0 42
0 0 42
0 0 42
0 0 42
0 0 42
0 0 42
0 0 42
0 0 42
0 0 42
0 0 42
0 0 42
0 0 42
0 0 42
0 0 42
0 0 42
0 0 42
0 0 42
0 0 42
0 0 42
0 0 42
0 0 42
0 0 42
0 0 42
0 0 42
0 0 42
0 0 42
0 0 42
0 0 42
0 0 42
0 0 42
0 0 42
0 0 41
0 0 40
0 0 42
0 0 42
0 0 42
0 0 42
0 0 42
0 0 42
0 0 42
0 0 42
0 0 42
0 0 42
0 0 42
0 0 42
0 0 42
0 0 42
0 0 42
0 0 42
0 0 42
0 0 42
0 0 42
0 0 42
0 0 42
0 0 42
0 0 42
0 0 42
0 0 42
0 0 42
0 0 42
0 0 42
0 0 42
0 0 42
0 0 42
0 0 42
0 0 42
0 0 42
0 0 42
0 0 42
0 0 42
0 0 42
0 0 42
0 0 42
0 0 42
0 0 42
0 0 42
0 0 42
0 0 42
0 0 42
0 0 42
0 0 42
0 0 42
0 0 42
0 0 42
0 0 42
0 0 42
0 0 42
0 0 43
0 0 46
0 0 48
0 0 49
0 0 51
0 0 53
0 0 55
0 0 57
0 0 59
0 0 60
0 0 63
0 0 63
0 7 63
76 65 77
146 128 99
127 105 80
138 115 98
162 145 134
136 117 100
139 121 97
111 95 69
119 103 74
72 72 37
55 66 27
60 69 30
64 71 33
57 64 28
53 60 23
61 67 31
66 68 36
63 67 33
43 58 11
45 61 17
53 63 24
51 60 23
39 49 11
34 42 9
52 60 21
56 65 24
57 68 27
53 69 25
54 72 26
54 73 28
55 63 25
59 62 27
50 54 16
36 54 24
17 30 52
0 0 49
0 0 45
0 0 45
0 0 45
0 0 43
0 0 43
0 0 45
0 0 43
0 0 42
0 0 42
0 0 42
0 0 42
0 0 42
0 0 42
0 0 42
0 0 42
0 0 42
0 0 42
0 0 42
0 0 42
0 0 42
155 164 179
224 237 255
224 237 255
224 237 255
224 237 255
224 237 255
224 237 255
224 237 255
224 237 255
224 237 255
224 237 255
224 237 255
224 237 255
224 237 255
224 237 255
224 237 255
224 237 255
224 237 255
224 237 255
224 237 255
224 237 255
224 237 255
224 237 255
224 237 255
224 237 255
224 237 255
224 237 255
224 237 255
224 237 255
224 237 255
224 237 255
224 237 255
224 237 255
224 237 255
224 237 255
224 237 255
224 237 255
224 237 255
224 237 255
224 237 255
224 237 255
224 237 255
224 237 255
224 237 255
224 237 255
224 237 255
224 237 255
224 237 255
224 237 255
224 237 255
224 237 255
224 237 255
224 237 255
224 237 255
224 237 255
224 237 255
224 237 255
224 237 255
224 237 255
224 237 255
224 237 255
224 237 255
224 237 255
224 237 255
224 237 255
224 237 255
224 237 255
224 237 255
224 237 255
224 237 255
224 237 255
224 237 255
224 237 255
224 237 255
224 237 255
224 237 255
224 237 255
224 237 255
224 237 255
224 237 255
224 237 255
224 237 255
224 237 255
224 237 255
224 237 255
224 237 255
224 237 255
224 237 255
224 237 255
224 237 255
224 237 255
224 237 255
224 237 255
224 237 255
224 237 255
224 237 255
224 237 255
224 237 255
224 237 255
224 237 255
224 237 255
224 237 255
224 237 255
224 237 255
224 237 255
224 237 255
224 237 255
224 237 255
224 237 255
224 237 255
224 237 255
224 237 255
224 237 255
224 237 255
224 237 255
224 237 255
224 237 255
224 237 255
224 237 255
224 237 255
224 237 255
224 237 255
224 237 255
224 237 255
224 237 255
224 237 255
224 237 255
224 237 255
224 237 255
224 237 255
224 237 255
224 237 255
224 237 255
224 237 255
224 237 255
224 237 255
224 237 255
224 237 255
224 237 255
224 237 255
224 237 255
224 237 255
224 237 255
224 237 255
224 237 255
224 237 255
224 237 255
224 237 255
224 237 255
224 237 255
224 237 255
224 237 255
224 237 255
224 237 255
224 237 255
224 237 255
224 237 255
224 237 255
224 237 255
224 237 255
224 237 255
224 237 255
224 237 255
224 237 255
224 237 255
224 237 255
224 237 255
224 237 255
224 237 255
224 237 255
224 237 255
224 237 255
224 237 255
224 237 255
224 237 255
224 237 255
224 237 255
224 237 255
224 237 255
224 237 255
224 237 255
224 237 255
224 237 255
224 237 255
224 237 255
224 237 255
224 237 255
224 237 255
224 237 255
224 237 255
224 237 255
224 237 255
224 237 255
224 237 255
224 237 255
224 237 255
224 237 255
224 237 255
224 237 255
224 237 255
224 237 255
224 237 255
224 237 255
224 237 255
224 237 255
224 237 255
224 237 255
224 237 255
224 237 255
224 237 255
224 237 255
224 237 255
224 237 255
224 237 255
224 237 255
224 237 255
224 237 255
218 230 248
81 85 100
0 0 42
0 0 42
0 0 42
0 0 42
0 0 42
0 0 42
0 0 42
0 0 42
0 0 42
0 0 42
0 0 42
0 0 42
0 0 42
0 0 42
0 0 42
0 0 42
0 0 42
0 0 42
0 0 42
0 0 42
0 0 42
0 0 42
0 0 42
0 0 42
0 0 42
0 0 42
0 0 42
0 0 42
0 0 42
0 0 42
0 0 42
0 0 42
0 0 42
0 0 42
0 0 42
0 0 42
0 0 42
0 0 42
0 0 42
0 0 42
0 0 42
0 0 42
0 0 42
0 0 42
0 0 42
0 0 42
0 0 42
0 0 42
0 0 42
0 0 42
0 0 42
0 0 42
0 0 42
0 0 42
0 0 42
0 0 41
0 0 42
0 0 42
0 0 42
0 0 42
0 0 42
0 0 42
0 0 42
0 0 42
0 0 42
0 0 42
0 0 42
0 0 42
0 0 42
0 0 42
0 0 42
0 0 42
0 0 42
0 0 42
0 0 42
0 0 42
0 0 42
0 0 42
0 0 42
0 0 42
0 0 42
0 0 42
0 0 42
0 0 42
0 0 42
0 0 42
0 0 42
0 0 42
0 0 42
0 0 42
0 0 42
0 0 42
0 0 42
0 0 42
0 0 42
0 0 42
0 0 42
0 0 42
0 0 42
0 0 42
0 0 42
0 0 42
0 0 42
0 0 42
0 0 42
0 0 42
0 0 42
0 0 42
0 0 42
0 0 42
0 0 42
0 0 44
0 0 45
0 0 47
0 0 48
0 0 50
0 0 51
0 0 53
0 0 55
0 0 60
0 0 63
0 0 64
0 0 64
0 0 67
15 14 63
106 90 82
141 120 92
125 113 89
157 136 123
139 123 107
113 89 70
114 94 68
158 130 108
156 136 107
55 62 24
60 68 33
61 66 33
68 74 39
54 63 27
57 64 28
68 71 38
62 68 34
34 45 8
41 54 13
52 63 23
51 59 23
45 53 17
43 50 14
52 56 21
65 69 30
67 74 34
63 74 32
59 75 30
55 70 27
46 60 23
40 52 17
45 52 23
37 50 26
15 27 60
0 2 50
0 0 45
0 0 45
0 0 45
0 0 45
0 0 45
0 0 45
0 0 45
0 0 43
0 0 42
0 0 42
0 0 42
0 0 42
0 0 42
0 0 42
0 0 42
0 0 42
0 0 42
0 0 42
0 0 42
0 0 42
90 95 109
213 225 243
224 237 255
224 237 255
224 237 255
224 237 255
224 237 255
224 237 255
224 237 255
224 237 255
224 237 255
224 237 255
224 237 255
224 237 255
224 237 255
224 237 255
224 237 255
224 237 255
224 237 255
224 237 255
224 237 255
224 237 255
224 237 255
224 237 255
224 237 255
224 237 255
224 237 255
224 237 255
224 237 255
224 237 255
224 237 255
224 237 255
224 237 255
224 237 255
224 237 255
224 237 255
224 237 255
224 237 255
224 237 255
224 237 255
224 237 255
224 237 255
224 237 255
224 237 255
224 237 255
224 237 255
224 237 255
224 237 255
224 237 255
224 237 255
224 237 255
224 237 255
224 237 255
224 237 255
224 237 255
224 237 255
224 237 255
224 237 255
224 237 255
224 237 255
224 237 255
224 237 255
224 237 255
224 237 255
224 237 255
224 237 255
224 237 255
224 237 255
224 237 255
224 237 255
224 237 255
224 237 255
224 237 255
224 237 255
224 237 255
224 237 255
224 237 255
224 237 255
224 237 255
224 237 255
224 237 255
224 237 255
224 237 255
224 237 255
224 237 255
224 237 255
224 237 255
224 237 255
224 237 255
224 237 255
224 237 255
224 237 255
224 237 255
224 237 255
224 237 255
224 237 255
224 237 255
224 237 255
224 237 255
224 237 255
224 237 255
224 237 255
224 237 255
224 237 255
224 237 255
224 237 255
224 237 255
224 237 255
224 237 255
224 237 255
224 237 255
224 237 255
224 237 255
224 237 255
224 237 255
224 237 255
224 237 255
224 237 255
224 237 255
224 237 255
224 237 255
224 237 255
224 237 255
224 237 255
224 237 255
224 237 255
224 237 255
224 237 255
224 237 255
224 237 255
224 237 255
224 237 255
224 237 255
224 237 255
224 237 255
224 237 255
224 237 255
224 237 255
224 237 255
224 237 255
224 237 255
224 237 255
224 237 255
224 237 255
224 237 255
224 237 255
224 237 255
224 237 255
224 237 255
224 237 255
224 237 255
224 237 255
224 237 255
224 237 255
224 237 255
224 237 255
224 237 255
224 237 255
224 237 255
224 237 255
224 237 255
224 237 255
224 237 255
224 237 255
224 237 255
224 237 255
224 237 255
224 237 255
224 237 255
225 237 255
225 237 255
225 237 255
225 237 255
225 237 255
225 237 255
225 237 255
225 237 255
225 237 255
225 237 255
225 237 255
225 237 255
225 237 255
225 237 255
225 237 255
225 237 255
225 237 255
225 237 255
225 237 255
225 237 255
225 237 255
225 237 255
225 237 255
225 237 255
225 237 255
225 237 255
225 237 255
225 237 255
225 237 255
225 237 255
225 237 255
225 237 255
225 237 255
225 237 255
225 237 255
225 237 255
225 237 255
225 237 255
225 237 255
225 237 255
225 237 255
225 237 255
225 237 255
225 237 255
225 237 255
225 237 255
225 237 255
225 237 255
225 237 255
225 237 255
186 197 213
0 0 42
0 0 42
0 0 42
0 0 42
0 0 42
0 0 42
0 0 42
0 0 42
0 0 42
0 0 42
0 0 42
0 0 42
0 0 42
0 0 42
0 0 42
0 0 42
0 0 42
0 0 42
0 0 42
0 0 42
0 0 42
0 0 42
0 0 42
0 0 42
0 0 42
0 0 42
0 0 42
0 0 42
0 0 42
0 0 42
0 0 42
0 0 42
0 0 42
0 0 42
0 0 42
0 0 42
0 0 42
0 0 42
0 0 42
0 0 42
0 0 42
0 0 42
0 0 42
0 0 42
0 0 42
0 0 42
0 0 42
0 0 42
0 0 42
0 0 42
0 0 42
0 0 42
0 0 42
0 0 42
0 0 42
0 0 42
0 0 42
0 0 42
0 0 42
0 0 42
0 0 42
0 0 42
0 0 42
0 0 42
0 0 42
0 0 42
0 0 42
0 0 42
0 0 42
0 0 42
0 0 42
0 0 42
0 0 42
0 0 42
0 0 42
0 0 42
0 0 42
0 0 42
0 0 42
0 0 42
0 0 42
0 0 42
0 0 42
0 0 42
0 0 42
0 0 42
0 0 42
0 0 42
0 0 42
0 0 42
0 0 42
0 0 42
0 0 42
0 0 42
0 0 42
0 0 42
0 0 42
0 0 42
0 0 42
0 0 42
0 0 42
0 0 42
0 0 42
0 0 42
0 0 42
0 0 42
0 0 42
0 0 42
0 0 43
0 0 45
0 0 44
0 0 44
0 0 45
0 0 45
0 0 46
0 0 48
0 0 50
0 0 50
0 0 52
0 0 54
0 0 59
0 0 61
0 0 64
0 0 66
40 34 57
116 98 70
130 106 82
145 126 110
135 108 90
117 98 72
113 90 68
109 93 68
140 115 94
87 81 54
59 65 31
55 65 30
72 74 37
63 67 32
54 64 26
63 71 33
71 75 40
60 67 32
44 55 18
57 69 31
55 64 25
59 67 31
62 68 32
57 61 25
64 65 29
72 74 35
68 70 30
64 72 30
52 67 25
44 54 16
47 57 14
42 53 9
36 52 24
15 25 62
0 0 57
0 0 45
0 0 45
0 0 45
0 0 45
0 0 45
0 0 45
0 0 45
0 0 45
0 0 43
0 0 42
0 0 42
0 0 42
0 0 42
0 0 42
0 0 42
0 0 42
0 0 42
0 0 42
0 0 42
0 0 42
0 0 42
174 184 200
225 237 255
225 237 255
225 237 255
225 237 255
225 237 255
225 237 255
225 237 255
225 237 255
225 237 255
225 237 255
225 237 255
225 237 255
225 237 255
225 237 255
225 237 255
225 237 255
225 237 255
225 237 255
225 237 255
225 237 255
225 237 255
225 237 255
225 237 255
225 237 255
225 237 255
225 237 255
225 237 255
225 237 255
225 237 255
225 237 255
225 237 255
225 237 255
225 237 255
225 237 255
225 237 255
225 237 255
225 237 255
225 237 255
225 237 255
225 237 255
225 237 255
225 237 255
225 237 255
225 237 255
225 237 255
225 237 255
225 237 255
225 237 255
225 237 255
224 237 255
225 237 255
225 237 255
224 237 255
224 237 255
224 237 255
224 237 255
224 237 255
224 237 255
224 237 255
224 237 255
224 237 255
224 237 255
224 237 255
224 237 255
224 237 255
224 237 255
224 237 255
224 237 255
224 237 255
224 237 255
224 237 255
224 237 255
224 237 255
224 237 255
224 237 255
224 237 255
224 237 255
224 237 255
224 237 255
224 237 255
224 237 255
224 237 255
224 237 255
224 237 255
224 237 255
224 237 255
224 237 255
224 237 255
224 237 255
224 237 255
224 237 255
224 237 255
224 237 255
224 237 255
224 237 255
224 237 255
224 237 255
224 237 255
224 237 255
224 237 255
224 237 255
224 237 255
224 237 255
224 237 255
224 237 255
224 237 255
224 237 255
224 237 255
224 237 255
224 237 255
224 237 255
224 237 255
224 237 255
224 237 255
224 237 255
224 237 255
224 237 255
224 237 255
224 237 255
224 237 255
224 237 255
224 237 255
224 237 255
224 237 255
225 237 255
225 237 255
225 237 255
225 237 255
225 237 255
225 237 255
225 237 255
225 237 255
225 237 255
225 237 255
225 237 255
225 237 255
225 237 255
225 237 255
225 237 255
225 237 255
225 237 255
225 237 255
225 237 255
225 237 255
225 237 255
225 237 255
225 237 255
225 237 255
225 237 255
225 237 255
225 237 255
225 237 255
225 237 255
225 237 255
225 237 255
225 237 255
225 237 255
225 237 255
225 237 255
225 237 255
225 237 255
225 237 255
225 237 255
225 237 255
225 237 255
225 237 255
225 237 255
225 237 255
225 237 255
225 237 255
225 237 255
225 237 255
225 237 255
225 237 255
225 237 255
225 237 255
225 237 255
225 237 255
225 237 255
225 237 255
225 237 255
225 237 255
225 237 255
225 237 255
225 237 255
225 237 255
225 237 255
225 237 255
225 237 255
225 237 255
225 237 255
225 237 255
225 237 255
225 237 255
225 237 255
225 237 255
225 237 255
225 237 255
225 237 255
225 237 255
225 237 255
225 237 255
225 237 255
225 237 255
225 237 255
225 237 255
225 237 255
225 237 255
225 237 255
225 237 255
225 237 255
225 237 255
225 237 255
225 237 255
225 237 255
225 237 255
225 237 255
225 237 255
225 237 255
144 152 167
0 0 42
0 0 42
0 0 42
0 0 42
0 0 42
0 0 42
0 0 42
0 0 42
0 0 42
0 0 42
0 0 42
0 0 42
0 0 42
0 0 42
0 0 42
0 0 42
0 0 42
0 0 42
0 0 42
0 0 42
0 0 42
0 0 42
0 0 42
0 0 42
0 0 42
0 0 42
0 0 42
0 0 42
0 0 42
0 0 42
0 0 42
0 0 42
0 0 42
0 0 42
0 0 42
0 0 42
0 0 42
0 0 42
0 0 42
0 0 42
0 0 42
0 0 42
0 0 42
0 0 42
0 0 42
0 0 42
0 0 42
0 0 42
0 0 42
0 0 42
0 0 42
0 0 42
0 0 42
0 0 42
0 0 42
0 0 42
0 0 42
0 0 42
0 0 42
0 0 42
0 0 42
0 0 42
0 0 42
0 0 42
0 0 42
0 0 42
0 0 42
0 0 42
0 0 42
0 0 42
0 0 42
0 0 42
0 0 42
0 0 42
0 0 42
0 0 42
0 0 42
0 0 42
0 0 42
0 0 42
0 0 42
0 0 42
0 0 42
0 0 42
0 0 42
0 0 42
0 0 42
0 0 42
0 0 42
0 0 42
0 0 42
0 0 42
0 0 42
0 0 42
0 0 42
0 0 42
0 0 42
0 0 42
0 0 42
0 0 42
0 0 42
0 0 42
0 0 42
0 0 42
0 0 42
0 0 42
0 0 42
0 0 43
0 0 45
0 0 45
0 0 45
0 0 45
0 0 45
0 0 47
0 0 50
0 0 50
0 0 51
0 0 53
0 0 57
0 0 61
0 0 67
0 0 63
11 13 69
84 81 65
129 105 78
141 121 107
159 144 124
118 102 77
110 92 71
104 86 58
96 85 57
74 70 45
83 77 54
60 66 32
69 71 32
77 77 40
60 63 30
44 54 22
57 67 31
69 73 36
55 60 23
59 69 32
54 64 26
53 61 23
69 75 39
65 68 30
65 66 30
66 68 30
71 73 33
65 69 29
62 70 27
58 65 23
56 64 24
49 67 29
46 74 51
20 35 65
0 0 52
0 0 45
0 0 45
0 0 45
0 0 45
0 0 45
0 0 45
0 0 45
0 0 45
0 0 45
0 0 44
0 0 43
0 0 42
0 0 42
0 0 42
0 0 42
0 0 42
0 0 42
0 0 42
0 0 42
0 0 42
0 0 42
138 146 161
225 237 255
225 237 255
225 237 255
225 237 255
225 237 255
225 237 255
225 237 255
225 237 255
225 237 255
225 237 255
225 237 255
225 237 255
225 237 255
225 237 255
225 237 255
225 237 255
225 237 255
225 237 255
225 237 255
225 237 255
225 237 255
225 237 255
225 237 255
225 237 255
225 237 255
225 237 255
225 237 255
225 237 255
225 237 255
225 237 255
225 237 255
225 237 255
225 237 255
225 237 255
225 237 255
225 237 255
225 237 255
225 237 255
225 237 255
225 237 255
225 237 255
225 237 255
225 237 255
225 237 255
225 237 255
225 237 255
225 237 255
225 237 255
225 237 255
225 237 255
225 237 255
225 237 255
225 237 255
225 237 255
225 237 255
225 237 255
225 237 255
225 237 255
225 237 255
225 237 255
225 237 255
225 237 255
225 237 255
225 237 255
225 237 255
225 237 255
225 237 255
225 237 255
225 237 255
225 237 255
225 237 255
225 237 255
225 237 255
225 237 255
225 237 255
225 237 255
225 237 255
225 237 255
225 237 255
225 237 255
225 237 255
225 237 255
225 237 255
225 237 255
225 237 255
225 237 255
225 237 255
225 237 255
225 237 255
225 237 255
225 237 255
225 237 255
225 237 255
225 237 255
225 237 255
224 237 255
225 237 255
225 237 255
224 237 255
224 237 255
224 237 255
224 237 255
224 237 255
224 237 255
224 237 255
224 237 255
224 237 255
224 237 255
224 237 255
224 237 255
225 237 255
225 237 255
225 237 255
225 237 255
225 237 255
225 237 255
225 237 255
225 237 255
225 237 255
225 237 255
225 237 255
225 237 255
225 237 255
225 237 255
225 237 255
225 237 255
225 237 255
225 237 255
225 237 255
225 237 255
225 237 255
225 237 255
225 237 255
225 237 255
225 237 255
225 237 255
225 237 255
225 237 255
225 237 255
225 237 255
225 237 255
225 237 255
225 237 255
225 237 255
225 237 255
225 237 255
225 237 255
225 237 255
225 237 255
225 237 255
225 237 255
225 237 255
225 237 255
225 237 255
225 237 255
225 237 255
225 237 255
225 237 255
225 237 255
225 237 255
225 237 255
225 237 255
225 237 255
225 237 255
225 237 255
225 237 255
225 237 255
225 237 255
225 237 255
225 237 255
225 237 255
225 237 255
225 237 255
225 237 255
225 237 255
225 237 255
225 237 255
225 237 255
225 237 255
225 237 255
225 237 255
225 237 255
225 237 255
225 237 255
225 237 255
225 237 255
225 237 255
225 237 255
225 237 255
225 237 255
225 237 255
225 237 255
225 237 255
225 237 255
225 237 255
225 237 255
225 237 255
225 237 255
225 237 255
225 237 255
225 237 255
225 237 255
225 237 255
225 237 255
225 237 255
225 237 255
225 237 255
225 237 255
225 237 255
225 237 255
225 237 255
225 237 255
225 237 255
225 237 255
225 237 255
225 237 255
225 237 255
225 237 255
225 237 255
225 237 255
219 231 249
78 82 97
0 0 42
0 0 42
0 0 42
0 0 42
0 0 42
0 0 42
0 0 42
0 0 42
0 0 42
0 0 42
0 0 42
0 0 42
0 0 42
0 0 42
0 0 42
0 0 42
0 0 42
0 0 42
0 0 42
0 0 42
0 0 42
0 0 42
0 0 42
0 0 42
0 0 42
0 0 42
0 0 42
0 0 42
0 0 42
0 0 42
0 0 42
0 0 42
0 0 42
0 0 42
0 0 42
0 0 42
0 0 42
0 0 42
0 0 42
0 0 42
0 0 42
0 0 42
0 0 42
0 0 42
0 0 42
0 0 42
0 0 42
0 0 42
0 0 42
0 0 42
0 0 42
0 0 42
0 0 42
0 0 42
0 0 42
0 0 42
0 0 42
0 0 42
0 0 42
0 0 42
0 0 42
0 0 42
0 0 42
0 0 42
0 0 42
0 0 42
0 0 42
0 0 42
0 0 42
0 0 42
0 0 42
0 0 42
0 0 42
0 0 42
0 0 42
0 0 42
0 0 42
0 0 42
0 0 42
0 0 42
0 0 42
0 0 42
0 0 42
0 0 42
0 0 42
0 0 42
0 0 42
0 0 42
0 0 42
0 0 42
0 0 42
0 0 42
0 0 42
0 0 42
0 0 42
0 0 42
0 0 42
0 0 42
0 0 42
0 0 42
0 0 42
0 0 42
0 0 42
0 0 42
0 0 42
0 0 42
0 0 43
0 0 45
0 0 45
0 0 45
0 0 45
0 0 47
0 0 49
0 0 51
0 0 53
0 0 53
0 0 55
0 0 58
0 0 62
0 0 66
0 0 65
4 7 67
78 69 53
112 91 66
149 133 121
143 124 101
98 82 56
149 113 95
125 96 70
100 86 59
79 77 49
84 72 45
89 83 48
71 71 33
72 72 40
58 63 33
30 43 12
68 79 43
74 79 42
61 69 33
57 67 29
49 59 19
60 68 32
67 71 34
68 70 31
70 72 35
68 72 32
65 68 30
65 72 30
58 68 25
53 65 17
46 62 27
37 102 101
24 65 80
0 8 59
0 0 44
0 0 45
0 0 45
0 0 45
0 0 45
0 0 44
0 0 43
0 0 45
0 0 45
0 0 45
0 0 45
0 0 43
0 0 44
0 0 42
0 0 43
0 0 44
0 0 43
0 0 43
0 0 42
0 0 42
0 0 42
92 98 112
213 225 243
225 237 255
225 237 255
225 237 255
225 237 255
225 237 255
225 237 255
225 237 255
225 237 255
225 237 255
225 237 255
225 237 255
225 237 255
225 237 255
225 237 255
225 237 255
225 237 255
225 237 255
225 237 255
225 237 255
225 237 255
225 237 255
225 237 255
225 237 255
225 237 255
225 237 255
225 237 255
225 237 255
225 237 255
225 237 255
225 237 255
225 237 255
225 237 255
225 237 255
225 237 255
225 237 255
225 237 255
225 237 255
225 237 255
225 237 255
225 237 255
225 237 255
225 237 255
225 237 255
225 237 255
225 237 255
225 237 255
225 237 255
225 237 255
225 237 255
225 237 255
225 237 255
225 237 255
225 237 255
225 237 255
225 237 255
225 237 255
225 237 255
225 237 255
225 237 255
225 237 255
225 237 255
225 237 255
225 237 255
225 237 255
225 237 255
225 237 255
225 237 255
225 237 255
225 237 255
225 237 255
225 237 255
225 237 255
225 237 255
225 237 255
225 237 255
225 237 255
225 237 255
225 237 255
225 237 255
225 237 255
225 237 255
225 237 255
225 237 255
225 237 255
225 237 255
225 237 255
225 237 255
225 237 255
225 237 255
225 237 255
225 237 255
225 237 255
225 237 255
225 237 255
225 237 255
225 237 255
225 237 255
225 237 255
225 237 255
225 237 255
225 237 255
225 237 255
225 237 255
225 237 255
225 237 255
225 237 255
225 237 255
225 237 255
225 237 255
225 237 255
225 237 255
225 237 255
225 237 255
225 237 255
225 237 255
225 237 255
225 237 255
225 237 255
225 237 255
225 237 255
225 237 255
225 237 255
225 237 255
225 237 255
225 237 255
225 237 255
225 237 255
225 237 255
225 237 255
225 237 255
225 237 255
225 237 255
225 237 255
225 237 255
225 237 255
225 237 255
225 237 255
225 237 255
225 237 255
225 237 255
225 237 255
225 237 255
225 237 255
225 237 255
225 237 255
225 237 255
225 237 255
225 237 255
225 237 255
225 237 255
225 237 255
225 237 255
225 237 255
225 237 255
225 237 255
225 237 255
225 237 255
225 237 255
225 237 255
225 237 255
225 237 255
225 237 255
225 237 255
225 237 255
225 237 255
225 237 255
225 237 255
225 237 255
225 237 255
225 237 255
225 237 255
225 237 255
225 237 255
225 237 255
225 237 255
225 237 255
225 237 255
225 237 255
225 237 255
225 237 255
225 237 255
225 237 255
225 237 255
225 237 255
225 237 255
225 237 255
225 237 255
225 237 255
225 237 255
225 237 255
225 237 255
225 237 255
225 237 255
225 237 255
225 237 255
225 237 255
225 237 255
225 237 255
225 237 255
225 237 255
225 237 255
225 237 255
225 237 255
225 237 255
225 238 255
225 237 255
225 237 255
225 238 255
225 238 255
225 238 255
225 238 255
225 238 255
225 238 255
225 238 255
225 238 255
225 238 255
225 238 255
225 238 255
225 238 255
225 238 255
225 238 255
196 207 224
31 33 55
0 0 42
0 0 42
0 0 42
0 0 42
0 0 42
0 0 42
0 0 42
0 0 42
0 0 42
0 0 42
0 0 42
0 0 42
0 0 42
0 0 42
0 0 42
0 0 42
0 0 42
0 0 42
0 0 42
0 0 42
0 0 42
0 0 42
0 0 42
0 0 42
0 0 42
0 0 42
0 0 42
0 0 42
0 0 42
0 0 42
0 0 42
0 0 42
0 0 42
0 0 42
0 0 42
0 0 42
0 0 42
0 0 42
0 0 42
0 0 42
0 0 42
0 0 42
0 0 42
0 0 42
0 0 42
0 0 42
0 0 42
0 0 42
0 0 42
0 0 42
0 0 42
0 0 42
0 0 42
0 0 42
0 0 42
0 0 42
0 0 42
0 0 42
0 0 42
0 0 42
0 0 42
0 0 42
0 0 42
0 0 42
0 0 42
0 0 42
0 0 42
0 0 42
0 0 42
0 0 42
0 0 42
0 0 42
0 0 42
0 0 42
0 0 42
0 0 42
0 0 42
0 0 42
0 0 42
0 0 42
0 0 42
0 0 42
0 0 42
0 0 42
0 0 42
0 0 42
0 0 42
0 0 42
0 0 42
0 0 42
0 0 42
0 0 42
0 0 42
0 0 42
0 0 42
0 0 42
0 0 42
0 0 42
0 0 42
0 0 42
0 0 42
0 0 42
0 0 42
0 0 42
0 0 42
0 0 44
0 0 45
0 0 45
0 0 45
0 0 47
0 0 48
0 0 50
0 0 52
0 0 53
0 0 53
0 0 57
0 0 60
0 0 61
0 0 66
0 0 65
25 32 60
87 75 59
126 114 91
148 135 112
118 102 75
118 107 77
141 114 88
92 80 55
92 80 55
68 68 38
77 73 41
70 69 37
67 69 37
76 79 43
52 65 24
43 61 22
74 85 45
75 82 44
66 74 37
53 64 27
58 69 31
62 72 33
69 72 33
78 80 43
71 76 38
61 69 31
59 69 29
61 71 29
54 63 22
58 67 31
39 85 92
21 62 81
0 6 60
0 0 45
0 0 46
0 0 45
0 0 45
0 0 45
0 0 45
0 0 45
0 0 45
0 0 45
0 0 45
0 0 45
0 0 45
0 0 44
0 0 44
0 0 43
0 0 45
0 0 45
0 0 45
0 0 44
0 0 42
0 0 42
22 23 49
191 201 218
225 238 255
225 238 255
225 238 255
225 238 255
225 238 255
225 238 255
225 238 255
225 238 255
225 238 255
225 238 255
225 238 255
225 238 255
225 238 255
225 238 255
225 238 255
225 238 255
225 237 255
225 238 255
225 237 255
225 237 255
225 237 255
225 237 255
225 237 255
225 237 255
225 237 255
225 237 255
225 237 255
225 237 255
225 237 255
225 237 255
225 237 255
225 237 255
225 237 255
225 237 255
225 237 255
225 237 255
225 237 255
225 237 255
225 237 255
225 237 255
225 237 255
225 237 255
225 237 255
225 237 255
225 237 255
225 237 255
225 237 255
225 237 255
225 237 255
225 237 255
225 237 255
225 237 255
225 237 255
225 237 255
225 237 255
225 237 255
225 237 255
225 237 255
225 237 255
225 237 255
225 237 255
225 237 255
225 237 255
225 237 255
225 237 255
225 237 255
225 237 255
225 237 255
225 237 255
225 237 255
225 237 255
225 237 255
225 237 255
225 237 255
225 237 255
225 237 255
225 237 255
225 237 255
225 237 255
225 237 255
225 237 255
225 237 255
225 237 255
225 237 255
225 237 255
225 237 255
225 237 255
225 237 255
225 237 255
225 237 255
225 237 255
225 237 255
225 237 255
225 237 255
225 237 255
225 237 255
225 237 255
225 237 255
225 237 255
225 237 255
225 237 255
225 237 255
225 237 255
225 237 255
225 237 255
225 237 255
225 237 255
225 237 255
225 237 255
225 237 255
225 237 255
225 237 255
225 237 255
225 237 255
225 237 255
225 237 255
225 237 255
225 237 255
225 237 255
225 237 255
225 237 255
225 237 255
225 237 255
225 237 255
225 237 255
225 237 255
225 237 255
225 237 255
225 237 255
225 237 255
225 237 255
225 237 255
225 237 255
225 237 255
225 237 255
225 237 255
225 237 255
225 237 255
225 237 255
225 237 255
225 237 255
225 237 255
225 237 255
225 237 255
225 237 255
225 237 255
225 237 255
225 237 255
225 237 255
225 237 255
225 237 255
225 237 255
225 237 255
225 237 255
225 238 255
225 237 255
225 238 255
225 238 255
225 238 255
225 238 255
225 238 255
225 238 255
225 238 255
225 238 255
225 238 255
225 238 255
225 238 255
225 238 255
225 238 255
225 238 255
225 238 255
225 238 255
225 238 255
225 238 255
225 238 255
225 238 255
225 238 255
225 238 255
225 238 255
225 238 255
225 238 255
225 238 255
225 238 255
225 238 255
225 238 255
225 238 255
225 238 255
225 238 255
225 238 255
225 238 255
225 238 255
225 238 255
225 238 255
225 238 255
225 238 255
225 238 255
225 238 255
225 238 255
225 238 255
225 238 255
225 238 255
225 238 255
225 238 255
225 238 255
225 238 255
225 238 255
225 238 255
225 238 255
225 238 255
225 238 255
225 238 255
225 238 255
225 238 255
225 238 255
225 238 255
225 238 255
225 238 255
225 238 255
225 238 255
225 238 255
225 238 255
225 238 255
225 238 255
151 159 174
0 0 42
0 0 42
0 0 42
0 0 42
0 0 42
0 0 42
0 0 42
0 0 42
0 0 42
0 0 42
0 0 42
0 0 42
0 0 42
0 0 42
0 0 42
0 0 42
0 0 42
0 0 42
0 0 42
0 0 42
0 0 42
0 0 42
0 0 42
0 0 42
0 0 42
0 0 42
0 0 42
0 0 42
0 0 42
0 0 42
0 0 42
0 0 42
0 0 42
0 0 42
0 0 42
0 0 42
0 0 42
0 0 42
0 0 42
0 0 42
0 0 42
0 0 42
0 0 42
0 0 42
0 0 42
0 0 42
0 0 42
0 0 42
0 0 42
0 0 42
0 0 42
0 0 42
0 0 42
0 0 42
0 0 42
0 0 42
0 0 42
0 0 42
0 0 42
0 0 42
0 0 42
0 0 42
0 0 42
0 0 42
0 0 42
0 0 42
0 0 42
0 0 42
0 0 42
0 0 42
0 0 42
0 0 42
0 0 42
0 0 42
0 0 42
0 0 42
0 0 42
0 0 42
0 0 42
0 0 42
0 0 42
0 0 42
0 0 42
0 0 42
0 0 42
0 0 42
0 0 42
0 0 42
0 0 42
0 0 42
0 0 42
0 0 42
0 0 42
0 0 42
0 0 42
0 0 42
0 0 42
0 0 42
0 0 42
0 0 42
0 0 42
0 0 42
0 0 42
0 0 42
0 0 42
0 0 44
0 0 45
0 0 45
0 0 46
0 0 48
0 0 49
0 0 50
0 0 52
0 0 53
0 0 54
0 0 57
0 0 60
0 0 62
0 1 68
0 8 69
62 67 50
88 76 52
157 141 124
133 106 82
106 89 65
138 125 92
144 119 95
82 72 50
83 77 53
63 66 36
63 65 33
68 67 37
81 81 46
88 86 48
82 87 45
74 82 43
73 86 44
72 82 44
65 72 36
58 68 31
61 69 31
62 71 31
72 77 36
75 82 38
58 66 28
62 73 33
58 70 29
56 67 29
47 64 22
38 80 73
8 60 94
5 16 67
0 0 48
0 0 43
0 0 44
0 0 45
0 0 45
0 0 45
0 0 45
0 0 45
0 0 45
0 0 45
0 0 45
0 0 45
0 0 45
0 0 45
0 0 44
0 0 44
0 0 45
0 0 45
0 0 45
0 0 43
0 0 44
0 0 44
156 164 180
225 238 255
225 238 255
225 238 255
225 238 255
225 238 255
225 238 255
225 238 255
225 238 255
225 238 255
225 238 255
225 238 255
225 238 255
225 238 255
225 238 255
225 238 255
225 238 255
225 238 255
225 238 255
225 238 255
225 238 255
225 238 255
225 238 255
225 238 255
225 238 255
225 238 255
225 238 255
225 238 255
225 238 255
225 238 255
225 238 255
225 238 255
225 238 255
225 238 255
225 238 255
225 238 255
225 238 255
225 238 255
225 238 255
225 238 255
225 238 255
225 238 255
225 238 255
225 238 255
225 238 255
225 238 255
225 238 255
225 238 255
225 238 255
225 238 255
225 238 255
225 238 255
225 238 255
225 238 255
225 238 255
225 238 255
225 238 255
225 238 255
225 238 255
225 238 255
225 238 255
225 238 255
225 238 255
225 238 255
225 238 255
225 238 255
225 238 255
225 238 255
225 238 255
225 238 255
225 237 255
225 237 255
225 237 255
225 237 255
225 237 255
225 237 255
225 237 255
225 237 255
225 237 255
225 237 255
225 237 255
225 237 255
225 237 255
225 237 255
225 237 255
225 237 255
225 237 255
225 237 255
225 237 255
225 237 255
225 237 255
225 237 255
225 237 255
225 237 255
225 237 255
225 237 255
225 237 255
225 237 255
225 237 255
225 237 255
225 237 255
225 237 255
225 237 255
225 237 255
225 237 255
225 237 255
225 237 255
225 237 255
225 237 255
225 237 255
225 237 255
225 237 255
225 237 255
225 237 255
225 237 255
225 237 255
225 237 255
225 237 255
225 238 255
225 238 255
225 238 255
225 238 255
225 238 255
225 238 255
225 238 255
225 238 255
225 238 255
225 238 255
225 238 255
225 238 255
225 238 255
225 238 255
225 238 255
225 238 255
225 238 255
225 238 255
225 238 255
225 238 255
225 238 255
225 238 255
225 238 255
225 238 255
225 238 255
225 238 255
225 238 255
225 238 255
225 238 255
225 238 255
225 238 255
225 238 255
225 238 255
225 238 255
225 238 255
225 238 255
225 238 255
225 238 255
225 238 255
225 238 255
225 238 255
225 238 255
225 238 255
225 238 255
225 238 255
225 238 255
225 238 255
225 238 255
225 238 255
225 238 255
225 238 255
225 238 255
225 238 255
225 238 255
225 238 255
225 238 255
225 238 255
225 238 255
225 238 255
225 238 255
225 238 255
225 238 255
225 238 255
225 238 255
225 238 255
225 238 255
225 238 255
225 238 255
225 238 255
225 238 255
225 238 255
225 238 255
225 238 255
225 238 255
225 238 255
225 238 255
225 238 255
225 238 255
225 238 255
225 238 255
225 238 255
225 238 255
225 238 255
225 238 255
225 238 255
225 238 255
225 238 255
225 238 255
225 238 255
225 238 255
225 238 255
225 238 255
225 238 255
225 238 255
225 238 255
225 238 255
225 238 255
225 238 255
225 238 255
225 238 255
225 238 255
225 238 255
225 238 255
225 238 255
225 238 255
225 238 255
225 238 255
223 235 253
100 106 120
0 0 42
0 0 42
0 0 42
0 0 42
0 0 42
0 0 42
0 0 42
0 0 42
0 0 42
0 0 42
0 0 42
0 0 42
0 0 42
0 0 42
0 0 42
0 0 42
0 0 42
0 0 42
0 0 42
0 0 42
0 0 42
0 0 42
0 0 42
0 0 42
0 0 42
0 0 42
0 0 42
0 0 42
0 0 42
0 0 42
0 0 42
0 0 42
0 0 42
0 0 42
0 0 42
0 0 42
0 0 42
0 0 42
0 0 42
0 0 42
0 0 42
0 0 42
0 0 42
0 0 42
0 0 42
0 0 42
0 0 42
0 0 42
0 0 42
0 0 42
0 0 42
0 0 42
0 0 42
0 0 42
0 0 42
0 0 42
0 0 42
0 0 42
0 0 42
0 0 42
0 0 42
0 0 42
0 0 42
0 0 42
0 0 42
0 0 42
0 0 42
0 0 42
0 0 42
0 0 42
0 0 42
0 0 42
0 0 42
0 0 42
0 0 42
0 0 42
0 0 42
0 0 42
0 0 42
0 0 42
0 0 42
0 0 42
0 0 42
0 0 42
0 0 42
0 0 42
0 0 42
0 0 42
0 0 42
0 0 42
0 0 42
0 0 42
0 0 42
0 0 42
0 0 42
0 0 42
0 0 42
0 0 42
0 0 42
0 0 42
0 0 42
0 0 42
0 0 42
0 0 42
0 0 43
0 0 45
0 0 47
0 0 50
0 0 48
0 0 51
0 0 54
0 0 57
0 0 60
0 0 59
0 0 59
0 0 63
0 0 62
0 3 69
11 16 77
69 70 47
125 116 99
175 162 151
122 99 74
90 78 46
120 105 77
122 104 77
114 102 77
80 74 48
66 66 37
71 71 42
85 82 51
97 93 60
85 86 48
84 89 52
80 85 49
73 84 45
69 78 38
69 78 37
63 72 33
65 73 37
64 73 31
68 76 31
68 80 35
54 65 25
54 67 27
59 73 32
60 69 25
48 66 59
13 45 91
0 12 76
0 3 52
0 0 44
0 0 45
0 0 45
0 0 45
0 0 45
0 0 46
0 0 46
0 0 45
0 0 45
0 0 45
0 0 45
0 0 45
0 0 45
0 0 45
0 0 43
0 0 44
0 0 45
0 0 45
0 0 44
0 0 45
0 0 45
110 116 131
223 235 253
225 238 255
225 238 255
225 238 255
225 238 255
225 238 255
225 238 255
225 238 255
225 238 255
225 238 255
225 238 255
225 238 255
225 238 255
225 238 255
225 238 255
225 238 255
225 238 255
225 238 255
225 238 255
225 238 255
225 238 255
225 238 255
225 238 255
225 238 255
225 238 255
225 238 255
225 238 255
225 238 255
225 238 255
225 238 255
225 238 255
225 238 255
225 238 255
225 238 255
225 238 255
225 238 255
225 238 255
225 238 255
225 238 255
225 238 255
225 238 255
225 238 255
225 238 255
225 238 255
225 238 255
225 238 255
225 238 255
225 238 255
225 238 255
225 238 255
225 238 255
225 238 255
225 238 255
225 238 255
225 238 255
225 238 255
225 238 255
225 238 255
225 238 255
225 238 255
225 238 255
225 238 255
225 238 255
225 238 255
225 238 255
225 238 255
225 238 255
225 238 255
225 238 255
225 238 255
225 238 255
225 238 255
225 238 255
225 238 255
225 238 255
225 238 255
225 238 255
225 238 255
225 238 255
225 238 255
225 238 255
225 238 255
225 238 255
225 238 255
225 238 255
225 238 255
225 238 255
225 238 255
225 238 255
225 238 255
225 238 255
225 238 255
225 238 255
225 238 255
225 238 255
225 238 255
225 238 255
225 238 255
225 238 255
225 238 255
225 238 255
225 238 255
225 238 255
225 238 255
225 238 255
225 238 255
225 238 255
225 238 255
225 238 255
225 238 255
225 237 255
225 237 255
225 237 255
225 238 255
225 238 255
225 238 255
225 238 255
225 238 255
225 238 255
225 238 255
225 238 255
225 238 255
225 238 255
225 238 255
225 238 255
225 238 255
225 238 255
225 238 255
225 238 255
225 238 255
225 238 255
225 238 255
225 238 255
225 238 255
225 238 255
225 238 255
225 238 255
225 238 255
225 238 255
225 238 255
225 238 255
225 238 255
225 238 255
225 238 255
225 238 255
225 238 255
225 238 255
225 238 255
225 238 255
225 238 255
225 238 255
225 238 255
225 238 255
225 238 255
225 238 255
225 238 255
225 238 255
225 238 255
225 238 255
225 238 255
225 238 255
225 238 255
225 238 255
225 238 255
225 238 255
225 238 255
225 238 255
225 238 255
225 238 255
225 238 255
225 238 255
225 238 255
225 238 255
225 238 255
225 238 255
225 238 255
225 238 255
225 238 255
225 238 255
225 238 255
225 238 255
225 238 255
225 238 255
225 238 255
225 238 255
225 238 255
225 238 255
225 238 255
225 238 255
225 238 255
225 238 255
225 238 255
225 238 255
225 238 255
225 238 255
225 238 255
225 238 255
225 238 255
225 238 255
225 238 255
225 238 255
225 238 255
225 238 255
225 238 255
225 238 255
225 238 255
225 238 255
225 238 255
225 238 255
225 238 255
225 238 255
225 238 255
225 238 255
225 238 255
225 238 255
225 238 255
225 238 255
225 238 255
225 238 255
225 238 255
225 238 255
225 238 255
225 238 255
225 238 255
225 238 255
225 238 255
212 224 241
55 58 74
0 0 42
0 0 42
0 0 42
0 0 42
0 0 42
0 0 42
0 0 42
0 0 42
0 0 42
0 0 42
0 0 42
0 0 42
0 0 42
0 0 42
0 0 42
0 0 42
0 0 42
0 0 42
0 0 42
0 0 42
0 0 42
0 0 42
0 0 42
0 0 42
0 0 42
0 0 42
0 0 42
0 0 42
0 0 42
0 0 42
0 0 42
0 0 42
0 0 42
0 0 42
0 0 42
0 0 42
0 0 42
0 0 42
0 0 42
0 0 42
0 0 42
0 0 42
0 0 42
0 0 42
0 0 42
0 0 42
0 0 42
0 0 42
0 0 42
0 0 42
0 0 42
0 0 42
0 0 42
0 0 42
0 0 42
0 0 42
0 0 42
0 0 42
0 0 42
0 0 42
0 0 42
0 0 42
0 0 42
0 0 42
0 0 42
0 0 42
0 0 42
0 0 42
0 0 42
0 0 42
0 0 42
0 0 42
0 0 42
0 0 42
0 0 42
0 0 42
0 0 42
0 0 42
0 0 42
0 0 42
0 0 42
0 0 42
0 0 42
0 0 42
0 0 42
0 0 42
0 0 42
0 0 42
0 0 42
0 0 42
0 0 42
0 0 42
0 0 42
0 0 42
0 0 42
0 0 43
0 0 44
0 0 44
0 0 44
0 0 44
0 0 43
0 0 42
0 0 44
0 0 45
0 0 49
0 0 51
0 0 52
0 0 51
0 0 51
0 0 56
0 0 61
0 0 64
0 0 62
0 0 63
0 0 66
0 0 67
0 0 69
9 15 68
60 60 41
114 110 96
166 156 148
121 102 78
100 90 56
135 115 88
135 117 88
98 85 59
74 69 42
72 68 39
75 71 41
86 79 50
97 94 62
84 88 52
86 89 54
81 87 49
72 81 41
64 74 32
71 82 39
70 79 37
61 74 29
61 72 28
68 77 37
62 73 31
58 70 28
57 72 30
53 66 26
43 62 42
19 54 93
0 14 79
0 3 57
0 0 48
0 0 45
0 0 47
0 0 47
0 0 48
0 0 48
0 0 48
0 0 47
0 0 46
0 0 45
0 0 45
0 0 45
0 0 45
0 0 45
0 0 44
0 0 43
0 0 45
0 0 45
0 0 45
0 0 45
0 0 45
59 62 80
219 232 249
225 238 255
225 238 255
225 238 255
225 238 255
225 238 255
225 238 255
225 238 255
225 238 255
225 238 255
225 238 255
225 238 255
225 238 255
225 238 255
225 238 255
225 238 255
225 238 255
225 238 255
225 238 255
225 238 255
225 238 255
225 238 255
225 238 255
225 238 255
225 238 255
225 238 255
225 238 255
225 238 255
225 238 255
225 238 255
225 238 255
225 238 255
225 238 255
225 238 255
225 238 255
225 238 255
225 238 255
225 238 255
225 238 255
225 238 255
225 238 255
225 238 255
225 238 255
225 238 255
225 238 255
225 238 255
225 238 255
225 238 255
225 238 255
225 238 255
225 238 255
225 238 255
225 238 255
225 238 255
225 238 255
225 238 255
225 238 255
225 238 255
225 238 255
225 238 255
225 238 255
225 238 255
225 238 255
225 238 255
225 238 255
225 238 255
225 238 255
225 238 255
225 238 255
225 238 255
225 238 255
225 238 255
225 238 255
225 238 255
225 238 255
225 238 255
225 238 255
225 238 255
225 238 255
225 238 255
225 238 255
225 238 255
225 238 255
225 238 255
225 238 255
225 238 255
225 238 255
225 238 255
225 238 255
225 238 255
225 238 255
225 238 255
225 238 255
225 238 255
225 238 255
225 238 255
225 238 255
225 238 255
225 238 255
225 238 255
225 238 255
225 238 255
225 238 255
225 238 255
225 238 255
225 238 255
225 238 255
225 238 255
225 238 255
225 238 255
225 238 255
225 238 255
225 238 255
225 238 255
225 238 255
225 238 255
225 238 255
225 238 255
225 238 255
225 238 255
225 238 255
225 238 255
225 238 255
225 238 255
225 238 255
225 238 255
225 238 255
225 238 255
225 238 255
225 238 255
225 238 255
225 238 255
225 238 255
225 238 255
225 238 255
225 238 255
225 238 255
225 238 255
225 238 255
225 238 255
225 238 255
225 238 255
225 238 255
225 238 255
225 238 255
225 238 255
225 238 255
225 238 255
225 238 255
225 238 255
225 238 255
225 238 255
225 238 255
225 238 255
225 238 255
225 238 255
225 238 255
225 238 255
225 238 255
225 238 255
225 238 255
225 238 255
225 238 255
225 238 255
225 238 255
225 238 255
225 238 255
225 238 255
225 238 255
225 238 255
225 238 255
225 238 255
225 238 255
225 238 255
225 238 255
225 238 255
225 238 255
225 238 255
225 238 255
225 238 255
225 238 255
225 238 255
225 238 255
225 238 255
225 238 255
225 238 255
225 238 255
225 238 255
225 238 255
225 238 255
225 238 255
225 238 255
225 238 255
225 238 255
225 238 255
225 238 255
225 238 255
225 238 255
225 238 255
225 238 255
225 238 255
225 238 255
225 238 255
225 238 255
225 238 255
225 238 255
225 238 255
225 238 255
225 238 255
225 238 255
225 238 255
225 238 255
225 238 255
225 238 255
225 238 255
225 238 255
225 238 255
225 238 255
225 238 255
225 238 255
225 238 255
225 238 255
225 238 255
225 238 255
225 238 255
225 238 255
225 238 255
225 238 255
191 202 218
0 0 42
0 0 42
0 0 42
0 0 42
0 0 42
0 0 42
0 0 42
0 0 42
0 0 42
0 0 42
0 0 42
0 0 42
0 0 42
0 0 42
0 0 42
0 0 42
0 0 42
0 0 42
0 0 42
0 0 42
0 0 42
0 0 42
0 0 42
0 0 42
0 0 42
0 0 42
0 0 42
0 0 42
0 0 42
0 0 42
0 0 42
0 0 42
0 0 42
0 0 42
0 0 42
0 0 42
0 0 42
0 0 42
0 0 42
0 0 42
0 0 42
0 0 42
0 0 42
0 0 42
0 0 42
0 0 42
0 0 42
0 0 42
0 0 42
0 0 42
0 0 42
0 0 42
0 0 42
0 0 42
0 0 42
0 0 42
0 0 42
0 0 42
0 0 42
0 0 42
0 0 42
0 0 42
0 0 42
0 0 42
0 0 42
0 0 42
0 0 42
0 0 42
0 0 42
0 0 42
0 0 42
0 0 42
0 0 42
0 0 42
0 0 42
0 0 42
0 0 42
0 0 42
0 0 42
0 0 42
0 0 43
0 0 43
0 0 42
0 0 42
0 0 42
0 0 42
0 0 42
0 0 42
0 0 42
0 0 42
0 0 42
0 0 42
0 0 42
0 0 42
0 0 42
0 0 44
0 0 45
0 0 45
0 0 45
0 0 45
0 0 45
0 0 45
0 0 46
0 0 50
0 0 52
0 0 54
0 0 53
0 0 52
0 0 53
0 0 60
0 0 65
0 0 66
0 0 65
0 0 67
0 3 70
0 10 73
0 3 68
8 20 66
55 57 28
131 131 127
182 176 179
104 91 70
108 95 68
104 88 64
108 94 68
74 68 40
77 72 45
88 78 51
87 81 51
99 90 60
91 89 56
82 86 51
88 89 55
83 88 49
74 84 40
42 50 7
59 67 27
64 78 39
58 75 30
68 77 33
72 79 36
70 79 34
62 74 30
51 65 24
37 58 46
17 53 95
0 20 77
0 2 60
0 0 49
0 0 47
0 0 47
0 0 47
0 0 48
0 0 50
0 0 52
0 0 49
0 0 47
0 0 48
0 0 47
0 0 47
0 0 46
0 0 46
0 0 45
0 0 45
0 0 45
0 0 45
0 0 45
0 0 45
0 0 45
0 0 46
174 184 200
225 238 255
225 238 255
225 238 255
225 238 255
225 238 255
225 238 255
225 238 255
225 238 255
225 238 255
225 238 255
225 238 255
225 238 255
225 238 255
225 238 255
225 238 255
225 238 255
225 238 255
225 238 255
225 238 255
225 238 255
225 238 255
225 238 255
225 238 255
225 238 255
225 238 255
225 238 255
225 238 255
225 238 255
225 238 255
225 238 255
225 238 255
225 238 255
225 238 255
225 238 255
225 238 255
225 238 255
225 238 255
225 238 255
225 238 255
225 238 255
225 238 255
225 238 255
225 238 255
225 238 255
225 238 255
225 238 255
225 238 255
225 238 255
225 238 255
225 238 255
225 238 255
225 238 255
225 238 255
225 238 255
225 238 255
225 238 255
225 238 255
225 238 255
225 238 255
225 238 255
225 238 255
225 238 255
225 238 255
225 238 255
225 238 255
225 238 255
225 238 255
225 238 255
225 238 255
225 238 255
225 238 255
225 238 255
225 238 255
225 238 255
225 238 255
225 238 255
225 238 255
225 238 255
225 238 255
225 238 255
225 238 255
225 238 255
225 238 255
225 238 255
225 238 255
225 238 255
225 238 255
225 238 255
225 238 255
225 238 255
225 238 255
225 238 255
225 238 255
225 238 255
225 238 255
225 238 255
225 238 255
225 238 255
225 238 255
225 238 255
225 238 255
225 238 255
225 238 255
225 238 255
225 238 255
225 238 255
225 238 255
225 238 255
225 238 255
225 238 255
225 238 255
225 238 255
225 238 255
225 238 255
225 238 255
225 238 255
225 238 255
225 238 255
225 238 255
225 238 255
225 238 255
225 238 255
225 238 255
225 238 255
225 238 255
225 238 255
225 238 255
225 238 255
225 238 255
225 238 255
225 238 255
225 238 255
225 238 255
225 238 255
225 238 255
225 238 255
225 238 255
225 238 255
225 238 255
225 238 255
225 238 255
225 238 255
225 238 255
225 238 255
225 238 255
225 238 255
225 238 255
225 238 255
225 238 255
225 238 255
225 238 255
225 238 255
225 238 255
225 238 255
225 238 255
225 238 255
225 238 255
225 238 255
225 238 255
225 238 255
225 238 255
225 238 255
225 238 255
225 238 255
225 238 255
225 238 255
225 238 255
225 238 255
225 238 255
225 238 255
225 238 255
225 238 255
225 238 255
225 238 255
225 238 255
225 238 255
225 238 255
225 238 255
225 238 255
225 238 255
225 238 255
225 238 255
225 238 255
225 238 255
225 238 255
225 238 255
225 238 255
225 238 255
225 238 255
225 238 255
225 238 255
225 238 255
225 238 255
225 238 255
225 238 255
225 238 255
225 238 255
225 238 255
225 238 255
225 238 255
225 238 255
225 238 255
225 238 255
225 238 255
225 238 255
225 238 255
225 238 255
225 238 255
225 238 255
225 238 255
225 238 255
225 238 255
225 238 255
225 238 255
225 238 255
225 238 255
225 238 255
225 238 255
225 238 255
225 238 255
225 238 255
225 238 255
225 238 255
225 238 255
225 238 255
225 238 255
225 238 255
225 238 255
225 238 255
165 175 190
0 0 43
0 0 43
0 0 42
0 0 43
0 0 43
0 0 42
0 0 42
0 0 42
0 0 42
0 0 42
0 0 42
0 0 42
0 0 42
0 0 42
0 0 42
0 0 42
0 0 42
0 0 42
0 0 42
0 0 42
0 0 42
0 0 42
0 0 42
0 0 42
0 0 42
0 0 41
0 0 42
0 0 42
0 0 42
0 0 42
0 0 42
0 0 42
0 0 42
0 0 42
0 0 42
0 0 42
0 0 42
0 0 42
0 0 42
0 0 42
0 0 42
0 0 42
0 0 42
0 0 42
0 0 42
0 0 42
0 0 42
0 0 42
0 0 42
0 0 42
0 0 42
0 0 42
0 0 42
0 0 42
0 0 42
0 0 42
0 0 42
0 0 42
0 0 42
0 0 42
0 0 42
0 0 42
0 0 42
0 0 42
0 0 42
0 0 42
0 0 42
0 0 42
0 0 42
0 0 42
0 0 42
0 0 42
0 0 42
0 0 42
0 0 42
0 0 42
0 0 42
0 0 42
0 0 43
0 0 45
0 0 45
0 0 44
0 0 44
0 0 44
0 0 42
0 0 42
0 0 42
0 0 42
0 0 42
0 0 44
0 0 44
0 0 44
0 0 44
0 0 44
0 0 43
0 0 45
0 0 45
0 0 45
0 0 44
0 0 44
0 0 46
0 0 48
0 0 50
0 0 53
0 0 54
0 0 54
0 0 54
0 0 57
0 0 61
0 0 68
0 0 68
0 0 68
0 6 70
0 14 75
0 18 80
0 13 77
25 45 47
58 59 27
136 143 144
182 179 184
91 83 60
91 82 57
85 78 53
79 72 47
68 69 40
88 79 52
100 90 59
94 88 56
96 87 56
87 82 49
79 83 46
80 82 45
77 81 41
75 85 40
57 67 26
44 53 14
48 74 37
67 80 31
74 78 35
67 80 31
65 75 31
54 69 27
38 63 59
7 43 100
0 21 79
0 4 55
0 0 51
0 0 48
0 0 49
0 0 48
0 0 48
0 0 50
0 0 52
0 0 51
0 0 49
0 0 48
0 0 50
0 0 51
0 0 47
0 0 47
0 0 45
0 0 45
0 0 45
0 0 46
0 0 47
0 0 45
0 0 46
0 0 47
171 181 197
225 238 255
225 238 255
225 238 255
225 238 255
225 238 255
225 238 255
225 238 255
225 238 255
225 238 255
225 238 255
225 238 255
225 238 255
225 238 255
225 238 255
225 238 255
225 238 255
225 238 255
225 238 255
225 238 255
225 238 255
225 238 255
225 238 255
225 238 255
225 238 255
225 238 255
225 238 255
225 238 255
225 238 255
225 238 255
225 238 255
225 238 255
225 238 255
225 238 255
225 238 255
225 238 255
225 238 255
225 238 255
225 238 255
225 238 255
225 238 255
225 238 255
225 238 255
225 238 255
225 238 255
225 238 255
225 238 255
225 238 255
225 238 255
225 238 255
225 238 255
225 238 255
225 238 255
225 238 255
225 238 255
225 238 255
225 238 255
225 238 255
225 238 255
225 238 255
225 238 255
225 238 255
225 238 255
225 238 255
225 238 255
225 238 255
225 238 255
225 238 255
225 238 255
225 238 255
225 238 255
225 238 255
225 238 255
225 238 255
225 238 255
225 238 255
225 238 255
225 238 255
225 238 255
225 238 255
225 238 255
225 238 255
225 238 255
225 238 255
225 238 255
225 238 255
225 238 255
225 238 255
225 238 255
225 238 255
225 238 255
225 238 255
225 238 255
225 238 255
225 238 255
225 238 255
225 238 255
225 238 255
225 238 255
225 238 255
225 238 255
225 238 255
225 238 255
225 238 255
225 238 255
225 238 255
225 238 255
225 238 255
225 238 255
225 238 255
225 238 255
225 238 255
225 238 255
225 238 255
225 238 255
225 238 255
225 238 255
225 238 255
225 238 255
225 238 255
225 238 255
225 238 255
225 238 255
225 238 255
225 238 255
225 238 255
225 238 255
225 238 255
225 238 255
225 238 255
225 238 255
225 238 255
225 238 255
225 238 255
225 238 255
225 238 255
225 238 255
225 238 255
225 238 255
225 238 255
225 238 255
225 238 255
225 238 255
225 238 255
225 238 255
225 238 255
225 238 255
225 238 255
225 238 255
225 238 255
225 238 255
225 238 255
225 238 255
225 238 255
225 238 255
225 238 255
225 238 255
225 238 255
225 238 255
225 238 255
225 238 255
225 238 255
225 238 255
225 238 255
225 238 255
225 238 255
225 238 255
225 238 255
225 238 255
225 238 255
225 238 255
225 238 255
225 238 255
225 238 255
225 238 255
225 238 255
225 238 255
225 238 255
225 238 255
225 238 255
225 238 255
225 238 255
225 238 255
225 238 255
225 238 255
225 238 255
225 238 255
225 238 255
225 238 255
225 238 255
225 238 255
225 238 255
225 238 255
225 238 255
225 238 255
225 238 255
225 238 255
225 238 255
225 238 255
225 238 255
225 238 255
225 238 255
225 238 255
225 238 255
225 238 255
225 238 255
225 238 255
225 238 255
225 238 255
225 238 255
225 238 255
225 238 255
225 238 255
225 238 255
225 238 255
225 238 255
225 238 255
225 238 255
225 238 255
225 238 255
225 238 255
225 238 255
225 238 255
225 238 255
225 238 255
225 238 255
225 238 255
225 238 255
225 238 255
225 238 255
225 238 255
224 237 254
135 142 157
0 0 45
0 0 45
0 0 44
0 0 43
0 0 42
0 0 42
0 0 42
0 0 42
0 0 42
0 0 43
0 0 42
0 0 42
0 0 42
0 0 42
0 0 42
0 0 42
0 0 42
0 0 42
0 0 42
0 0 42
0 0 42
0 0 42
0 0 42
0 0 42
0 0 42
0 0 42
0 0 42
0 0 42
0 0 42
0 0 42
0 0 42
0 0 42
0 0 42
0 0 42
0 0 42
0 0 42
0 0 42
0 0 42
0 0 42
0 0 42
0 0 42
0 0 42
0 0 42
0 0 42
0 0 42
0 0 42
0 0 42
0 0 42
0 0 42
0 0 42
0 0 42
0 0 42
0 0 42
0 0 42
0 0 42
0 0 42
0 0 42
0 0 42
0 0 42
0 0 42
0 0 42
0 0 42
0 0 42
0 0 42
0 0 42
0 0 42
0 0 42
0 0 42
0 0 42
0 0 42
0 0 42
0 0 42
0 0 42
0 0 45
0 0 45
0 0 45
0 0 45
0 0 45
0 0 43
0 0 45
0 0 45
0 0 45
0 0 45
0 0 45
0 0 45
0 0 45
0 0 45
0 0 45
0 0 45
0 0 45
0 0 45
0 0 45
0 0 45
0 0 45
0 0 45
0 0 45
0 0 45
0 0 45
0 0 45
0 0 46
0 0 48
0 0 50
0 0 53
0 0 55
0 0 55
0 0 56
0 0 58
0 0 62
0 4 69
0 13 74
0 17 76
0 19 79
0 26 85
0 18 84
19 32 70
42 60 24
63 64 47
161 170 178
173 172 170
82 72 49
82 76 47
78 73 53
76 70 45
78 75 45
96 84 58
93 86 55
92 86 54
80 77 42
73 75 38
63 70 35
71 78 42
69 77 35
70 80 36
65 75 32
59 70 37
29 100 113
45 92 91
50 74 37
55 70 41
53 68 44
35 70 75
13 45 96
0 17 75
0 0 56
0 0 49
0 0 50
0 0 52
0 0 53
0 0 51
0 0 50
0 0 51
0 0 53
0 0 52
0 0 51
0 0 52
0 0 53
0 0 53
0 0 48
0 0 47
0 0 45
0 0 45
0 0 46
0 0 47
0 0 48
0 0 48
0 0 49
131 138 155
224 237 254
225 238 255
225 238 255
225 238 255
225 238 255
225 238 255
225 238 255
225 238 255
225 238 255
225 238 255
225 238 255
225 238 255
225 238 255
225 238 255
225 238 255
225 238 255
225 238 255
225 238 255
225 238 255
225 238 255
225 238 255
225 238 255
225 238 255
225 238 255
225 238 255
225 238 255
225 238 255
225 238 255
225 238 255
225 238 255
225 238 255
225 238 255
225 238 255
225 238 255
225 238 255
225 238 255
225 238 255
225 238 255
225 238 255
225 238 255
225 238 255
225 238 255
225 238 255
225 238 255
225 238 255
225 238 255
225 238 255
225 238 255
225 238 255
225 238 255
225 238 255
225 238 255
225 238 255
225 238 255
225 238 255
225 238 255
225 238 255
225 238 255
225 238 255
225 238 255
225 238 255
225 238 255
225 238 255
225 238 255
225 238 255
225 238 255
225 238 255
225 238 255
225 238 255
225 238 255
225 238 255
225 238 255
225 238 255
225 238 255
225 238 255
225 238 255
225 238 255
225 238 255
225 238 255
225 238 255
225 238 255
225 238 255
225 238 255
225 238 255
225 238 255
225 238 255
225 238 255
225 238 255
225 238 255
225 238 255
225 238 255
225 238 255
225 238 255
225 238 255
225 238 255
225 238 255
225 238 255
225 238 255
225 238 255
225 238 255
225 238 255
225 238 255
225 238 255
225 238 255
225 238 255
225 238 255
225 238 255
225 238 255
225 238 255
225 238 255
225 238 255
225 238 255
225 238 255
225 238 255
225 238 255
225 238 255
225 238 255
225 238 255
225 238 255
225 238 255
225 238 255
225 238 255
225 238 255
225 238 255
225 238 255
225 238 255
225 238 255
225 238 255
225 238 255
225 238 255
225 238 255
225 238 255
225 238 255
225 238 255
225 238 255
225 238 255
225 238 255
225 238 255
225 238 255
225 238 255
225 238 255
225 238 255
225 238 255
225 238 255
225 238 255
225 238 255
225 238 255
225 238 255
225 238 255
225 238 255
225 238 255
225 238 255
225 238 255
225 238 255
225 238 255
225 238 255
225 238 255
225 238 255
225 238 255
225 238 255
225 238 255
225 238 255
225 238 255
225 238 255
225 238 255
225 238 255
225 238 255
225 238 255
225 238 255
225 238 255
225 238 255
225 238 255
225 238 255
225 238 255
225 238 255
225 238 255
225 238 255
225 238 255
225 238 255
225 238 255
225 238 255
225 238 255
225 238 255
225 238 255
225 238 255
225 238 255
225 238 255
225 238 255
225 238 255
225 238 255
225 238 255
225 238 255
225 238 255
225 238 255
225 238 255
225 238 255
225 238 255
225 238 255
225 238 255
225 238 255
225 238 255
225 238 255
225 238 255
225 238 255
225 238 255
225 238 255
225 238 255
225 238 255
225 238 255
225 238 255
225 238 255
225 238 255
225 238 255
225 238 255
225 238 255
225 238 255
225 238 255
225 238 255
225 238 255
225 238 255
225 238 255
225 238 255
225 238 255
225 238 255
225 238 255
225 238 255
225 238 255
225 238 255
225 238 255
225 238 255
225 238 255
225 238 255
215 227 244
81 85 101
0 0 45
0 0 45
0 0 44
0 0 42
0 0 42
0 0 42
0 0 41
0 0 42
0 0 43
0 0 43
0 0 42
0 0 42
0 0 42
0 0 42
0 0 42
0 0 42
0 0 42
0 0 42
0 0 42
0 0 42
0 0 42
0 0 42
0 0 42
0 0 42
0 0 42
0 0 42
0 0 45
0 0 44
0 0 43
0 0 43
0 0 43
0 0 42
0 0 42
0 0 42
0 0 42
0 0 42
0 0 42
0 0 42
0 0 42
0 0 42
0 0 42
0 0 42
0 0 42
0 0 42
0 0 42
0 0 42
0 0 42
0 0 42
0 0 42
0 0 42
0 0 42
0 0 42
0 0 42
0 0 42
0 0 42
0 0 42
0 0 42
0 0 42
0 0 42
0 0 42
0 0 42
0 0 42
0 0 42
0 0 42
0 0 42
0 0 42
0 0 42
0 0 42
0 0 42
0 0 43
0 0 44
0 0 45
0 0 45
0 0 45
0 0 45
0 0 45
0 0 45
0 0 43
0 0 43
0 0 44
0 0 45
0 0 45
0 0 45
0 0 45
0 0 45
0 0 45
0 0 45
0 0 45
0 0 45
0 0 45
0 0 45
0 0 45
0 0 45
0 0 47
0 0 48
0 0 48
0 0 47
0 0 48
0 0 50
0 0 50
0 0 53
0 0 53
0 0 53
0 0 53
0 0 55
0 0 59
0 7 67
0 14 75
0 17 81
0 26 89
0 26 88
0 26 87
0 13 82
36 56 33
46 57 20
119 121 118
215 219 227
124 118 100
90 78 55
80 76 48
80 72 54
81 77 49
91 83 54
88 79 52
85 84 52
80 81 47
72 76 37
64 73 36
46 56 19
48 57 20
58 67 25
59 70 27
58 68 27
63 76 33
38 80 81
7 89 132
12 93 121
2 77 122
5 56 104
0 42 101
0 16 74
0 2 56
0 0 48
0 0 50
0 0 52
0 0 53
0 0 53
0 0 51
0 0 50
0 0 52
0 0 53
0 0 54
0 0 56
0 0 57
0 0 58
0 0 53
0 0 49
0 0 47
0 0 47
0 0 48
0 0 48
0 0 49
0 0 49
0 0 50
90 95 113
215 227 244
225 238 255
225 238 255
225 238 255
225 238 255
225 238 255
225 238 255
225 238 255
225 238 255
225 238 255
225 238 255
225 238 255
225 238 255
225 238 255
225 238 255
225 238 255
225 238 255
225 238 255
225 238 255
225 238 255
225 238 255
225 238 255
225 238 255
225 238 255
225 238 255
225 238 255
225 238 255
225 238 255
225 238 255
225 238 255
225 238 255
225 238 255
225 238 255
225 238 255
225 238 255
225 238 255
225 238 255
225 238 255
225 238 255
225 238 255
225 238 255
225 238 255
225 238 255
225 238 255
225 238 255
225 238 255
225 238 255
225 238 255
225 238 255
225 238 255
225 238 255
225 238 255
225 238 255
225 238 255
225 238 255
225 238 255
225 238 255
225 238 255
225 238 255
225 238 255
225 238 255
225 238 255
225 238 255
225 238 255
225 238 255
225 238 255
225 238 255
225 238 255
225 238 255
225 238 255
225 238 255
225 238 255
225 238 255
225 238 255
225 238 255
225 238 255
225 238 255
225 238 255
225 238 255
225 238 255
225 238 255
225 238 255
225 238 255
225 238 255
225 238 255
225 238 255
225 238 255
225 238 255
225 238 255
225 238 255
225 238 255
225 238 255
225 238 255
225 238 255
225 238 255
225 238 255
225 238 255
225 238 255
225 238 255
225 238 255
225 238 255
225 238 255
225 238 255
225 238 255
225 238 255
225 238 255
225 238 255
225 238 255
225 238 255
225 238 255
225 238 255
225 238 255
225 238 255
225 238 255
225 238 255
225 238 255
225 238 255
225 238 255
225 238 255
225 238 255
225 238 255
225 238 255
225 238 255
225 238 255
225 238 255
225 238 255
225 238 255
225 238 255
225 238 255
225 238 255
225 238 255
225 238 255
225 238 255
225 238 255
225 238 255
225 238 255
225 238 255
225 238 255
225 238 255
225 238 255
225 238 255
225 238 255
225 238 255
225 238 255
225 238 255
225 238 255
225 238 255
225 238 255
225 238 255
225 238 255
225 238 255
225 238 255
225 238 255
225 238 255
225 238 255
225 238 255
225 238 255
225 238 255
225 238 255
225 238 255
225 238 255
225 238 255
225 238 255
225 238 255
225 238 255
225 238 255
225 238 255
225 238 255
225 238 255
225 238 255
225 238 255
225 238 255
225 238 255
225 238 255
225 238 255
225 238 255
225 238 255
225 238 255
225 238 255
225 238 255
225 238 255
225 238 255
225 238 255
225 238 255
225 238 255
225 238 255
225 238 255
225 238 255
225 238 255
225 238 255
225 238 255
225 238 255
225 238 255
225 238 255
225 238 255
225 238 255
225 238 255
225 238 255
225 238 255
225 238 255
225 238 255
225 238 255
225 238 255
225 238 255
225 238 255
225 238 255
225 238 255
225 238 255
225 238 255
225 238 255
225 238 255
225 238 255
225 238 255
225 238 255
225 238 255
225 238 255
225 238 255
225 238 255
225 238 255
225 238 255
225 238 255
225 238 255
225 238 255
225 238 255
225 238 255
225 238 255
225 238 255
225 238 255
225 238 255
225 238 255
225 238 255
225 238 255
225 238 255
225 238 255
209 220 238
50 53 72
0 0 45
0 0 45
0 0 44
0 0 43
0 0 43
0 0 43
0 0 43
0 0 43
0 0 42
0 0 42
0 0 42
0 0 42
0 0 42
0 0 42
0 0 42
0 0 42
0 0 42
0 0 42
0 0 42
0 0 42
0 0 42
0 0 42
0 0 42
0 0 42
0 0 43
0 0 45
0 0 45
0 0 45
0 0 45
0 0 45
0 0 44
0 0 42
0 0 42
0 0 42
0 0 42
0 0 42
0 0 42
0 0 42
0 0 42
0 0 42
0 0 42
0 0 42
0 0 42
0 0 42
0 0 42
0 0 42
0 0 42
0 0 42
0 0 42
0 0 42
0 0 42
0 0 42
0 0 42
0 0 42
0 0 42
0 0 42
0 0 42
0 0 42
0 0 42
0 0 42
0 0 42
0 0 42
0 0 42
0 0 42
0 0 42
0 0 42
0 0 42
0 0 42
0 0 42
0 0 42
0 0 43
0 0 45
0 0 45
0 0 45
0 0 45
0 0 45
0 0 45
0 0 45
0 0 45
0 0 45
0 0 45
0 0 45
0 0 45
0 0 45
0 0 45
0 0 45
0 0 45
0 0 45
0 0 45
0 0 45
0 0 45
0 0 46
0 0 48
0 0 48
0 0 48
0 0 48
0 0 48
0 0 50
0 0 50
0 0 53
0 0 54
0 0 56
0 0 57
0 0 59
0 0 64
0 11 71
0 9 74
0 21 84
0 27 89
0 24 86
0 18 83
9 24 62
42 59 11
61 67 45
195 200 209
148 147 139
100 87 56
85 75 45
78 75 49
83 77 53
85 77 46
85 78 50
75 73 44
77 79 46
70 76 40
65 73 35
59 70 32
49 59 21
46 58 18
49 61 22
53 65 24
51 60 22
48 61 25
38 92 85
7 105 135
0 72 116
0 41 102
0 24 88
0 7 69
0 0 56
0 0 49
0 0 49
0 0 48
0 0 51
0 0 54
0 0 55
0 0 53
0 0 54
0 0 57
0 0 58
0 0 56
0 0 59
0 0 62
0 0 57
0 0 52
0 0 49
0 0 46
0 0 48
0 0 51
0 0 51
0 0 52
0 0 52
78 82 102
217 229 247
225 238 255
225 238 255
225 238 255
225 238 255
225 238 255
225 238 255
225 238 255
225 238 255
225 238 255
225 238 255
225 238 255
225 238 255
225 238 255
225 238 255
225 238 255
225 238 255
225 238 255
225 238 255
225 238 255
225 238 255
225 238 255
225 238 255
225 238 255
225 238 255
225 238 255
225 238 255
225 238 255
225 238 255
225 238 255
225 238 255
225 238 255
225 238 255
225 238 255
225 238 255
225 238 255
225 238 255
225 238 255
225 238 255
225 238 255
225 238 255
225 238 255
225 238 255
225 238 255
225 238 255
225 238 255
225 238 255
225 238 255
225 238 255
225 238 255
225 238 255
225 238 255
225 238 255
225 238 255
225 238 255
225 238 255
225 238 255
225 238 255
225 238 255
225 238 255
225 238 255
225 238 255
225 238 255
225 238 255
225 238 255
225 238 255
225 238 255
225 238 255
225 238 255
225 238 255
225 238 255
225 238 255
225 238 255
225 238 255
225 238 255
225 238 255
225 238 255
225 238 255
225 238 255
225 238 255
225 238 255
225 238 255
225 238 255
225 238 255
225 238 255
225 238 255
225 238 255
225 238 255
225 238 255
225 238 255
225 238 255
225 238 255
225 238 255
225 238 255
225 238 255
225 238 255
225 238 255
225 238 255
225 238 255
225 238 255
225 238 255
225 238 255
225 238 255
225 238 255
225 238 255
225 238 255
225 238 255
225 238 255
225 238 255
225 238 255
225 238 255
225 238 255
225 238 255
225 238 255
225 238 255
225 238 255
225 238 255
225 238 255
225 238 255
225 238 255
225 238 255
225 238 255
225 238 255
225 238 255
225 238 255
225 238 255
225 238 255
225 238 255
225 238 255
225 238 255
225 238 255
225 238 255
225 238 255
225 238 255
225 238 255
225 238 255
225 238 255
225 238 255
225 238 255
225 238 255
225 238 255
225 238 255
225 238 255
225 238 255
225 238 255
225 238 255
225 238 255
225 238 255
225 238 255
225 238 255
225 238 255
225 238 255
225 238 255
225 238 255
225 238 255
225 238 255
225 238 255
225 238 255
225 238 255
225 238 255
225 238 255
225 238 255
225 238 255
225 238 255
225 238 255
225 238 255
225 238 255
225 238 255
225 238 255
225 238 255
225 238 255
225 238 255
225 238 255
225 238 255
225 238 255
225 238 255
225 238 255
225 238 255
225 238 255
225 238 255
225 238 255
225 238 255
225 238 255
225 238 255
225 238 255
225 238 255
225 238 255
225 238 255
225 238 255
225 238 255
225 238 255
225 238 255
225 238 255
225 238 255
225 238 255
225 238 255
225 238 255
225 238 255
225 238 255
225 238 255
225 238 255
225 238 255
225 238 255
225 238 255
225 238 255
225 238 255
225 238 255
225 238 255
225 238 255
225 238 255
225 238 255
225 238 255
225 238 255
225 238 255
225 238 255
225 238 255
225 238 255
225 238 255
225 238 255
225 238 255
225 238 255
225 238 255
225 238 255
225 238 255
225 238 255
225 238 255
225 238 255
225 238 255
225 238 255
225 238 255
225 238 255
225 238 255
225 238 255
225 238 255
225 238 255
225 238 255
201 213 229
59 63 81
0 0 45
0 0 45
0 0 45
0 0 45
0 0 45
0 0 45
0 0 45
0 0 43
0 0 42
0 0 42
0 0 42
0 0 42
0 0 42
0 0 42
0 0 42
0 0 42
0 0 42
0 0 42
0 0 42
0 0 42
0 0 44
0 0 44
0 0 43
0 0 43
0 0 45
0 0 45
0 0 46
0 0 45
0 0 45
0 0 45
0 0 42
0 0 42
0 0 42
0 0 42
0 0 42
0 0 42
0 0 42
0 0 42
0 0 42
0 0 42
0 0 42
0 0 42
0 0 42
0 0 42
0 0 42
0 0 42
0 0 42
0 0 42
0 0 42
0 0 42
0 0 42
0 0 42
0 0 42
0 0 42
0 0 42
0 0 42
0 0 42
0 0 42
0 0 42
0 0 42
0 0 42
0 0 42
0 0 42
0 0 42
0 0 42
0 0 42
0 0 42
0 0 42
0 0 44
0 0 44
0 0 45
0 0 45
0 0 45
0 0 45
0 0 45
0 0 45
0 0 45
0 0 45
0 0 45
0 0 45
0 0 45
0 0 45
0 0 45
0 0 45
0 0 45
0 0 45
0 0 45
0 0 45
0 0 45
0 0 45
0 0 45
0 0 47
0 0 48
0 0 48
0 0 48
0 0 48
0 0 50
0 0 51
0 0 53
0 0 59
0 0 62
0 0 62
0 0 63
0 8 69
0 13 73
0 12 76
0 21 83
0 18 81
0 11 74
3 16 65
32 49 19
46 55 23
131 136 132
223 225 233
119 110 84
105 90 58
90 82 51
82 77 51
94 86 59
91 81 53
72 70 43
71 71 42
74 76 41
75 79 42
72 79 40
61 70 32
52 61 26
48 57 19
39 51 10
42 55 17
42 55 13
47 62 20
35 80 80
6 56 112
0 35 94
0 23 81
0 6 67
0 0 60
0 0 56
0 0 55
0 0 52
0 0 51
0 0 54
0 0 59
0 0 60
0 0 57
0 0 58
0 0 60
0 0 57
0 0 58
0 0 61
0 0 59
0 0 54
0 0 55
0 0 50
0 0 49
0 0 52
0 0 52
0 0 55
0 0 54
50 53 79
206 218 235
225 238 255
225 238 255
225 238 255
225 238 255
225 238 255
225 238 255
225 238 255
225 238 255
225 238 255
225 238 255
225 238 255
225 238 255
225 238 255
225 238 255
225 238 255
225 238 255
225 238 255
225 238 255
225 238 255
225 238 255
225 238 255
225 238 255
225 238 255
225 238 255
225 238 255
225 238 255
225 238 255
225 238 255
225 238 255
225 238 255
225 238 255
225 238 255
225 238 255
225 238 255
225 238 255
225 238 255
225 238 255
225 238 255
225 238 255
225 238 255
225 238 255
225 238 255
225 238 255
225 238 255
225 238 255
225 238 255
225 238 255
225 238 255
225 238 255
225 238 255
225 238 255
225 238 255
225 238 255
225 238 255
225 238 255
225 238 255
225 238 255
225 238 255
225 238 255
225 238 255
225 238 255
225 238 255
225 238 255
225 238 255
225 238 255
225 238 255
225 238 255
225 238 255
225 238 255
225 238 255
225 238 255
225 238 255
225 238 255
225 238 255
225 238 255
225 238 255
225 238 255
225 238 255
225 238 255
225 238 255
225 238 255
225 238 255
225 238 255
225 238 255
225 238 255
225 238 255
225 238 255
225 238 255
225 238 255
225 238 255
225 238 255
225 238 255
225 238 255
225 238 255
225 238 255
225 238 255
225 238 255
225 238 255
225 238 255
225 238 255
225 238 255
225 238 255
225 238 255
225 238 255
225 238 255
225 238 255
225 238 255
225 238 255
225 238 255
225 238 255
225 238 255
225 238 255
225 238 255
225 238 255
225 238 255
225 238 255
225 238 255
225 238 255
225 238 255
225 238 255
225 238 255
225 238 255
225 238 255
225 238 255
225 238 255
225 238 255
225 238 255
225 238 255
225 238 255
225 238 255
225 238 255
225 238 255
225 238 255
225 238 255
225 238 255
225 238 255
225 238 255
225 238 255
225 238 255
225 238 255
225 238 255
225 238 255
225 238 255
225 238 255
225 238 255
225 238 255
225 238 255
225 238 255
225 238 255
225 238 255
225 238 255
225 238 255
225 238 255
225 238 255
225 238 255
225 238 255
225 238 255
225 238 255
225 238 255
225 238 255
225 238 255
225 238 255
225 238 255
225 238 255
225 238 255
225 238 255
225 238 255
225 238 255
225 238 255
225 238 255
225 238 255
225 238 255
225 238 255
225 238 255
225 238 255
225 238 255
225 238 255
225 238 255
225 238 255
225 238 255
225 238 255
225 238 255
225 238 255
225 238 255
225 238 255
225 238 255
225 238 255
225 238 255
225 238 255
225 238 255
225 238 255
225 238 255
225 238 255
225 238 255
225 238 255
225 238 255
225 238 255
225 238 255
225 238 255
225 238 255
225 238 255
225 238 255
225 238 255
225 238 255
225 238 255
225 238 255
225 238 255
225 238 255
225 238 255
225 238 255
225 238 255
225 238 255
225 238 255
225 238 255
225 238 255
225 238 255
225 238 255
225 238 255
225 238 255
225 238 255
225 238 255
225 238 255
225 238 255
225 238 255
225 238 255
225 238 255
225 238 255
225 238 255
225 238 255
225 238 255
225 238 255
225 238 255
225 238 255
225 238 255
225 238 255
225 238 255
225 238 255
177 187 203
39 41 64
0 0 45
0 0 45
0 0 45
0 0 45
0 0 45
0 0 44
0 0 44
0 0 44
0 0 43
0 0 45
0 0 44
0 0 42
0 0 42
0 0 42
0 0 43
0 0 42
0 0 42
0 0 42
0 0 42
0 0 44
0 0 45
0 0 45
0 0 45
0 0 45
0 0 45
0 0 45
0 0 45
0 0 45
0 0 44
0 0 43
0 0 43
0 0 42
0 0 43
0 0 43
0 0 42
0 0 42
0 0 42
0 0 42
0 0 42
0 0 42
0 0 42
0 0 42
0 0 42
0 0 42
0 0 42
0 0 42
0 0 42
0 0 42
0 0 42
0 0 42
0 0 42
0 0 42
0 0 42
0 0 42
0 0 42
0 0 42
0 0 42
0 0 42
0 0 42
0 0 42
0 0 42
0 0 42
0 0 42
0 0 42
0 0 42
0 0 42
0 0 42
0 0 45
0 0 45
0 0 45
0 0 45
0 0 45
0 0 45
0 0 45
0 0 45
0 0 45
0 0 45
0 0 45
0 0 45
0 0 45
0 0 45
0 0 45
0 0 45
0 0 45
0 0 48
0 0 48
0 0 48
0 0 48
0 0 47
0 0 46
0 0 47
0 0 48
0 0 48
0 0 48
0 0 48
0 0 50
0 0 51
0 0 55
0 0 60
0 0 62
0 0 63
0 0 64
0 4 68
0 4 73
0 9 75
0 19 81
0 12 77
0 7 69
25 44 34
44 56 17
90 93 90
205 213 221
172 170 170
110 97 68
104 89 56
92 84 55
85 81 54
89 80 51
83 74 45
66 64 38
67 68 38
73 74 41
74 77 44
73 77 39
74 79 39
68 75 38
57 67 29
55 66 27
50 64 25
49 63 20
47 61 26
26 52 80
0 35 94
0 18 77
0 4 69
0 0 59
0 0 56
0 0 59
0 0 58
0 0 54
0 0 55
0 0 59
0 0 61
0 0 59
0 0 58
0 0 60
0 0 60
0 0 58
0 0 59
0 0 62
0 0 56
0 0 57
0 0 57
0 0 54
0 0 52
0 0 56
0 0 57
0 0 56
22 23 63
186 196 213
225 238 255
225 238 255
225 238 255
225 238 255
225 238 255
225 238 255
225 238 255
225 238 255
225 238 255
225 238 255
225 238 255
225 238 255
225 238 255
225 238 255
225 238 255
225 238 255
225 238 255
225 238 255
225 238 255
225 238 255
225 238 255
225 238 255
225 238 255
225 238 255
225 238 255
225 238 255
225 238 255
225 238 255
225 238 255
225 238 255
225 238 255
225 238 255
225 238 255
225 238 255
225 238 255
225 238 255
225 238 255
225 238 255
225 238 255
225 238 255
225 238 255
225 238 255
225 238 255
225 238 255
225 238 255
225 238 255
225 238 255
225 238 255
225 238 255
225 238 255
225 238 255
225 238 255
225 238 255
225 238 255
225 238 255
225 238 255
225 238 255
225 238 255
225 238 255
225 238 255
225 238 255
225 238 255
225 238 255
225 238 255
225 238 255
225 238 255
225 238 255
225 238 255
225 238 255
225 238 255
225 238 255
225 238 255
225 238 255
225 238 255
225 238 255
225 238 255
225 238 255
225 238 255
225 238 255
225 238 255
225 238 255
225 238 255
225 238 255
225 238 255
225 238 255
225 238 255
225 238 255
225 238 255
225 238 255
225 238 255
225 238 255
225 238 255
225 238 255
225 238 255
225 238 255
225 238 255
225 238 255
225 238 255
225 238 255
225 238 255
225 238 255
225 238 255
225 238 255
225 238 255
225 238 255
225 238 255
225 238 255
225 238 255
225 238 255
225 238 255
225 238 255
225 238 255
225 238 255
225 238 255
225 238 255
225 238 255
225 238 255
225 238 255
225 238 255
225 238 255
225 238 255
225 238 255
225 238 255
225 238 255
225 238 255
225 238 255
225 238 255
225 238 255
225 238 255
225 238 255
225 238 255
225 238 255
225 238 255
225 238 255
225 238 255
225 238 255
225 238 255
225 238 255
225 238 255
225 238 255
225 238 255
225 238 255
225 238 255
225 238 255
225 238 255
225 238 255
225 238 255
225 238 255
225 238 255
225 238 255
225 238 255
225 238 255
225 238 255
225 238 255
225 238 255
225 238 255
225 238 255
225 238 255
225 238 255
225 238 255
225 238 255
225 238 255
225 238 255
225 238 255
225 238 255
225 238 255
225 238 255
225 238 255
225 238 255
225 238 255
225 238 255
225 238 255
225 238 255
225 238 255
225 238 255
225 238 255
225 238 255
225 238 255
225 238 255
225 238 255
225 238 255
225 238 255
225 238 255
225 238 255
225 238 255
225 238 255
225 238 255
225 238 255
225 238 255
225 238 255
225 238 255
225 238 255
225 238 255
225 238 255
225 238 255
225 238 255
225 238 255
225 238 255
225 238 255
225 238 255
225 238 255
225 238 255
225 238 255
225 238 255
225 238 255
225 238 255
225 238 255
225 238 255
225 238 255
225 238 255
225 238 255
225 238 255
225 238 255
225 238 255
225 238 255
225 238 255
225 238 255
225 238 255
225 238 255
225 238 255
225 238 255
225 238 255
225 238 255
225 238 255
225 238 255
225 238 255
225 238 255
225 238 255
225 238 255
225 238 255
225 238 255
225 238 255
225 238 255
225 238 255
225 238 255
225 238 255
225 238 255
225 238 255
225 238 255
177 187 203
0 0 47
0 0 46
0 0 47
0 0 46
0 0 45
0 0 45
0 0 44
0 0 45
0 0 45
0 0 45
0 0 45
0 0 44
0 0 42
0 0 42
0 0 44
0 0 45
0 0 45
0 0 45
0 0 44
0 0 44
0 0 45
0 0 45
0 0 45
0 0 45
0 0 45
0 0 45
0 0 45
0 0 45
0 0 45
0 0 45
0 0 45
0 0 42
0 0 43
0 0 44
0 0 42
0 0 42
0 0 42
0 0 42
0 0 45
0 0 43
0 0 42
0 0 42
0 0 42
0 0 42
0 0 42
0 0 42
0 0 44
0 0 45
0 0 43
0 0 42
0 0 42
0 0 42
0 0 42
0 0 42
0 0 44
0 0 42
0 0 43
0 0 44
0 0 43
0 0 43
0 0 42
0 0 42
0 0 42
0 0 42
0 0 42
0 0 42
0 0 42
0 0 44
0 0 44
0 0 44
0 0 45
0 0 45
0 0 45
0 0 45
0 0 43
0 0 42
0 0 43
0 0 44
0 0 44
0 0 45
0 0 45
0 0 45
0 0 45
0 0 45
0 0 47
0 0 47
0 0 48
0 0 48
0 0 48
0 0 48
0 0 48
0 0 48
0 0 48
0 0 48
0 0 50
0 0 50
0 0 51
0 0 53
0 0 57
0 0 59
0 0 62
0 0 65
0 0 69
0 2 67
0 16 71
0 20 87
0 16 75
18 32 44
39 51 19
44 54 27
157 159 162
168 164 157
122 114 91
100 84 57
91 81 52
84 77 51
73 68 40
85 78 50
75 70 41
68 67 39
71 70 42
68 71 34
69 68 36
69 73 39
72 81 36
62 73 30
58 70 31
62 70 32
57 67 31
47 64 37
26 51 85
0 28 91
0 16 77
0 6 69
0 0 63
0 0 57
0 0 59
0 0 62
0 0 61
0 0 60
0 0 59
0 0 61
0 0 59
0 0 58
0 0 60
0 0 62
0 0 60
0 0 60
0 0 61
0 0 61
0 0 58
0 0 59
0 0 59
0 0 59
0 0 58
0 0 60
0 0 58
0 0 60
182 192 209
225 238 255
225 238 255
225 238 255
225 238 255
225 238 255
225 238 255
225 238 255
225 238 255
225 238 255
225 238 255
225 238 255
225 238 255
225 238 255
225 238 255
225 238 255
225 238 255
225 238 255
225 238 255
225 238 255
225 238 255
225 238 255
225 238 255
225 238 255
225 238 255
225 238 255
225 238 255
225 238 255
225 238 255
225 238 255
225 238 255
225 238 255
225 238 255
225 238 255
225 238 255
225 238 255
225 238 255
225 238 255
225 238 255
225 238 255
225 238 255
225 238 255
225 238 255
225 238 255
225 238 255
225 238 255
225 238 255
225 238 255
225 238 255
225 238 255
225 238 255
225 238 255
225 238 255
225 238 255
225 238 255
225 238 255
225 238 255
225 238 255
225 238 255
225 238 255
225 238 255
225 238 255
225 238 255
225 238 255
225 238 255
225 238 255
225 238 255
225 238 255
225 238 255
225 238 255
225 238 255
225 238 255
225 238 255
225 238 255
225 238 255
225 238 255
225 238 255
225 238 255
225 238 255
225 238 255
225 238 255
225 238 255
225 238 255
225 238 255
225 238 255
225 238 255
225 238 255
225 238 255
225 238 255
225 238 255
225 238 255
225 238 255
225 238 255
225 238 255
225 238 255
225 238 255
225 238 255
225 238 255
225 238 255
225 238 255
225 238 255
225 238 255
225 238 255
225 238 255
225 238 255
225 238 255
225 238 255
225 238 255
225 238 255
225 238 255
225 238 255
225 238 255
225 238 255
225 238 255
225 238 255
225 238 255
225 238 255
225 238 255
225 238 255
225 238 255
225 238 255
225 238 255
225 238 255
225 238 255
225 238 255
225 238 255
225 238 255
225 238 255
225 238 255
225 238 255
225 238 255
225 238 255
225 238 255
225 238 255
225 238 255
225 238 255
225 238 255
225 238 255
225 238 255
225 238 255
225 238 255
225 238 255
225 238 255
225 238 255
225 238 255
225 238 255
225 238 255
225 238 255
225 238 255
225 238 255
225 238 255
225 238 255
225 238 255
225 238 255
225 238 255
225 238 255
225 238 255
225 238 255
225 238 255
225 238 255
225 238 255
225 238 255
225 238 255
225 238 255
225 238 255
225 238 255
225 238 255
225 238 255
225 238 255
225 238 255
225 238 255
225 238 255
225 238 255
225 238 255
225 238 255
225 238 255
225 238 255
225 238 255
225 238 255
225 238 255
225 238 255
225 238 255
225 238 255
225 238 255
225 238 255
225 238 255
225 238 255
225 238 255
225 238 255
225 238 255
225 238 255
225 238 255
225 238 255
225 238 255
225 238 255
225 238 255
225 238 255
225 238 255
225 238 255
225 238 255
225 238 255
225 238 255
225 238 255
225 238 255
225 238 255
225 238 255
225 238 255
225 238 255
225 238 255
225 238 255
225 238 255
225 238 255
225 238 255
225 238 255
225 238 255
225 238 255
225 238 255
225 238 255
225 238 255
225 238 255
225 238 255
225 238 255
225 238 255
225 238 255
225 238 255
225 238 255
225 238 255
225 238 255
225 238 255
225 238 255
225 238 255
225 238 255
225 238 255
225 238 255
225 238 255
225 238 255
225 238 255
225 238 255
225 238 255
225 238 255
225 238 255
225 238 255
184 195 211
0 0 47
0 0 47
0 0 47
0 0 45
0 0 45
0 0 45
0 0 45
0 0 45
0 0 45
0 0 45
0 0 44
0 0 44
0 0 44
0 0 43
0 0 45
0 0 45
0 0 45
0 0 45
0 0 45
0 0 45
0 0 45
0 0 45
0 0 45
0 0 45
0 0 45
0 0 45
0 0 45
0 0 45
0 0 45
0 0 45
0 0 43
0 0 42
0 0 44
0 0 44
0 0 43
0 0 42
0 0 42
0 0 44
0 0 45
0 0 44
0 0 43
0 0 42
0 0 42
0 0 42
0 0 42
0 0 43
0 0 45
0 0 44
0 0 42
0 0 42
0 0 42
0 0 42
0 0 43
0 0 45
0 0 43
0 0 42
0 0 45
0 0 44
0 0 42
0 0 42
0 0 42
0 0 42
0 0 42
0 0 42
0 0 42
0 0 42
0 0 42
0 0 42
0 0 44
0 0 45
0 0 45
0 0 45
0 0 45
0 0 45
0 0 44
0 0 44
0 0 44
0 0 44
0 0 45
0 0 45
0 0 45
0 0 45
0 0 45
0 0 45
0 0 46
0 0 48
0 0 48
0 0 48
0 0 48
0 0 48
0 0 48
0 0 48
0 0 49
0 0 50
0 0 51
0 0 52
0 0 53
0 0 54
0 0 57
0 0 61
0 0 65
0 0 66
0 3 72
0 16 79
0 23 84
9 28 41
27 40 7
36 45 11
103 108 103
163 164 161
96 87 63
102 86 60
107 90 62
95 82 53
84 75 48
80 75 49
76 71 45
67 65 35
59 63 33
65 68 38
66 74 35
72 79 42
79 78 38
68 72 39
60 66 31
63 66 31
62 65 35
46 62 50
23 44 77
0 20 78
0 2 74
0 5 68
0 0 64
0 0 60
0 0 58
0 0 60
0 0 62
0 0 64
0 0 62
0 0 59
0 0 60
0 0 59
0 0 62
0 0 62
0 0 60
0 0 59
0 0 58
0 0 64
0 0 66
0 0 64
0 0 64
0 0 63
0 0 62
0 0 62
0 0 62
0 0 62
174 184 201
225 238 255
225 238 255
225 238 255
225 238 255
225 238 255
225 238 255
225 238 255
225 238 255
225 238 255
225 238 255
225 238 255
225 238 255
225 238 255
225 238 255
225 238 255
225 238 255
225 238 255
225 238 255
225 238 255
225 238 255
225 238 255
225 238 255
225 238 255
225 238 255
225 238 255
225 238 255
225 238 255
225 238 255
225 238 255
225 238 255
225 238 255
225 238 255
225 238 255
225 238 255
225 238 255
225 238 255
225 238 255
225 238 255
225 238 255
225 238 255
225 238 255
225 238 255
225 238 255
225 238 255
225 238 255
225 238 255
225 238 255
225 238 255
225 238 255
225 238 255
225 238 255
225 238 255
225 238 255
225 238 255
225 238 255
225 238 255
225 238 255
225 238 255
225 238 255
225 238 255
225 238 255
225 238 255
225 238 255
225 238 255
225 238 255
225 238 255
225 238 255
225 238 255
225 238 255
225 238 255
225 238 255
225 238 255
225 238 255
225 238 255
225 238 255
225 238 255
225 238 255
225 238 255
225 238 255
225 238 255
225 238 255
225 238 255
225 238 255
225 238 255
225 238 255
225 238 255
225 238 255
225 238 255
225 238 255
225 238 255
225 238 255
225 238 255
225 238 255
225 238 255
225 238 255
225 238 255
225 238 255
225 238 255
225 238 255
225 238 255
225 238 255
225 238 255
225 238 255
225 238 255
225 238 255
225 238 255
225 238 255
225 238 255
225 238 255
225 238 255
225 238 255
225 238 255
225 238 255
225 238 255
225 238 255
225 238 255
225 238 255
225 238 255
225 238 255
225 238 255
225 238 255
225 238 255
225 238 255
225 238 255
225 238 255
225 238 255
225 238 255
225 238 255
225 238 255
225 238 255
225 238 255
225 238 255
225 238 255
225 238 255
225 238 255
225 238 255
225 238 255
225 238 255
225 238 255
225 238 255
225 238 255
225 238 255
225 238 255
225 238 255
225 238 255
225 238 255
225 238 255
225 238 255
225 238 255
225 238 255
225 238 255
225 238 255
225 238 255
225 238 255
225 238 255
225 238 255
225 238 255
225 238 255
225 238 255
225 238 255
225 238 255
225 238 255
225 238 255
225 238 255
225 238 255
225 238 255
225 238 255
225 238 255
225 238 255
225 238 255
225 238 255
225 238 255
225 238 255
225 238 255
225 238 255
225 238 255
225 238 255
225 238 255
225 238 255
225 238 255
225 238 255
225 238 255
225 238 255
225 238 255
225 238 255
225 238 255
225 238 255
225 238 255
225 238 255
225 238 255
225 238 255
225 238 255
225 238 255
225 238 255
225 238 255
225 238 255
225 238 255
225 238 255
225 238 255
225 238 255
225 238 255
225 238 255
225 238 255
225 238 255
225 238 255
225 238 255
225 238 255
225 238 255
225 238 255
225 238 255
225 238 255
225 238 255
225 238 255
225 238 255
225 238 255
225 238 255
225 238 255
225 238 255
225 238 255
225 238 255
225 238 255
225 238 255
225 238 255
225 238 255
225 238 255
225 238 255
225 238 255
225 238 255
225 238 255
225 238 255
225 238 255
225 238 255
225 238 255
225 238 255
225 238 255
225 238 255
225 238 255
225 238 255
225 238 255
225 238 255
225 238 255
225 238 255
225 238 255
169 178 194
0 0 48
0 0 48
0 0 47
0 0 45
0 0 45
0 0 45
0 0 45
0 0 47
0 0 47
0 0 46
0 0 44
0 0 45
0 0 45
0 0 45
0 0 45
0 0 45
0 0 44
0 0 45
0 0 45
0 0 44
0 0 44
0 0 45
0 0 45
0 0 45
0 0 45
0 0 45
0 0 45
0 0 45
0 0 45
0 0 45
0 0 42
0 0 42
0 0 44
0 0 44
0 0 45
0 0 44
0 0 43
0 0 45
0 0 45
0 0 43
0 0 42
0 0 42
0 0 42
0 0 43
0 0 45
0 0 45
0 0 45
0 0 42
0 0 42
0 0 42
0 0 42
0 0 44
0 0 45
0 0 44
0 0 44
0 0 45
0 0 45
0 0 44
0 0 43
0 0 43
0 0 43
0 0 43
0 0 43
0 0 43
0 0 43
0 0 43
0 0 43
0 0 44
0 0 45
0 0 45
0 0 45
0 0 45
0 0 45
0 0 45
0 0 45
0 0 45
0 0 45
0 0 45
0 0 45
0 0 45
0 0 45
0 0 45
0 0 45
0 0 45
0 0 46
0 0 47
0 0 48
0 0 48
0 0 48
0 0 48
0 0 48
0 0 51
0 0 51
0 0 51
0 0 53
0 0 53
0 0 53
0 0 56
0 0 59
0 0 62
0 0 60
0 3 70
0 20 76
0 20 80
21 33 39
37 45 15
45 52 29
112 117 109
130 126 115
100 88 58
101 80 53
106 90 62
92 81 53
79 70 45
77 70 46
71 68 43
66 69 41
57 64 29
52 57 28
63 74 34
64 82 45
70 77 41
63 68 42
51 63 56
34 52 67
23 37 86
7 28 82
0 16 83
0 15 72
0 5 69
0 0 65
0 0 60
0 0 58
0 0 57
0 0 60
0 0 63
0 0 66
0 0 67
0 0 62
0 0 62
0 0 63
0 0 64
0 0 64
0 0 65
0 0 63
0 0 67
0 3 70
0 2 69
0 0 67
0 0 66
0 0 64
0 0 65
0 0 65
0 0 63
153 161 179
225 238 255
225 238 255
225 238 255
225 238 255
225 238 255
225 238 255
225 238 255
225 238 255
225 238 255
225 238 255
225 238 255
225 238 255
225 238 255
225 238 255
225 238 255
225 238 255
225 238 255
225 238 255
225 238 255
225 238 255
225 238 255
225 238 255
225 238 255
225 238 255
225 238 255
225 238 255
225 238 255
225 238 255
225 238 255
225 238 255
225 238 255
225 238 255
225 238 255
225 238 255
225 238 255
225 238 255
225 238 255
225 238 255
225 238 255
225 238 255
225 238 255
225 238 255
225 238 255
225 238 255
225 238 255
225 238 255
225 238 255
225 238 255
225 238 255
225 238 255
225 238 255
225 238 255
225 238 255
225 238 255
225 238 255
225 238 255
225 238 255
225 238 255
225 238 255
225 238 255
225 238 255
225 238 255
225 238 255
225 238 255
225 238 255
225 238 255
225 238 255
225 238 255
225 238 255
225 238 255
225 238 255
225 238 255
225 238 255
225 238 255
225 238 255
225 238 255
225 238 255
225 238 255
225 238 255
225 238 255
225 238 255
225 238 255
225 238 255
225 238 255
225 238 255
225 238 255
225 238 255
225 238 255
225 238 255
225 238 255
225 238 255
225 238 255
225 238 255
225 238 255
225 238 255
225 238 255
225 238 255
225 238 255
225 238 255
225 238 255
225 238 255
225 238 255
225 238 255
225 238 255
225 238 255
225 238 255
225 238 255
225 238 255
225 238 255
225 238 255
225 238 255
225 238 255
225 238 255
225 238 255
225 238 255
225 238 255
225 238 255
225 238 255
225 238 255
225 238 255
225 238 255
225 238 255
225 238 255
225 238 255
225 238 255
225 238 255
225 238 255
225 238 255
225 238 255
225 238 255
225 238 255
225 238 255
225 238 255
225 238 255
225 238 255
225 238 255
225 238 255
225 238 255
225 238 255
225 238 255
225 238 255
225 238 255
225 238 255
225 238 255
225 238 255
225 238 255
225 238 255
225 238 255
225 238 255
225 238 255
225 238 255
225 238 255
225 238 255
225 238 255
225 238 255
225 238 255
225 238 255
225 238 255
225 238 255
225 238 255
225 238 255
225 238 255
225 238 255
225 238 255
225 238 255
225 238 255
225 238 255
225 238 255
225 238 255
225 238 255
225 238 255
225 238 255
225 238 255
225 238 255
225 238 255
225 238 255
225 238 255
225 238 255
225 238 255
225 238 255
225 238 255
225 238 255
225 238 255
225 238 255
225 238 255
225 238 255
225 238 255
225 238 255
225 238 255
225 238 255
225 238 255
225 238 255
225 238 255
225 238 255
225 238 255
225 238 255
225 238 255
225 238 255
225 238 255
225 238 255
225 238 255
225 238 255
225 238 255
225 238 255
225 238 255
225 238 255
225 238 255
225 238 255
225 238 255
225 238 255
225 238 255
225 238 255
225 238 255
225 238 255
225 238 255
225 238 255
225 238 255
225 238 255
225 238 255
225 238 255
225 238 255
225 238 255
225 238 255
225 238 255
225 238 255
225 238 255
225 238 255
225 238 255
225 238 255
225 238 255
225 238 255
225 238 255
225 238 255
225 238 255
225 238 255
225 238 255
225 238 255
225 238 255
225 238 255
225 238 255
225 238 255
225 238 255
225 238 255
225 238 255
225 238 255
159 168 184
0 0 47
0 0 49
0 0 48
0 0 45
0 0 45
0 0 45
0 0 47
0 0 48
0 0 48
0 0 47
0 0 47
0 0 45
0 0 45
0 0 44
0 0 45
0 0 44
0 0 45
0 0 45
0 0 45
0 0 45
0 0 47
0 0 47
0 0 45
0 0 45
0 0 49
0 0 46
0 0 45
0 0 45
0 0 43
0 0 43
0 0 43
0 0 44
0 0 43
0 0 43
0 0 44
0 0 43
0 0 44
0 0 42
0 0 42
0 0 42
0 0 42
0 0 42
0 0 42
0 0 45
0 0 45
0 0 45
0 0 43
0 0 42
0 0 42
0 0 42
0 0 43
0 0 45
0 0 43
0 0 42
0 0 42
0 0 42
0 0 42
0 0 44
0 0 45
0 0 45
0 0 45
0 0 45
0 0 45
0 0 45
0 0 45
0 0 45
0 0 45
0 0 45
0 0 45
0 0 45
0 0 45
0 0 45
0 0 45
0 0 45
0 0 45
0 0 45
0 0 45
0 0 45
0 0 45
0 0 45
0 0 45
0 0 45
0 0 45
0 0 45
0 0 47
0 0 48
0 0 48
0 0 48
0 0 48
0 0 48
0 0 50
0 0 51
0 0 52
0 0 53
0 0 54
0 0 56
0 0 57
0 0 58
0 0 63
0 0 67
0 0 78
0 6 75
3 18 76
30 46 22
50 58 27
67 76 58
131 134 131
134 129 117
100 88 58
109 91 63
97 84 57
86 77 49
79 71 45
71 66 42
67 64 39
63 63 36
56 61 33
54 58 30
75 75 35
38 82 85
14 49 98
0 27 88
0 25 90
0 24 88
0 18 80
0 16 78
0 15 77
0 7 70
0 0 67
0 0 66
0 0 63
0 0 58
0 0 58
0 0 63
0 0 65
0 0 69
0 0 68
0 0 67
0 0 66
0 0 63
0 0 66
0 0 66
0 0 67
0 0 69
0 7 72
0 7 72
0 4 70
0 0 69
0 0 67
0 0 66
0 0 66
0 0 64
158 166 184
226 238 255
225 238 255
226 238 255
225 238 255
225 238 255
225 238 255
225 238 255
225 238 255
225 238 255
225 238 255
225 238 255
225 238 255
225 238 255
225 238 255
225 238 255
225 238 255
225 238 255
225 238 255
225 238 255
225 238 255
225 238 255
225 238 255
225 238 255
225 238 255
225 238 255
225 238 255
225 238 255
225 238 255
225 238 255
225 238 255
225 238 255
225 238 255
225 238 255
225 238 255
225 238 255
225 238 255
225 238 255
225 238 255
225 238 255
225 238 255
225 238 255
225 238 255
225 238 255
225 238 255
225 238 255
225 238 255
225 238 255
225 238 255
225 238 255
225 238 255
225 238 255
225 238 255
225 238 255
225 238 255
225 238 255
225 238 255
225 238 255
225 238 255
225 238 255
225 238 255
225 238 255
225 238 255
225 238 255
225 238 255
225 238 255
225 238 255
225 238 255
225 238 255
225 238 255
225 238 255
225 238 255
225 238 255
225 238 255
225 238 255
225 238 255
225 238 255
225 238 255
225 238 255
225 238 255
225 238 255
225 238 255
225 238 255
225 238 255
225 238 255
225 238 255
225 238 255
225 238 255
225 238 255
225 238 255
225 238 255
225 238 255
225 238 255
225 238 255
225 238 255
225 238 255
225 238 255
225 238 255
225 238 255
225 238 255
225 238 255
225 238 255
225 238 255
225 238 255
225 238 255
225 238 255
225 238 255
225 238 255
225 238 255
225 238 255
225 238 255
225 238 255
225 238 255
225 238 255
225 238 255
225 238 255
225 238 255
225 238 255
225 238 255
225 238 255
225 238 255
225 238 255
225 238 255
225 238 255
225 238 255
225 238 255
225 238 255
225 238 255
225 238 255
225 238 255
225 238 255
225 238 255
225 238 255
225 238 255
225 238 255
225 238 255
225 238 255
225 238 255
225 238 255
225 238 255
225 238 255
225 238 255
225 238 255
225 238 255
225 238 255
225 238 255
225 238 255
225 238 255
225 238 255
225 238 255
225 238 255
225 238 255
225 238 255
225 238 255
225 238 255
225 238 255
225 238 255
225 238 255
225 238 255
225 238 255
225 238 255
225 238 255
225 238 255
225 238 255
225 238 255
225 238 255
225 238 255
225 238 255
225 238 255
225 238 255
225 238 255
225 238 255
225 238 255
225 238 255
225 238 255
225 238 255
225 238 255
225 238 255
225 238 255
225 238 255
225 238 255
225 238 255
225 238 255
225 238 255
225 238 255
225 238 255
225 238 255
225 238 255
225 238 255
225 238 255
225 238 255
225 238 255
226 238 255
226 238 255
226 238 255
226 238 255
226 238 255
226 238 255
226 238 255
226 238 255
226 238 255
226 238 255
226 238 255
226 238 255
226 238 255
226 238 255
226 238 255
226 238 255
226 238 255
226 238 255
226 238 255
226 238 255
226 238 255
226 238 255
226 238 255
226 238 255
226 238 255
226 238 255
226 238 255
226 238 255
226 238 255
226 238 255
226 238 255
226 238 255
226 238 255
226 238 255
226 238 255
226 238 255
226 238 255
226 238 255
226 238 255
226 238 255
226 238 255
226 238 255
226 238 255
226 238 255
226 238 255
226 238 255
226 238 255
226 238 255
226 238 255
226 238 255
226 238 255
226 238 255
226 238 255
226 238 255
226 238 255
226 238 255
169 178 194
0 0 48
0 0 50
0 0 48
0 0 46
0 0 45
0 0 45
0 0 48
0 0 48
0 0 48
0 0 49
0 0 50
0 0 48
0 0 45
0 0 45
0 0 47
0 0 47
0 0 45
0 0 45
0 0 45
0 0 45
0 0 45
0 0 45
0 0 45
0 0 46
0 0 47
0 0 45
0 0 45
0 0 44
0 0 45
0 0 45
0 0 43
0 0 42
0 0 42
0 0 42
0 0 42
0 0 42
0 0 42
0 0 42
0 0 42
0 0 42
0 0 42
0 0 42
0 0 42
0 0 43
0 0 43
0 0 43
0 0 42
0 0 42
0 0 44
0 0 42
0 0 43
0 0 44
0 0 44
0 0 43
0 0 43
0 0 43
0 0 44
0 0 45
0 0 45
0 0 45
0 0 45
0 0 45
0 0 45
0 0 45
0 0 45
0 0 45
0 0 45
0 0 45
0 0 45
0 0 45
0 0 45
0 0 45
0 0 45
0 0 45
0 0 45
0 0 45
0 0 45
0 0 45
0 0 45
0 0 45
0 0 45
0 0 46
0 0 48
0 0 48
0 0 48
0 0 48
0 0 48
0 0 48
0 0 48
0 0 51
0 0 53
0 0 53
0 0 54
0 0 58
0 0 58
0 0 58
0 0 58
0 0 63
0 1 67
0 8 64
0 0 62
0 20 77
32 44 29
42 54 30
76 79 66
94 88 83
92 85 58
92 82 53
90 78 51
94 83 56
98 87 56
80 73 49
73 68 46
65 64 40
61 62 34
53 57 30
57 63 36
56 78 71
4 54 102
0 23 87
0 20 84
0 24 85
0 21 83
0 17 77
0 15 77
0 8 69
0 0 66
0 3 68
0 7 70
0 0 65
0 0 57
0 0 62
0 0 66
0 0 67
0 0 68
0 0 70
0 0 69
0 0 68
0 0 66
0 0 68
0 0 67
0 0 68
0 4 69
0 5 71
0 0 70
0 1 70
0 0 68
0 0 65
0 0 65
0 0 64
151 159 177
226 238 255
226 238 255
226 238 255
226 238 255
226 238 255
226 238 255
226 238 255
226 238 255
226 238 255
226 238 255
226 238 255
226 238 255
226 238 255
226 238 255
226 238 255
226 238 255
226 238 255
226 238 255
226 238 255
226 238 255
226 238 255
226 238 255
226 238 255
226 238 255
226 238 255
226 238 255
226 238 255
226 238 255
226 238 255
226 238 255
226 238 255
226 238 255
226 238 255
226 238 255
226 238 255
226 238 255
226 238 255
226 238 255
226 238 255
226 238 255
226 238 255
226 238 255
226 238 255
226 238 255
226 238 255
226 238 255
226 238 255
226 238 255
226 238 255
226 238 255
226 238 255
226 238 255
225 238 255
226 238 255
226 238 255
225 238 255
225 238 255
225 238 255
225 238 255
225 238 255
225 238 255
225 238 255
225 238 255
225 238 255
225 238 255
225 238 255
225 238 255
225 238 255
225 238 255
225 238 255
225 238 255
225 238 255
225 238 255
225 238 255
225 238 255
225 238 255
225 238 255
225 238 255
225 238 255
225 238 255
225 238 255
225 238 255
225 238 255
225 238 255
225 238 255
225 238 255
225 238 255
225 238 255
225 238 255
225 238 255
225 238 255
225 238 255
225 238 255
225 238 255
225 238 255
225 238 255
225 238 255
225 238 255
225 238 255
225 238 255
225 238 255
225 238 255
225 238 255
225 238 255
225 238 255
225 238 255
225 238 255
225 238 255
225 238 255
225 238 255
225 238 255
225 238 255
225 238 255
225 238 255
225 238 255
225 238 255
225 238 255
225 238 255
225 238 255
225 238 255
225 238 255
225 238 255
225 238 255
225 238 255
225 238 255
225 238 255
225 238 255
225 238 255
225 238 255
225 238 255
225 238 255
225 238 255
225 238 255
225 238 255
225 238 255
225 238 255
225 238 255
225 238 255
225 238 255
225 238 255
225 238 255
225 238 255
225 238 255
225 238 255
225 238 255
225 238 255
225 238 255
225 238 255
225 238 255
225 238 255
225 238 255
225 238 255
225 238 255
225 238 255
225 238 255
226 238 255
226 238 255
225 238 255
226 238 255
226 238 255
226 238 255
226 238 255
226 238 255
226 238 255
226 238 255
226 238 255
226 238 255
226 238 255
226 238 255
226 238 255
226 238 255
226 238 255
226 238 255
226 238 255
226 238 255
226 238 255
226 238 255
226 238 255
226 238 255
226 238 255
226 238 255
226 238 255
226 238 255
226 238 255
226 238 255
226 238 255
226 238 255
226 238 255
226 238 255
226 238 255
226 238 255
226 238 255
226 238 255
226 238 255
226 238 255
226 238 255
226 238 255
226 238 255
226 238 255
226 238 255
226 238 255
226 238 255
226 238 255
226 238 255
226 238 255
226 238 255
226 238 255
226 238 255
226 238 255
226 238 255
226 238 255
226 238 255
226 238 255
226 238 255
226 238 255
226 238 255
226 238 255
226 238 255
226 238 255
226 238 255
226 238 255
226 238 255
226 238 255
226 238 255
226 238 255
226 238 255
226 238 255
226 238 255
226 238 255
226 238 255
226 238 255
226 238 255
226 238 255
226 238 255
226 238 255
226 238 255
226 238 255
226 238 255
226 238 255
226 238 255
226 238 255
226 238 255
226 238 255
226 238 255
226 238 255
226 238 255
226 238 255
226 238 255
226 238 255
161 170 186
0 0 49
0 0 51
0 0 48
0 0 48
0 0 46
0 0 45
0 0 48
0 0 48
0 0 49
0 0 52
0 0 53
0 0 50
0 0 48
0 0 48
0 0 48
0 0 47
0 0 45
0 0 47
0 0 46
0 0 46
0 0 45
0 0 45
0 0 45
0 0 45
0 0 45
0 0 45
0 0 45
0 0 45
0 0 45
0 0 45
0 0 42
0 0 42
0 0 42
0 0 42
0 0 42
0 0 42
0 0 42
0 0 42
0 0 42
0 0 42
0 0 42
0 0 42
0 0 42
0 0 42
0 0 42
0 0 42
0 0 43
0 0 45
0 0 43
0 0 43
0 0 44
0 0 45
0 0 45
0 0 45
0 0 45
0 0 45
0 0 45
0 0 45
0 0 45
0 0 45
0 0 45
0 0 45
0 0 45
0 0 45
0 0 45
0 0 45
0 0 45
0 0 45
0 0 45
0 0 45
0 0 45
0 0 45
0 0 45
0 0 45
0 0 45
0 0 45
0 0 45
0 0 45
0 0 46
0 0 48
0 0 48
0 0 48
0 0 48
0 0 48
0 0 48
0 0 48
0 0 48
0 0 48
0 0 52
0 0 53
0 0 53
0 0 54
0 0 59
0 0 60
0 0 59
0 0 60
0 0 64
0 0 65
0 0 73
0 5 66
19 37 21
40 54 18
55 68 60
104 107 99
70 62 34
84 72 45
85 72 46
92 76 51
97 79 52
93 79 52
89 78 47
82 73 44
65 68 45
58 67 37
58 65 33
61 69 45
30 59 84
0 22 86
0 26 88
0 28 90
0 23 86
0 21 81
0 18 78
0 8 70
0 7 70
0 0 69
0 9 71
0 8 72
0 0 62
0 0 65
0 0 68
0 0 68
0 6 68
0 4 69
0 0 69
0 6 71
0 0 69
0 0 66
0 0 68
0 11 72
0 5 70
0 8 71
0 0 70
0 0 69
0 0 67
0 0 62
0 0 64
0 0 64
153 161 179
226 238 255
226 238 255
226 238 255
226 238 255
226 238 255
226 238 255
226 238 255
226 238 255
226 238 255
226 238 255
226 238 255
226 238 255
226 238 255
226 238 255
226 238 255
226 238 255
226 238 255
226 238 255
226 238 255
226 238 255
226 238 255
226 238 255
226 238 255
226 238 255
226 238 255
226 238 255
226 238 255
226 238 255
226 238 255
226 238 255
226 238 255
226 238 255
226 238 255
226 238 255
226 238 255
226 238 255
226 238 255
226 238 255
226 238 255
226 238 255
226 238 255
226 238 255
226 238 255
226 238 255
226 238 255
226 238 255
226 238 255
226 238 255
226 238 255
226 238 255
226 238 255
226 238 255
226 238 255
226 238 255
226 238 255
226 238 255
226 238 255
226 238 255
226 238 255
226 238 255
226 238 255
226 238 255
226 238 255
226 238 255
226 238 255
226 238 255
226 238 255
226 238 255
226 238 255
226 238 255
226 238 255
226 238 255
226 238 255
226 238 255
226 238 255
226 238 255
226 238 255
226 238 255
226 238 255
226 238 255
226 238 255
226 238 255
226 238 255
226 238 255
226 238 255
226 238 255
226 238 255
226 238 255
226 238 255
226 238 255
226 238 255
226 238 255
225 238 255
225 238 255
225 238 255
225 238 255
225 238 255
225 238 255
225 238 255
225 238 255
225 238 255
225 238 255
225 238 255
225 238 255
225 238 255
225 238 255
225 238 255
225 238 255
225 238 255
225 238 255
225 238 255
225 238 255
225 238 255
225 238 255
225 238 255
225 238 255
225 238 255
225 238 255
225 238 255
225 238 255
225 238 255
225 238 255
225 238 255
225 238 255
225 238 255
225 238 255
226 238 255
226 238 255
226 238 255
226 238 255
226 238 255
226 238 255
226 238 255
226 238 255
226 238 255
226 238 255
226 238 255
226 238 255
226 238 255
226 238 255
226 238 255
226 238 255
226 238 255
226 238 255
226 238 255
226 238 255
226 238 255
226 238 255
226 238 255
226 238 255
226 238 255
226 238 255
226 238 255
226 238 255
226 238 255
226 238 255
226 238 255
226 238 255
226 238 255
226 238 255
226 238 255
226 238 255
226 238 255
226 238 255
226 238 255
226 238 255
226 238 255
226 238 255
226 238 255
226 238 255
226 238 255
226 238 255
226 238 255
226 238 255
226 238 255
226 238 255
226 238 255
226 238 255
226 238 255
226 238 255
226 238 255
226 238 255
226 238 255
226 238 255
226 238 255
226 238 255
226 238 255
226 238 255
226 238 255
226 238 255
226 238 255
226 238 255
226 238 255
226 238 255
226 238 255
226 238 255
226 238 255
226 238 255
226 238 255
226 238 255
226 238 255
226 238 255
226 238 255
226 238 255
226 238 255
226 238 255
226 238 255
226 238 255
226 238 255
226 238 255
226 238 255
226 238 255
226 238 255
226 238 255
226 238 255
226 238 255
226 238 255
226 238 255
226 238 255
226 238 255
226 238 255
226 238 255
226 238 255
226 238 255
226 238 255
226 238 255
226 238 255
226 238 255
226 238 255
226 238 255
226 238 255
226 238 255
226 238 255
226 238 255
226 238 255
226 238 255
226 238 255
226 238 255
226 238 255
226 238 255
226 238 255
226 238 255
226 238 255
226 238 255
226 238 255
226 238 255
226 238 255
226 238 255
226 238 255
226 238 255
226 238 255
175 184 200
0 0 50
0 0 52
0 0 50
0 0 50
0 0 47
0 0 47
0 0 48
0 0 48
0 0 49
0 0 53
0 0 53
0 0 52
0 0 53
0 0 50
0 0 48
0 0 47
0 0 47
0 0 47
0 0 47
0 0 46
0 0 45
0 0 45
0 0 45
0 0 45
0 0 44
0 0 45
0 0 45
0 0 45
0 0 45
0 0 45
0 0 44
0 0 42
0 0 42
0 0 42
0 0 44
0 0 45
0 0 45
0 0 45
0 0 45
0 0 44
0 0 44
0 0 44
0 0 42
0 0 42
0 0 42
0 0 42
0 0 43
0 0 45
0 0 45
0 0 45
0 0 43
0 0 45
0 0 45
0 0 45
0 0 45
0 0 45
0 0 45
0 0 45
0 0 45
0 0 45
0 0 45
0 0 45
0 0 45
0 0 45
0 0 45
0 0 45
0 0 45
0 0 45
0 0 44
0 0 45
0 0 45
0 0 45
0 0 45
0 0 45
0 0 45
0 0 45
0 0 45
0 0 46
0 0 48
0 0 48
0 0 48
0 0 48
0 0 48
0 0 48
0 0 48
0 0 48
0 0 49
0 0 52
0 0 53
0 0 53
0 0 53
0 0 57
0 0 59
0 0 60
0 0 61
0 0 62
0 3 69
0 4 67
9 24 42
42 58 22
42 58 32
108 121 120
93 93 80
79 66 44
84 72 46
88 75 48
91 77 49
86 73 45
83 69 48
85 78 49
82 73 57
25 25 70
24 31 73
34 51 71
19 35 85
3 21 82
0 22 85
0 24 87
0 24 86
0 20 83
0 12 75
0 4 68
0 14 74
0 8 71
0 0 68
0 17 77
0 10 68
0 1 66
0 6 71
0 6 72
0 6 73
0 2 72
0 0 70
0 0 70
0 2 70
0 2 68
0 7 68
0 7 71
0 13 74
0 10 72
0 0 66
0 0 67
0 0 66
0 0 62
0 0 64
22 23 70
170 180 197
226 238 255
226 238 255
226 238 255
226 238 255
226 238 255
226 238 255
226 238 255
226 238 255
226 238 255
226 238 255
226 238 255
226 238 255
226 238 255
226 238 255
226 238 255
226 238 255
226 238 255
226 238 255
226 238 255
226 238 255
226 238 255
226 238 255
226 238 255
226 238 255
226 238 255
226 238 255
226 238 255
226 238 255
226 238 255
226 238 255
226 238 255
226 238 255
226 238 255
226 238 255
226 238 255
226 238 255
226 238 255
226 238 255
226 238 255
226 238 255
226 238 255
226 238 255
226 238 255
226 238 255
226 238 255
226 238 255
226 238 255
226 238 255
226 238 255
226 238 255
226 238 255
226 238 255
226 238 255
226 238 255
226 238 255
226 238 255
226 238 255
226 238 255
226 238 255
226 238 255
226 238 255
226 238 255
226 238 255
226 238 255
226 238 255
226 238 255
226 238 255
226 238 255
226 238 255
226 238 255
226 238 255
226 238 255
226 238 255
226 238 255
226 238 255
226 238 255
226 238 255
226 238 255
226 238 255
226 238 255
226 238 255
226 238 255
226 238 255
226 238 255
226 238 255
226 238 255
226 238 255
226 238 255
226 238 255
226 238 255
226 238 255
226 238 255
226 238 255
226 238 255
226 238 255
226 238 255
226 238 255
226 238 255
226 238 255
226 238 255
226 238 255
226 238 255
226 238 255
226 238 255
226 238 255
226 238 255
226 238 255
226 238 255
226 238 255
226 238 255
226 238 255
226 238 255
226 238 255
226 238 255
226 238 255
226 238 255
226 238 255
226 238 255
226 238 255
226 238 255
226 238 255
226 238 255
226 238 255
226 238 255
225 238 255
225 238 255
226 238 255
226 238 255
226 238 255
226 238 255
226 238 255
226 238 255
226 238 255
226 238 255
226 238 255
226 238 255
226 238 255
226 238 255
226 238 255
226 238 255
226 238 255
226 238 255
226 238 255
226 238 255
226 238 255
226 238 255
226 238 255
226 238 255
226 238 255
226 238 255
226 238 255
226 238 255
226 238 255
226 238 255
226 238 255
226 238 255
226 238 255
226 238 255
226 238 255
226 238 255
226 238 255
226 238 255
226 238 255
226 238 255
226 238 255
226 238 255
226 238 255
226 238 255
226 238 255
226 238 255
226 238 255
226 238 255
226 238 255
226 238 255
226 238 255
226 238 255
226 238 255
226 238 255
226 238 255
226 238 255
226 238 255
226 238 255
226 238 255
226 238 255
226 238 255
226 238 255
226 238 255
226 238 255
226 238 255
226 238 255
226 238 255
226 238 255
226 238 255
226 238 255
226 238 255
226 238 255
226 238 255
226 238 255
226 238 255
226 238 255
226 238 255
226 238 255
226 238 255
226 238 255
226 238 255
226 238 255
226 238 255
226 238 255
226 238 255
226 238 255
226 238 255
226 238 255
226 238 255
226 238 255
226 238 255
226 238 255
226 238 255
226 238 255
226 238 255
226 238 255
226 238 255
226 238 255
226 238 255
226 238 255
226 238 255
226 238 255
226 238 255
226 238 255
226 238 255
226 238 255
226 238 255
226 238 255
226 238 255
226 238 255
226 238 255
226 238 255
226 238 255
226 238 255
226 238 255
226 238 255
226 238 255
226 238 255
226 238 255
226 238 255
226 238 255
226 238 255
226 238 255
226 238 255
226 238 255
226 238 255
226 238 255
226 238 255
226 238 255
186 196 212
22 23 57
0 0 53
0 0 50
0 0 50
0 0 47
0 0 48
0 0 48
0 0 48
0 0 48
0 0 54
0 0 50
0 0 53
0 0 55
0 0 50
0 0 48
0 0 48
0 0 46
0 0 47
0 0 48
0 0 48
0 0 45
0 0 45
0 0 45
0 0 45
0 0 45
0 0 45
0 0 44
0 0 44
0 0 45
0 0 45
0 0 43
0 0 43
0 0 43
0 0 43
0 0 45
0 0 45
0 0 45
0 0 45
0 0 45
0 0 45
0 0 45
0 0 44
0 0 44
0 0 45
0 0 45
0 0 45
0 0 45
0 0 45
0 0 45
0 0 45
0 0 45
0 0 45
0 0 45
0 0 45
0 0 45
0 0 45
0 0 45
0 0 45
0 0 45
0 0 45
0 0 45
0 0 45
0 0 45
0 0 45
0 0 45
0 0 45
0 0 45
0 0 45
0 0 45
0 0 45
0 0 46
0 0 46
0 0 46
0 0 46
0 0 46
0 0 46
0 0 47
0 0 48
0 0 48
0 0 48
0 0 48
0 0 49
0 0 49
0 0 49
0 0 49
0 0 50
0 0 51
0 0 53
0 0 53
0 0 55
0 0 57
0 0 57
0 0 60
0 0 60
0 0 68
0 7 75
0 8 65
19 39 31
20 43 36
75 87 77
115 120 118
114 109 92
96 80 54
93 79 50
105 93 68
88 76 50
81 72 43
89 75 48
99 83 55
69 62 56
19 24 66
14 29 82
0 21 84
0 18 81
0 18 79
0 20 83
0 21 83
0 15 77
0 8 70
0 9 72
0 14 78
0 15 78
0 10 74
0 10 73
0 7 70
0 11 70
0 9 74
0 15 75
0 11 74
0 0 72
0 0 69
0 8 70
0 11 72
0 8 70
0 13 73
0 20 79
0 13 73
0 6 70
0 0 66
0 0 64
0 0 65
0 0 65
0 0 62
39 41 79
182 192 209
226 238 255
226 238 255
226 238 255
226 238 255
226 238 255
226 238 255
226 238 255
226 238 255
226 238 255
226 238 255
226 238 255
226 238 255
226 238 255
226 238 255
226 238 255
226 238 255
226 238 255
226 238 255
226 238 255
226 238 255
226 238 255
226 238 255
226 238 255
226 238 255
226 238 255
226 238 255
226 238 255
226 238 255
226 238 255
226 238 255
226 238 255
226 238 255
226 238 255
226 238 255
226 238 255
226 238 255
226 238 255
226 238 255
226 238 255
226 238 255
226 238 255
226 238 255
226 238 255
226 238 255
226 238 255
226 238 255
226 238 255
226 238 255
226 238 255
226 238 255
226 238 255
226 238 255
226 238 255
226 238 255
226 238 255
226 238 255
226 238 255
226 238 255
226 238 255
226 238 255
226 238 255
226 238 255
226 238 255
226 238 255
226 238 255
226 238 255
226 238 255
226 238 255
226 238 255
226 238 255
226 238 255
226 238 255
226 238 255
226 238 255
226 238 255
226 238 255
226 238 255
226 238 255
226 238 255
226 238 255
226 238 255
226 238 255
226 238 255
226 238 255
226 238 255
226 238 255
226 238 255
226 238 255
226 238 255
226 238 255
226 238 255
226 238 255
226 238 255
226 238 255
226 238 255
226 238 255
226 238 255
226 238 255
226 238 255
226 238 255
226 238 255
226 238 255
226 238 255
226 238 255
226 238 255
226 238 255
226 238 255
226 238 255
226 238 255
226 238 255
226 238 255
226 238 255
226 238 255
226 238 255
226 238 255
226 238 255
226 238 255
226 238 255
226 238 255
226 238 255
226 238 255
226 238 255
226 238 255
226 238 255
226 238 255
226 238 255
226 238 255
226 238 255
226 238 255
226 238 255
226 238 255
226 238 255
226 238 255
226 238 255
226 238 255
226 238 255
226 238 255
226 238 255
226 238 255
226 238 255
226 238 255
226 238 255
226 238 255
226 238 255
226 238 255
226 238 255
226 238 255
226 238 255
226 238 255
226 238 255
226 238 255
226 238 255
226 238 255
226 238 255
226 238 255
226 238 255
226 238 255
226 238 255
226 238 255
226 238 255
226 238 255
226 238 255
226 238 255
226 238 255
226 238 255
226 238 255
226 238 255
226 238 255
226 238 255
226 238 255
226 238 255
226 238 255
226 238 255
226 238 255
226 238 255
226 238 255
226 238 255
226 238 255
226 238 255
226 238 255
226 238 255
226 238 255
226 238 255
226 238 255
226 238 255
226 238 255
226 238 255
226 238 255
226 238 255
226 238 255
226 238 255
226 238 255
226 238 255
226 238 255
226 238 255
226 238 255
226 238 255
226 238 255
226 238 255
226 238 255
226 238 255
226 238 255
226 238 255
226 238 255
226 238 255
226 238 255
226 238 255
226 238 255
226 238 255
226 238 255
226 238 255
226 238 255
226 238 255
226 238 255
226 238 255
226 238 255
226 238 255
226 238 255
226 238 255
226 238 255
226 238 255
226 238 255
226 238 255
226 238 255
226 238 255
226 238 255
226 238 255
226 238 255
226 238 255
226 238 255
226 238 255
226 238 255
226 238 255
226 238 255
226 238 255
226 238 255
226 238 255
226 238 255
226 238 255
226 238 255
226 238 255
226 238 255
226 238 255
226 238 255
226 238 255
226 238 255
226 238 255
226 238 255
226 238 255
226 238 255
226 238 255
226 238 255
226 238 255
226 238 255
226 238 255
197 208 224
59 63 85
0 0 54
0 0 49
0 0 48
0 0 48
0 0 48
0 0 48
0 0 48
0 0 50
0 0 53
0 0 52
0 0 53
0 0 52
0 0 49
0 0 48
0 0 47
0 0 47
0 0 48
0 0 50
0 0 47
0 0 45
0 0 45
0 0 45
0 0 47
0 0 46
0 0 45
0 0 45
0 0 45
0 0 45
0 0 44
0 0 44
0 0 45
0 0 45
0 0 45
0 0 45
0 0 45
0 0 45
0 0 45
0 0 45
0 0 45
0 0 45
0 0 45
0 0 45
0 0 45
0 0 45
0 0 45
0 0 44
0 0 46
0 0 45
0 0 45
0 0 45
0 0 45
0 0 45
0 0 45
0 0 45
0 0 46
0 0 46
0 0 45
0 0 45
0 0 45
0 0 45
0 0 45
0 0 45
0 0 45
0 0 45
0 0 45
0 0 45
0 0 46
0 0 47
0 0 48
0 0 48
0 0 48
0 0 48
0 0 48
0 0 48
0 0 48
0 0 48
0 0 48
0 0 48
0 0 48
0 0 50
0 0 50
0 0 50
0 0 50
0 0 51
0 0 52
0 0 53
0 0 53
0 0 54
0 0 55
0 0 57
0 0 59
0 0 62
0 5 70
0 12 74
5 25 56
6 27 49
31 43 67
140 152 154
90 87 69
90 79 52
99 84 55
102 87 57
116 102 73
96 84 57
95 81 51
90 76 50
85 76 52
48 47 65
45 56 65
9 24 80
0 14 72
0 18 77
0 20 82
0 17 80
0 9 71
0 7 68
0 14 75
0 19 82
0 19 81
0 15 76
0 14 74
0 3 72
0 13 74
0 15 79
0 11 74
0 10 74
0 15 75
0 5 71
0 0 69
0 8 71
0 14 75
0 9 73
0 13 75
0 11 72
0 6 69
0 4 67
0 10 70
0 2 66
0 7 68
0 4 65
67 71 98
203 214 232
226 238 255
226 238 255
226 238 255
226 238 255
226 238 255
226 238 255
226 238 255
226 238 255
226 238 255
226 238 255
226 238 255
226 238 255
226 238 255
226 238 255
226 238 255
226 238 255
226 238 255
226 238 255
226 238 255
226 238 255
226 238 255
226 238 255
226 238 255
226 238 255
226 238 255
226 238 255
226 238 255
226 238 255
226 238 255
226 238 255
226 238 255
226 238 255
226 238 255
226 238 255
226 238 255
226 238 255
226 238 255
226 238 255
226 238 255
226 238 255
226 238 255
226 238 255
226 238 255
226 238 255
226 238 255
226 238 255
226 238 255
226 238 255
226 238 255
226 238 255
226 238 255
226 238 255
226 238 255
226 238 255
226 238 255
226 238 255
226 238 255
226 238 255
226 238 255
226 238 255
226 238 255
226 238 255
226 238 255
226 238 255
226 238 255
226 238 255
226 238 255
226 238 255
226 238 255
226 238 255
226 238 255
226 238 255
226 238 255
226 238 255
226 238 255
226 238 255
226 238 255
226 238 255
226 238 255
226 238 255
226 238 255
226 238 255
226 238 255
226 238 255
226 238 255
226 238 255
226 238 255
226 238 255
226 238 255
226 238 255
226 238 255
226 238 255
226 238 255
226 238 255
226 238 255
226 238 255
226 238 255
226 238 255
226 238 255
226 238 255
226 238 255
226 238 255
226 238 255
226 238 255
226 238 255
226 238 255
226 238 255
226 238 255
226 238 255
226 238 255
226 238 255
226 238 255
226 238 255
226 238 255
226 238 255
226 238 255
226 238 255
226 238 255
226 238 255
226 238 255
226 238 255
226 238 255
226 238 255
226 238 255
226 238 255
226 238 255
226 238 255
226 238 255
226 238 255
226 238 255
226 238 255
226 238 255
226 238 255
226 238 255
226 238 255
226 238 255
226 238 255
226 238 255
226 238 255
226 238 255
226 238 255
226 238 255
226 238 255
226 238 255
226 238 255
226 238 255
226 238 255
226 238 255
226 238 255
226 238 255
226 238 255
226 238 255
226 238 255
226 238 255
226 238 255
226 238 255
226 238 255
226 238 255
226 238 255
226 238 255
226 238 255
226 238 255
226 238 255
226 238 255
226 238 255
226 238 255
226 238 255
226 238 255
226 238 255
226 238 255
226 238 255
226 238 255
226 238 255
226 238 255
226 238 255
226 238 255
226 238 255
226 238 255
226 238 255
226 238 255
226 238 255
226 238 255
226 238 255
226 238 255
226 238 255
226 238 255
226 238 255
226 238 255
226 238 255
226 238 255
226 238 255
226 238 255
226 238 255
226 238 255
226 238 255
226 238 255
226 238 255
226 238 255
226 238 255
226 238 255
226 238 255
226 238 255
226 238 255
226 238 255
226 238 255
226 238 255
226 238 255
226 238 255
226 238 255
226 238 255
226 238 255
226 238 255
226 238 255
226 238 255
226 238 255
226 238 255
226 238 255
226 238 255
226 238 255
226 238 255
226 238 255
226 238 255
226 238 255
226 238 255
226 238 255
226 238 255
226 238 255
226 238 255
226 238 255
226 238 255
226 238 255
226 238 255
226 238 255
226 238 255
226 238 255
226 238 255
226 238 255
226 238 255
226 238 255
226 238 255
226 238 255
226 238 255
226 238 255
226 238 255
226 238 255
226 238 255
226 238 255
226 238 255
226 238 255
226 238 255
226 238 255
226 238 255
226 238 255
226 238 255
226 238 255
226 238 255
226 238 255
204 216 232
98 104 122
0 0 57
0 0 50
0 0 48
0 0 48
0 0 49
0 0 50
0 0 49
0 0 50
0 0 52
0 0 52
0 0 52
0 0 51
0 0 49
0 0 48
0 0 47
0 0 47
0 0 50
0 0 52
0 0 47
0 0 45
0 0 45
0 0 46
0 0 47
0 0 47
0 0 47
0 0 47
0 0 46
0 0 45
0 0 45
0 0 45
0 0 45
0 0 45
0 0 45
0 0 45
0 0 45
0 0 45
0 0 45
0 0 45
0 0 45
0 0 45
0 0 45
0 0 44
0 0 45
0 0 45
0 0 45
0 0 47
0 0 47
0 0 47
0 0 47
0 0 47
0 0 46
0 0 45
0 0 47
0 0 51
0 0 51
0 0 47
0 0 45
0 0 46
0 0 45
0 0 45
0 0 45
0 0 45
0 0 46
0 0 46
0 0 47
0 0 48
0 0 48
0 0 48
0 0 48
0 0 48
0 0 48
0 0 48
0 0 48
0 0 48
0 0 48
0 0 48
0 0 50
0 0 50
0 0 50
0 0 50
0 0 51
0 0 53
0 0 53
0 0 53
0 0 53
0 0 53
0 0 53
0 0 56
0 0 58
0 0 63
0 0 69
0 12 75
0 15 72
0 32 22
6 14 66
95 108 104
112 123 124
90 78 55
91 79 52
93 80 51
103 88 59
103 87 57
106 90 65
104 90 55
91 79 50
56 62 68
22 33 74
0 13 78
0 18 77
0 19 80
0 20 81
0 9 74
0 7 69
0 0 64
0 14 75
0 18 81
0 15 78
0 15 78
0 13 75
0 13 75
0 13 74
0 14 74
0 13 77
0 12 74
0 11 73
0 7 70
0 0 69
0 6 72
0 12 73
0 10 72
0 4 70
0 11 72
0 13 74
0 8 72
0 10 73
0 7 70
0 9 71
0 8 68
67 71 96
194 205 222
226 238 255
226 238 255
226 238 255
226 238 255
226 238 255
226 238 255
226 238 255
226 238 255
226 238 255
226 238 255
226 238 255
226 238 255
226 238 255
226 238 255
226 238 255
226 238 255
226 238 255
226 238 255
226 238 255
226 238 255
226 238 255
226 238 255
226 238 255
226 238 255
226 238 255
226 238 255
226 238 255
226 238 255
226 238 255
226 238 255
226 238 255
226 238 255
226 238 255
226 238 255
226 238 255
226 238 255
226 238 255
226 238 255
226 238 255
226 238 255
226 238 255
226 238 255
226 238 255
226 238 255
226 238 255
226 238 255
226 238 255
226 238 255
226 238 255
226 238 255
226 238 255
226 238 255
226 238 255
226 238 255
226 238 255
226 238 255
226 238 255
226 238 255
226 238 255
226 238 255
226 238 255
226 238 255
226 238 255
226 238 255
226 238 255
226 238 255
226 238 255
226 238 255
226 238 255
226 238 255
226 238 255
226 238 255
226 238 255
226 238 255
226 238 255
226 238 255
226 238 255
226 238 255
226 238 255
226 238 255
226 238 255
226 238 255
226 238 255
226 238 255
226 238 255
226 238 255
226 238 255
226 238 255
226 238 255
226 238 255
226 238 255
226 238 255
226 238 255
226 238 255
226 238 255
226 238 255
226 238 255
226 238 255
226 238 255
226 238 255
226 238 255
226 238 255
226 238 255
226 238 255
226 238 255
226 238 255
226 238 255
226 238 255
226 238 255
226 238 255
226 238 255
226 238 255
226 238 255
226 238 255
226 238 255
226 238 255
226 238 255
226 238 255
226 238 255
226 238 255
226 238 255
226 238 255
226 238 255
226 238 255
226 238 255
226 238 255
226 238 255
226 238 255
226 238 255
226 238 255
226 238 255
226 238 255
226 238 255
226 238 255
226 238 255
226 238 255
226 238 255
226 238 255
226 238 255
226 238 255
226 238 255
226 238 255
226 238 255
226 238 255
226 238 255
226 238 255
226 238 255
226 238 255
226 238 255
226 238 255
226 238 255
226 238 255
226 238 255
226 238 255
226 238 255
226 238 255
226 238 255
226 238 255
226 238 255
226 238 255
226 238 255
226 238 255
226 238 255
226 238 255
226 238 255
226 238 255
226 238 255
226 238 255
226 238 255
226 238 255
226 238 255
226 238 255
226 238 255
226 238 255
226 238 255
226 238 255
226 238 255
226 238 255
226 238 255
226 238 255
226 238 255
226 238 255
226 238 255
226 238 255
226 238 255
226 238 255
226 238 255
226 238 255
226 238 255
226 238 255
226 238 255
226 238 255
226 238 255
226 238 255
226 238 255
226 238 255
226 238 255
226 238 255
226 238 255
226 238 255
226 238 255
226 238 255
226 238 255
226 238 255
226 238 255
226 238 255
226 238 255
226 238 255
226 238 255
226 238 255
226 238 255
226 238 255
226 238 255
226 238 255
226 238 255
226 238 255
226 238 255
226 238 255
226 238 255
226 238 255
226 238 255
226 238 255
226 238 255
226 238 255
226 238 255
226 238 255
226 238 255
226 238 255
226 238 255
226 238 255
226 238 255
226 238 255
226 238 255
226 238 255
226 238 255
226 238 255
226 238 255
226 238 255
226 238 255
226 238 255
226 238 255
226 238 255
226 238 255
226 238 255
226 238 255
226 238 255
226 238 255
226 238 255
226 238 255
226 238 255
226 238 255
226 238 255
226 238 255
226 238 255
226 238 255
226 238 255
226 238 255
226 238 255
226 238 255
219 231 248
110 116 136
0 0 58
0 0 52
0 0 51
0 0 52
0 0 50
0 0 51
0 0 52
0 0 51
0 0 51
0 0 53
0 0 56
0 0 54
0 0 51
0 0 49
0 0 48
0 0 50
0 0 52
0 0 49
0 0 45
0 0 46
0 0 45
0 0 44
0 0 45
0 0 47
0 0 50
0 0 49
0 0 47
0 0 45
0 0 45
0 0 45
0 0 45
0 0 45
0 0 45
0 0 45
0 0 45
0 0 45
0 0 45
0 0 46
0 0 46
0 0 46
0 0 45
0 0 47
0 0 47
0 0 46
0 0 48
0 0 48
0 0 49
0 0 47
0 0 48
0 0 48
0 0 48
0 0 50
0 0 51
0 0 50
0 0 47
0 0 49
0 0 51
0 0 50
0 0 48
0 0 48
0 0 48
0 0 48
0 0 48
0 0 48
0 0 48
0 0 48
0 0 48
0 0 48
0 0 49
0 0 49
0 0 49
0 0 49
0 0 48
0 0 48
0 0 50
0 0 50
0 0 51
0 0 51
0 0 51
0 0 52
0 0 53
0 0 53
0 0 53
0 0 53
0 0 53
0 0 56
0 0 58
0 0 62
0 0 65
0 0 72
0 9 66
0 13 64
0 13 64
56 67 69
121 134 132
111 114 106
92 78 50
95 83 53
93 80 51
109 94 62
118 99 65
108 89 57
84 79 55
66 64 57
12 22 80
0 16 72
0 15 81
0 16 76
0 15 79
0 15 77
0 7 69
0 0 60
0 0 65
0 10 73
0 11 73
0 12 74
0 13 75
0 9 72
0 12 72
0 6 68
0 4 70
0 5 70
0 1 68
0 0 67
0 0 67
0 3 70
0 15 80
0 12 75
0 10 72
0 14 77
0 15 78
0 11 74
0 6 71
0 8 71
0 8 71
0 7 69
96 101 122
215 227 244
226 238 255
226 238 255
226 238 255
226 238 255
226 238 255
226 238 255
226 238 255
226 238 255
226 238 255
226 238 255
226 238 255
226 238 255
226 238 255
226 238 255
226 238 255
226 238 255
226 238 255
226 238 255
226 238 255
226 238 255
226 238 255
226 238 255
226 238 255
226 238 255
226 238 255
226 238 255
226 238 255
226 238 255
226 238 255
226 238 255
226 238 255
226 238 255
226 238 255
226 238 255
226 238 255
226 238 255
226 238 255
226 238 255
226 238 255
226 238 255
226 238 255
226 238 255
226 238 255
226 238 255
226 238 255
226 238 255
226 238 255
226 238 255
226 238 255
226 238 255
226 238 255
226 238 255
226 238 255
226 238 255
226 238 255
226 238 255
226 238 255
226 238 255
226 238 255
226 238 255
226 238 255
226 238 255
226 238 255
226 238 255
226 238 255
226 238 255
226 238 255
226 238 255
226 238 255
226 238 255
226 238 255
226 238 255
226 238 255
226 238 255
226 238 255
226 238 255
226 238 255
226 238 255
226 238 255
226 238 255
226 238 255
226 238 255
226 238 255
226 238 255
226 238 255
226 238 255
226 238 255
226 238 255
226 238 255
226 238 255
226 238 255
226 238 255
226 238 255
226 238 255
226 238 255
226 238 255
226 238 255
226 238 255
226 238 255
226 238 255
226 238 255
226 238 255
226 238 255
226 238 255
226 238 255
226 238 255
226 238 255
226 238 255
226 238 255
226 238 255
226 238 255
226 238 255
226 238 255
226 238 255
226 238 255
226 238 255
226 238 255
226 238 255
226 238 255
226 238 255
226 238 255
226 238 255
226 238 255
226 238 255
226 238 255
226 238 255
226 238 255
226 238 255
226 238 255
226 238 255
226 238 255
226 238 255
226 238 255
226 238 255
226 238 255
226 238 255
226 238 255
226 238 255
226 238 255
226 238 255
226 238 255
226 238 255
226 238 255
226 238 255
226 238 255
226 238 255
226 238 255
226 238 255
226 238 255
226 238 255
226 238 255
226 238 255
226 238 255
226 238 255
226 238 255
226 238 255
226 238 255
226 238 255
226 238 255
226 238 255
226 238 255
226 238 255
226 238 255
226 238 255
226 238 255
226 238 255
226 238 255
226 238 255
226 238 255
226 238 255
226 238 255
226 238 255
226 238 255
226 238 255
226 238 255
226 238 255
226 238 255
226 238 255
226 238 255
226 238 255
226 238 255
226 238 255
226 238 255
226 238 255
226 238 255
226 238 255
226 238 255
226 238 255
226 238 255
226 238 255
226 238 255
226 238 255
226 238 255
226 238 255
226 238 255
226 238 255
226 238 255
226 238 255
226 238 255
226 238 255
226 238 255
226 238 255
226 238 255
226 238 255
226 238 255
226 238 255
226 238 255
226 238 255
226 238 255
226 238 255
226 238 255
226 238 255
226 238 255
226 238 255
226 238 255
226 238 255
226 238 255
226 238 255
226 238 255
226 238 255
226 238 255
226 238 255
226 238 255
226 238 255
226 238 255
226 238 255
226 238 255
226 238 255
226 238 255
226 238 255
226 238 255
226 238 255
226 238 255
226 238 255
226 238 255
226 238 255
226 238 255
226 238 255
226 238 255
226 238 255
226 238 255
226 238 255
226 238 255
226 238 255
226 238 255
226 238 255
226 238 255
226 238 255
226 238 255
226 238 255
226 238 255
226 238 255
226 238 255
226 238 255
226 238 255
226 238 255
226 238 255
226 238 255
226 238 255
226 238 255
226 238 255
224 236 253
160 168 186
0 4 62
0 0 53
0 0 58
0 0 59
0 0 54
0 0 53
0 0 55
0 0 54
0 0 54
0 0 56
0 0 58
0 0 56
0 0 53
0 0 51
0 0 51
0 0 50
0 0 51
0 0 49
0 0 48
0 0 48
0 0 49
0 0 47
0 0 46
0 0 47
0 0 50
0 0 50
0 0 46
0 0 46
0 0 45
0 0 45
0 0 44
0 0 45
0 0 45
0 0 44
0 0 45
0 0 45
0 0 47
0 0 48
0 0 46
0 0 48
0 0 48
0 0 48
0 0 48
0 0 48
0 0 48
0 0 49
0 0 46
0 0 47
0 0 50
0 0 52
0 0 53
0 0 51
0 0 48
0 0 48
0 0 49
0 0 49
0 0 49
0 0 48
0 0 48
0 0 48
0 0 48
0 0 48
0 0 48
0 0 48
0 0 48
0 0 48
0 0 48
0 0 50
0 0 52
0 0 51
0 0 50
0 0 50
0 0 50
0 0 50
0 0 50
0 0 51
0 0 51
0 0 52
0 0 53
0 0 55
0 0 56
0 0 57
0 0 57
0 0 56
0 0 57
0 0 61
0 0 64
0 0 65
0 7 61
0 12 68
0 28 43
18 42 61
91 110 107
146 154 153
108 100 82
94 81 47
90 76 45
97 84 52
104 88 54
115 100 62
88 77 50
63 65 57
21 28 74
0 12 73
0 21 83
0 16 75
0 15 78
0 15 78
0 10 71
0 0 60
0 0 60
0 3 66
0 13 74
0 10 74
0 9 72
0 2 68
0 0 68
0 5 67
0 2 67
0 4 69
0 7 72
0 8 72
0 4 68
0 6 70
0 14 78
0 13 76
0 12 74
0 16 79
0 16 78
0 11 73
0 5 70
0 0 68
0 10 70
0 4 66
130 137 155
219 231 248
226 238 255
226 238 255
226 238 255
226 238 255
226 238 255
226 238 255
226 238 255
226 238 255
226 238 255
226 238 255
226 238 255
226 238 255
226 238 255
226 238 255
226 238 255
226 238 255
226 238 255
226 238 255
226 238 255
226 238 255
226 238 255
226 238 255
226 238 255
226 238 255
226 238 255
226 238 255
226 238 255
226 238 255
226 238 255
226 238 255
226 238 255
226 238 255
226 238 255
226 238 255
226 238 255
226 238 255
226 238 255
226 238 255
226 238 255
226 238 255
226 238 255
226 238 255
226 238 255
226 238 255
226 238 255
226 238 255
226 238 255
226 238 255
226 238 255
226 238 255
226 238 255
226 238 255
226 238 255
226 238 255
226 238 255
226 238 255
226 238 255
226 238 255
226 238 255
226 238 255
226 238 255
226 238 255
226 238 255
226 238 255
226 238 255
226 238 255
226 238 255
226 238 255
226 238 255
226 238 255
226 238 255
226 238 255
226 238 255
226 238 255
226 238 255
226 238 255
226 238 255
226 238 255
226 238 255
226 238 255
226 238 255
226 238 255
226 238 255
226 238 255
226 238 255
226 238 255
226 238 255
226 238 255
226 238 255
226 238 255
226 238 255
226 238 255
226 238 255
226 238 255
226 238 255
226 238 255
226 238 255
226 238 255
226 238 255
226 238 255
226 238 255
226 238 255
226 238 255
226 238 255
226 238 255
226 238 255
226 238 255
226 238 255
226 238 255
226 238 255
226 238 255
226 238 255
226 238 255
226 238 255
226 238 255
226 238 255
226 238 255
226 238 255
226 238 255
226 238 255
226 238 255
226 238 255
226 238 255
226 238 255
226 238 255
226 238 255
226 238 255
226 238 255
226 238 255
226 238 255
226 238 255
226 238 255
226 238 255
226 238 255
226 238 255
226 238 255
226 238 255
226 238 255
226 238 255
226 238 255
226 238 255
226 238 255
226 238 255
226 238 255
226 238 255
226 238 255
226 238 255
226 238 255
226 238 255
226 238 255
226 238 255
226 238 255
226 238 255
226 238 255
226 238 255
226 238 255
226 238 255
226 238 255
226 238 255
226 238 255
226 238 255
226 238 255
226 238 255
226 238 255
226 238 255
226 238 255
226 238 255
226 238 255
226 238 255
226 238 255
226 238 255
226 238 255
226 238 255
226 238 255
226 238 255
226 238 255
226 238 255
226 238 255
226 238 255
226 238 255
226 238 255
226 238 255
226 238 255
226 238 255
226 238 255
226 238 255
226 238 255
226 238 255
226 238 255
226 238 255
226 238 255
226 238 255
226 238 255
226 238 255
226 238 255
226 238 255
226 238 255
226 238 255
226 238 255
226 238 255
226 238 255
226 238 255
226 238 255
226 238 255
226 238 255
226 238 255
226 238 255
226 238 255
226 238 255
226 238 255
226 238 255
226 238 255
226 238 255
226 238 255
226 238 255
226 238 255
226 238 255
226 238 255
226 238 255
226 238 255
226 238 255
226 238 255
226 238 255
226 238 255
226 238 255
226 238 255
226 238 255
226 238 255
226 238 255
226 238 255
226 238 255
226 238 255
226 238 255
226 238 255
226 238 255
226 238 255
226 238 255
226 238 255
226 238 255
226 238 255
226 238 255
226 238 255
226 238 255
226 238 255
226 238 255
226 238 255
226 238 255
226 238 255
226 238 255
226 238 255
226 238 255
226 238 255
226 238 255
226 238 255
226 238 255
226 238 255
226 238 255
226 238 255
226 238 255
226 238 255
226 238 255
226 238 255
226 238 255
226 238 255
175 184 202
39 41 78
0 1 57
0 0 62
0 0 63
0 0 61
0 0 59
0 0 57
0 0 58
0 0 57
0 0 59
0 0 59
0 0 61
0 0 57
0 0 54
0 0 54
0 0 54
0 0 53
0 0 50
0 0 50
0 0 53
0 0 54
0 0 50
0 0 45
0 0 45
0 0 48
0 0 47
0 0 45
0 0 45
0 0 45
0 0 45
0 0 44
0 0 45
0 0 43
0 0 45
0 0 47
0 0 48
0 0 48
0 0 47
0 0 48
0 0 48
0 0 48
0 0 48
0 0 48
0 0 47
0 0 48
0 0 47
0 0 47
0 0 46
0 0 49
0 0 51
0 0 51
0 0 48
0 0 48
0 0 48
0 0 47
0 0 46
0 0 47
0 0 48
0 0 50
0 0 49
0 0 49
0 0 49
0 0 48
0 0 48
0 0 48
0 0 49
0 0 52
0 0 52
0 0 53
0 0 51
0 0 50
0 0 50
0 0 50
0 0 52
0 0 53
0 0 52
0 0 52
0 0 53
0 0 54
0 0 54
0 0 57
0 0 57
0 0 57
0 0 60
0 0 61
0 0 63
0 0 67
0 9 75
0 22 61
14 37 50
74 96 93
118 130 130
97 96 83
93 80 50
98 81 49
94 83 48
99 87 51
98 85 57
53 55 69
19 32 78
0 13 70
0 7 71
0 9 71
0 12 73
0 13 74
0 15 75
0 14 75
0 3 63
0 0 62
0 0 65
0 10 71
0 19 80
0 15 76
0 3 69
0 0 70
0 0 68
0 5 68
0 13 73
0 14 75
0 14 76
0 15 77
0 14 73
0 11 73
0 8 73
0 12 74
0 16 77
0 13 73
0 0 65
0 0 67
0 5 67
0 5 69
32 33 74
166 175 192
226 238 255
226 238 255
226 238 255
226 238 255
226 238 255
226 238 255
226 238 255
226 238 255
226 238 255
226 238 255
226 238 255
226 238 255
226 238 255
226 238 255
226 238 255
226 238 255
226 238 255
226 238 255
226 238 255
226 238 255
226 238 255
226 238 255
226 238 255
226 238 255
226 238 255
226 238 255
226 238 255
226 238 255
226 238 255
226 238 255
226 238 255
226 238 255
226 238 255
226 238 255
226 238 255
226 238 255
226 238 255
226 238 255
226 238 255
226 238 255
226 238 255
226 238 255
226 238 255
226 238 255
226 238 255
226 238 255
226 238 255
226 238 255
226 238 255
226 238 255
226 238 255
226 238 255
226 238 255
226 238 255
226 238 255
226 238 255
226 238 255
226 238 255
226 238 255
226 238 255
226 238 255
226 238 255
226 238 255
226 238 255
226 238 255
226 238 255
226 238 255
226 238 255
226 238 255
226 238 255
226 238 255
226 238 255
226 238 255
226 238 255
226 238 255
226 238 255
226 238 255
226 238 255
226 238 255
226 238 255
226 238 255
226 238 255
226 238 255
226 238 255
226 238 255
226 238 255
226 238 255
226 238 255
226 238 255
226 238 255
226 238 255
226 238 255
226 238 255
226 238 255
226 238 255
226 238 255
226 238 255
226 238 255
226 238 255
226 238 255
226 238 255
226 238 255
226 238 255
226 238 255
226 238 255
226 238 255
226 238 255
226 238 255
226 238 255
226 238 255
226 238 255
226 238 255
226 238 255
226 238 255
226 238 255
226 238 255
226 238 255
226 238 255
226 238 255
226 238 255
226 238 255
226 238 255
226 238 255
226 238 255
226 238 255
226 238 255
226 238 255
226 238 255
226 238 255
226 238 255
226 238 255
226 238 255
226 238 255
226 238 255
226 238 255
226 238 255
226 238 255
226 238 255
226 238 255
226 238 255
226 238 255
226 238 255
226 238 255
226 238 255
226 238 255
226 238 255
226 238 255
226 238 255
226 238 255
226 238 255
226 238 255
226 238 255
226 238 255
226 238 255
226 238 255
226 238 255
226 238 255
226 238 255
226 238 255
226 238 255
226 238 255
226 238 255
226 238 255
226 238 255
226 238 255
226 238 255
226 238 255
226 238 255
226 238 255
226 238 255
226 238 255
226 238 255
226 238 255
226 238 255
226 238 255
226 238 255
226 238 255
226 238 255
226 238 255
226 238 255
226 238 255
226 238 255
226 238 255
226 238 255
226 238 255
226 238 255
226 238 255
226 238 255
226 238 255
226 238 255
226 238 255
226 238 255
226 238 255
226 238 255
226 238 255
226 238 255
226 238 255
226 238 255
226 238 255
226 238 255
226 238 255
226 238 255
226 238 255
226 238 255
226 238 255
226 238 255
226 238 255
226 238 255
226 238 255
226 238 255
226 238 255
226 238 255
226 238 255
226 238 255
226 238 255
226 238 255
226 238 255
226 238 255
226 238 255
226 238 255
226 238 255
226 238 255
226 238 255
226 238 255
226 238 255
226 238 255
226 238 255
226 238 255
226 238 255
226 238 255
226 238 255
226 238 255
226 238 255
226 238 255
226 238 255
226 238 255
226 238 255
226 238 255
226 238 255
226 238 255
226 238 255
226 238 255
226 238 255
226 238 255
226 238 255
226 238 255
226 238 255
226 238 255
226 238 255
226 238 255
226 238 255
226 238 255
226 238 255
226 238 255
226 238 255
226 238 255
226 238 255
226 238 255
226 238 255
226 238 255
226 238 255
226 238 255
226 238 255
226 238 255
226 238 255
226 238 255
226 238 255
202 213 231
71 76 104
0 8 64
0 0 63
0 0 67
0 7 70
0 3 65
0 0 61
0 0 64
0 0 63
0 0 64
0 0 64
0 0 63
0 0 63
0 0 59
0 0 57
0 0 59
0 0 55
0 0 51
0 0 55
0 0 54
0 0 54
0 0 52
0 0 50
0 0 48
0 0 47
0 0 46
0 0 45
0 0 47
0 0 46
0 0 47
0 0 47
0 0 47
0 0 47
0 0 45
0 0 47
0 0 48
0 0 48
0 0 49
0 0 49
0 0 49
0 0 49
0 0 49
0 0 48
0 0 49
0 0 48
0 0 48
0 0 48
0 0 48
0 0 48
0 0 49
0 0 49
0 0 49
0 0 49
0 0 50
0 0 50
0 0 50
0 0 51
0 0 50
0 0 50
0 0 49
0 0 48
0 0 51
0 0 50
0 0 51
0 0 51
0 0 51
0 0 51
0 0 54
0 0 54
0 0 51
0 0 51
0 0 51
0 0 52
0 0 53
0 0 52
0 0 52
0 0 53
0 0 52
0 0 54
0 0 56
0 0 57
0 0 58
0 0 60
0 0 62
0 0 65
0 7 72
13 23 59
24 42 36
55 73 73
155 167 172
132 137 134
94 87 72
87 74 41
95 79 45
103 90 52
87 79 44
54 56 63
2 23 88
0 17 82
0 10 71
0 0 68
0 0 67
0 5 70
0 7 71
0 5 70
0 3 67
0 0 66
0 0 66
0 0 67
0 9 71
0 10 73
0 12 74
0 7 70
0 0 69
0 0 68
0 7 69
0 10 72
0 10 72
0 0 70
0 5 69
0 5 69
0 8 71
0 0 69
0 8 71
0 6 67
0 0 65
0 0 66
0 3 68
0 4 69
81 86 111
188 198 215
226 238 255
226 238 255
226 238 255
226 238 255
226 238 255
226 238 255
226 238 255
226 238 255
226 238 255
226 238 255
226 238 255
226 238 255
226 238 255
226 238 255
226 238 255
226 238 255
226 238 255
226 238 255
226 238 255
226 238 255
226 238 255
226 238 255
226 238 255
226 238 255
226 238 255
226 238 255
226 238 255
226 238 255
226 238 255
226 238 255
226 238 255
226 238 255
226 238 255
226 238 255
226 238 255
226 238 255
226 238 255
226 238 255
226 238 255
226 238 255
226 238 255
226 238 255
226 238 255
226 238 255
226 238 255
226 238 255
226 238 255
226 238 255
226 238 255
226 238 255
226 238 255
226 238 255
226 238 255
226 238 255
226 238 255
226 238 255
226 238 255
226 238 255
226 238 255
226 238 255
226 238 255
226 238 255
226 238 255
226 238 255
226 238 255
226 238 255
226 238 255
226 238 255
226 238 255
226 238 255
226 238 255
226 238 255
226 238 255
226 238 255
226 238 255
226 238 255
226 238 255
226 238 255
226 238 255
226 238 255
226 238 255
226 238 255
226 238 255
226 238 255
226 238 255
226 238 255
226 238 255
226 238 255
226 238 255
226 238 255
226 238 255
226 238 255
226 238 255
226 238 255
226 238 255
226 238 255
226 238 255
226 238 255
226 238 255
226 238 255
226 238 255
226 238 255
226 238 255
226 238 255
226 238 255
226 238 255
226 238 255
226 238 255
226 238 255
226 238 255
226 238 255
226 238 255
226 238 255
226 238 255
226 238 255
226 238 255
226 238 255
226 238 255
226 238 255
226 238 255
226 238 255
226 238 255
226 238 255
226 238 255
226 238 255
226 238 255
226 238 255
226 238 255
226 238 255
226 238 255
226 238 255
226 238 255
226 238 255
226 238 255
226 238 255
226 238 255
226 238 255
226 238 255
226 238 255
226 238 255
226 238 255
226 238 255
226 238 255
226 238 255
226 238 255
226 238 255
226 238 255
226 238 255
226 238 255
226 238 255
226 238 255
226 238 255
226 238 255
226 238 255
226 238 255
226 238 255
226 238 255
226 238 255
226 238 255
226 238 255
226 238 255
226 238 255
226 238 255
226 238 255
226 238 255
226 238 255
226 238 255
226 238 255
226 238 255
226 238 255
226 238 255
226 238 255
226 238 255
226 238 255
226 238 255
226 238 255
226 238 255
226 238 255
226 238 255
226 238 255
226 238 255
226 238 255
226 238 255
226 238 255
226 238 255
226 238 255
226 238 255
226 238 255
226 238 255
226 238 255
226 238 255
226 238 255
226 238 255
226 238 255
226 238 255
226 238 255
226 238 255
226 238 255
226 238 255
226 238 255
226 238 255
226 238 255
226 238 255
226 238 255
226 238 255
226 238 255
226 238 255
226 238 255
226 238 255
226 238 255
226 238 255
226 238 255
226 238 255
226 238 255
226 238 255
226 238 255
226 238 255
226 238 255
226 238 255
226 238 255
226 238 255
226 238 255
226 238 255
226 238 255
226 238 255
226 238 255
226 238 255
226 238 255
226 238 255
226 238 255
226 238 255
226 238 255
226 238 255
226 238 255
226 238 255
226 238 255
226 238 255
226 238 255
226 238 255
226 238 255
226 238 255
226 238 255
226 238 255
226 238 255
226 238 255
226 238 255
226 238 255
226 238 255
226 238 255
226 238 255
226 238 255
226 238 255
226 238 255
226 238 255
226 238 255
226 238 255
226 238 255
226 238 255
226 238 255
226 238 255
226 238 255
226 238 255
226 238 255
226 238 255
226 238 255
226 238 255
226 238 255
226 238 255
226 238 255
220 232 250
135 143 163
0 7 68
0 0 62
0 0 66
0 7 69
0 4 66
0 0 66
0 0 66
0 0 65
0 0 64
0 0 65
0 0 67
0 2 66
0 0 61
0 0 63
0 0 60
0 0 58
0 0 56
0 0 56
0 0 57
0 0 57
0 0 58
0 0 57
0 0 54
0 0 51
0 0 49
0 0 48
0 0 48
0 0 48
0 0 48
0 0 48
0 0 48
0 0 48
0 0 48
0 0 48
0 0 48
0 0 49
0 0 50
0 0 50
0 0 50
0 0 51
0 0 50
0 0 51
0 0 50
0 0 49
0 0 49
0 0 48
0 0 48
0 0 51
0 0 52
0 0 51
0 0 52
0 0 54
0 0 52
0 0 52
0 0 53
0 0 53
0 0 53
0 0 52
0 0 51
0 0 52
0 0 50
0 0 51
0 0 53
0 0 51
0 0 51
0 0 54
0 0 54
0 0 53
0 0 53
0 0 53
0 0 53
0 0 53
0 0 53
0 0 54
0 0 53
0 0 53
0 0 55
0 0 55
0 0 57
0 0 60
0 0 64
0 0 66
0 4 69
2 22 60
9 28 45
90 99 101
193 206 217
130 141 150
170 178 178
124 118 98
104 86 54
104 89 56
105 90 52
97 85 51
83 78 48
56 56 65
5 26 82
0 5 70
0 0 70
0 4 71
0 0 69
0 0 67
0 0 66
0 0 65
0 0 69
0 0 68
0 0 63
0 8 69
0 11 74
0 9 70
0 0 68
0 0 66
0 0 65
0 0 66
0 0 68
0 4 70
0 3 66
0 0 65
0 0 66
0 5 68
0 4 68
0 4 67
0 8 69
0 3 69
0 0 67
0 4 69
122 128 148
218 230 247
226 238 255
226 238 255
226 238 255
226 238 255
226 238 255
226 238 255
226 238 255
226 238 255
226 238 255
226 238 255
226 238 255
226 238 255
226 238 255
226 238 255
226 238 255
226 238 255
226 238 255
226 238 255
226 238 255
226 238 255
226 238 255
226 238 255
226 238 255
226 238 255
226 238 255
226 238 255
226 238 255
226 238 255
226 238 255
226 238 255
226 238 255
226 238 255
226 238 255
226 238 255
226 238 255
226 238 255
226 238 255
226 238 255
226 238 255
226 238 255
226 238 255
226 238 255
226 238 255
226 238 255
226 238 255
226 238 255
226 238 255
226 238 255
226 238 255
226 238 255
226 238 255
226 238 255
226 238 255
226 238 255
226 238 255
226 238 255
226 238 255
226 238 255
226 238 255
226 238 255
226 238 255
226 238 255
226 238 255
226 238 255
226 238 255
226 238 255
226 238 255
226 238 255
226 238 255
226 238 255
226 238 255
226 238 255
226 238 255
226 238 255
226 238 255
226 238 255
226 238 255
226 238 255
226 238 255
226 238 255
226 238 255
226 238 255
226 238 255
226 238 255
226 238 255
226 238 255
226 238 255
226 238 255
226 238 255
226 238 255
226 238 255
226 238 255
226 238 255
226 238 255
226 238 255
226 238 255
226 238 255
226 238 255
226 238 255
226 238 255
226 238 255
226 238 255
226 238 255
226 238 255
226 238 255
226 238 255
226 238 255
226 238 255
226 238 255
226 238 255
226 238 255
226 238 255
226 238 255
226 238 255
226 238 255
226 238 255
226 238 255
226 238 255
226 238 255
226 238 255
226 238 255
226 238 255
226 238 255
226 238 255
226 238 255
226 238 255
226 238 255
226 238 255
226 238 255
226 238 255
226 238 255
226 238 255
226 238 255
226 238 255
226 238 255
226 238 255
226 238 255
226 238 255
226 238 255
226 238 255
226 238 255
226 238 255
226 238 255
226 238 255
226 238 255
226 238 255
226 238 255
226 238 255
226 238 255
226 238 255
226 238 255
226 238 255
226 238 255
226 238 255
226 238 255
226 238 255
226 238 255
226 238 255
226 238 255
226 238 255
226 238 255
226 238 255
226 238 255
226 238 255
226 238 255
226 238 255
226 238 255
226 238 255
226 238 255
226 238 255
226 238 255
226 238 255
226 238 255
226 238 255
226 238 255
226 238 255
226 238 255
226 238 255
226 238 255
226 238 255
226 238 255
226 238 255
226 238 255
226 238 255
226 238 255
226 238 255
226 238 255
226 238 255
226 238 255
226 238 255
226 238 255
226 238 255
226 238 255
226 238 255
226 238 255
226 238 255
226 238 255
226 238 255
226 238 255
226 238 255
226 238 255
226 238 255
226 238 255
226 238 255
226 238 255
226 238 255
226 238 255
226 238 255
226 238 255
226 238 255
226 238 255
226 238 255
226 238 255
226 238 255
226 238 255
226 238 255
226 238 255
226 238 255
226 238 255
226 238 255
226 238 255
226 238 255
226 238 255
226 238 255
226 238 255
226 238 255
226 238 255
226 238 255
226 238 255
226 238 255
226 238 255
226 238 255
226 238 255
226 238 255
226 238 255
226 238 255
226 238 255
226 238 255
226 238 255
226 238 255
226 238 255
226 238 255
226 238 255
226 238 255
226 238 255
226 238 255
226 238 255
226 238 255
226 238 255
226 238 255
226 238 255
226 238 255
226 238 255
226 238 255
226 238 255
226 238 255
226 238 255
226 238 255
226 238 255
226 238 255
226 238 255
226 238 255
226 238 255
226 238 255
226 238 255
226 238 255
226 238 255
226 238 255
226 238 255
226 238 255
226 238 255
226 238 255
174 183 202
50 54 90
0 3 68
0 9 68
0 7 67
0 7 69
0 0 68
0 3 67
0 0 67
0 0 66
0 0 65
0 4 65
0 0 68
0 0 66
0 0 65
0 0 59
0 0 59
0 0 63
0 0 60
0 0 57
0 0 61
0 0 62
0 0 64
0 0 60
0 0 57
0 0 52
0 0 52
0 0 49
0 0 46
0 0 48
0 0 49
0 0 50
0 0 54
0 0 52
0 0 55
0 0 55
0 0 52
0 0 52
0 0 52
0 0 52
0 0 52
0 0 51
0 0 53
0 0 52
0 0 50
0 0 50
0 0 50
0 0 52
0 0 54
0 0 53
0 0 53
0 0 55
0 0 55
0 0 53
0 0 55
0 0 57
0 0 56
0 0 53
0 0 53
0 0 52
0 0 52
0 0 52
0 0 52
0 0 51
0 0 51
0 0 51
0 0 54
0 0 53
0 0 53
0 0 53
0 0 53
0 0 54
0 0 53
0 0 55
0 0 54
0 0 53
0 0 54
0 0 57
0 0 59
0 0 63
0 6 68
0 11 74
0 15 79
2 27 79
18 41 77
140 155 163
183 193 200
180 187 197
137 132 110
121 101 72
111 94 61
107 95 59
115 96 57
108 90 51
85 78 47
43 45 76
0 16 78
0 8 72
0 0 69
0 0 67
0 0 68
0 0 66
0 0 63
0 0 65
0 0 67
0 0 67
0 0 63
0 0 61
0 0 61
0 0 65
0 0 63
0 0 61
0 0 65
0 0 66
0 0 64
0 0 65
0 0 64
0 0 67
0 7 71
0 12 73
0 8 71
0 1 67
0 3 67
0 0 66
59 63 93
171 180 198
226 238 255
226 238 255
226 238 255
226 238 255
226 238 255
226 238 255
226 238 255
226 238 255
226 238 255
226 238 255
226 238 255
226 238 255
226 238 255
226 238 255
226 238 255
226 238 255
226 238 255
226 238 255
226 238 255
226 238 255
226 238 255
226 238 255
226 238 255
226 238 255
226 238 255
226 238 255
226 238 255
226 238 255
226 238 255
226 238 255
226 238 255
226 238 255
226 238 255
226 238 255
226 238 255
226 238 255
226 238 255
226 238 255
226 238 255
226 238 255
226 238 255
226 238 255
226 238 255
226 238 255
226 238 255
226 238 255
226 238 255
226 238 255
226 238 255
226 238 255
226 238 255
226 238 255
226 238 255
226 238 255
226 238 255
226 238 255
226 238 255
226 238 255
226 238 255
226 238 255
226 238 255
226 238 255
226 238 255
226 238 255
226 238 255
226 238 255
226 238 255
226 238 255
226 238 255
226 238 255
226 238 255
226 238 255
226 238 255
226 238 255
226 238 255
226 238 255
226 238 255
226 238 255
226 238 255
226 238 255
226 238 255
226 238 255
226 238 255
226 238 255
226 238 255
226 238 255
226 238 255
226 238 255
226 238 255
226 238 255
226 238 255
226 238 255
226 238 255
226 238 255
226 238 255
226 238 255
226 238 255
226 238 255
226 238 255
226 238 255
226 238 255
226 238 255
226 238 255
226 238 255
226 238 255
226 238 255
226 238 255
226 238 255
226 238 255
226 238 255
226 238 255
226 238 255
226 238 255
226 238 255
226 238 255
226 238 255
226 238 255
226 238 255
226 238 255
226 238 255
226 238 255
226 238 255
226 238 255
226 238 255
226 238 255
226 238 255
226 238 255
226 238 255
226 238 255
226 238 255
226 238 255
226 238 255
226 238 255
226 238 255
226 238 255
226 238 255
226 238 255
226 238 255
226 238 255
226 238 255
226 238 255
226 238 255
226 238 255
226 238 255
226 238 255
226 238 255
226 238 255
226 238 255
226 238 255
226 238 255
226 238 255
226 238 255
226 238 255
226 238 255
226 238 255
226 238 255
226 238 255
226 238 255
226 238 255
226 238 255
226 238 255
226 238 255
226 238 255
226 238 255
226 238 255
226 238 255
226 238 255
226 238 255
226 238 255
226 238 255
226 238 255
226 238 255
226 238 255
226 238 255
226 238 255
226 238 255
226 238 255
226 238 255
226 238 255
226 238 255
226 238 255
226 238 255
226 238 255
226 238 255
226 238 255
226 238 255
226 238 255
226 238 255
226 238 255
226 238 255
226 238 255
226 238 255
226 238 255
226 238 255
226 238 255
226 238 255
226 238 255
226 238 255
226 238 255
226 238 255
226 238 255
226 238 255
226 238 255
226 238 255
226 238 255
226 238 255
226 238 255
226 238 255
226 238 255
226 238 255
226 238 255
226 238 255
226 238 255
226 238 255
226 238 255
226 238 255
226 238 255
226 238 255
226 238 255
226 238 255
226 238 255
226 238 255
226 238 255
226 238 255
226 238 255
226 238 255
226 238 255
226 238 255
226 238 255
226 238 255
226 238 255
226 238 255
226 238 255
226 238 255
226 238 255
226 238 255
226 238 255
226 238 255
226 238 255
226 238 255
226 238 255
226 238 255
226 238 255
226 238 255
226 238 255
226 238 255
226 238 255
226 238 255
226 238 255
226 238 255
226 238 255
226 238 255
226 238 255
226 238 255
226 238 255
226 238 255
226 238 255
226 238 255
226 238 255
226 238 255
226 238 255
226 238 255
226 238 255
226 238 255
226 238 255
226 238 255
226 238 255
226 238 255
226 238 255
226 238 255
226 238 255
226 238 255
226 238 255
226 238 255
226 238 255
206 217 235
132 139 161
0 13 75
0 17 78
0 10 72
0 8 71
0 10 71
0 5 69
0 3 68
0 0 66
0 0 63
0 0 65
0 0 68
0 4 69
0 8 69
0 0 61
0 0 60
0 0 63
0 0 62
0 0 60
0 0 55
0 0 57
0 0 59
0 0 57
0 0 57
0 0 56
0 0 54
0 0 50
0 0 47
0 0 48
0 0 52
0 0 57
0 0 55
0 0 55
0 0 54
0 0 54
0 0 56
0 0 56
0 0 55
0 0 54
0 0 54
0 0 53
0 0 56
0 0 54
0 0 52
0 0 54
0 0 53
0 0 54
0 0 56
0 0 56
0 0 57
0 0 56
0 0 55
0 0 57
0 0 57
0 0 57
0 0 57
0 0 56
0 0 53
0 0 52
0 0 52
0 0 52
0 0 49
0 0 51
0 0 52
0 0 53
0 0 56
0 0 57
0 0 54
0 0 56
0 0 59
0 0 57
0 0 58
0 0 58
0 0 57
0 0 56
0 0 59
0 0 60
0 0 64
0 7 71
0 14 79
11 26 67
31 50 58
88 106 118
184 198 210
170 185 195
178 179 164
112 105 69
109 92 48
114 92 52
106 94 59
91 78 59
56 51 68
5 20 77
0 9 73
0 12 75
0 3 70
0 0 67
0 0 67
0 0 67
0 6 68
0 6 67
0 0 66
0 0 69
0 0 65
0 0 60
0 0 60
0 0 61
0 0 61
0 0 61
0 0 61
0 0 61
0 0 62
0 0 64
0 0 65
0 2 67
0 11 75
0 11 73
0 8 71
0 4 68
0 0 67
0 1 66
117 124 144
213 225 242
226 238 255
226 238 255
226 238 255
226 238 255
226 238 255
226 238 255
226 238 255
226 238 255
226 238 255
226 238 255
226 238 255
226 238 255
226 238 255
226 238 255
226 238 255
226 238 255
226 238 255
226 238 255
226 238 255
226 238 255
226 238 255
226 238 255
226 238 255
226 238 255
226 238 255
226 238 255
226 238 255
226 238 255
226 238 255
226 238 255
226 238 255
226 238 255
226 238 255
226 238 255
226 238 255
226 238 255
226 238 255
226 238 255
226 238 255
226 238 255
226 238 255
226 238 255
226 238 255
226 238 255
226 238 255
226 238 255
226 238 255
226 238 255
226 238 255
226 238 255
226 238 255
226 238 255
226 238 255
226 238 255
226 238 255
226 238 255
226 238 255
226 238 255
226 238 255
226 238 255
226 238 255
226 238 255
226 238 255
226 238 255
226 238 255
226 238 255
226 238 255
226 238 255
226 238 255
226 238 255
226 238 255
226 238 255
226 238 255
226 238 255
226 238 255
226 238 255
226 238 255
226 238 255
226 238 255
226 238 255
226 238 255
226 238 255
226 238 255
226 238 255
226 238 255
226 238 255
226 238 255
226 238 255
226 238 255
226 238 255
226 238 255
226 238 255
226 238 255
226 238 255
226 238 255
226 238 255
226 238 255
226 238 255
226 238 255
226 238 255
226 238 255
226 238 255
226 238 255
226 238 255
226 238 255
226 238 255
226 238 255
226 238 255
226 238 255
226 238 255
226 238 255
226 238 255
226 238 255
226 238 255
226 238 255
226 238 255
226 238 255
226 238 255
226 238 255
226 238 255
226 238 255
226 238 255
226 238 255
226 238 255
226 238 255
226 238 255
226 238 255
226 238 255
226 238 255
226 238 255
226 238 255
226 238 255
226 238 255
226 238 255
226 238 255
226 238 255
226 238 255
226 238 255
226 238 255
226 238 255
226 238 255
226 238 255
226 238 255
226 238 255
226 238 255
226 238 255
226 238 255
226 238 255
226 238 255
226 238 255
226 238 255
226 238 255
226 238 255
226 238 255
226 238 255
226 238 255
226 238 255
226 238 255
226 238 255
226 238 255
226 238 255
226 238 255
226 238 255
226 238 255
226 238 255
226 238 255
226 238 255
226 238 255
226 238 255
226 238 255
226 238 255
226 238 255
226 238 255
226 238 255
226 238 255
226 238 255
226 238 255
226 238 255
226 238 255
226 238 255
226 238 255
226 238 255
226 238 255
226 238 255
226 238 255
226 238 255
226 238 255
226 238 255
226 238 255
226 238 255
226 238 255
226 238 255
226 238 255
226 238 255
226 238 255
226 238 255
226 238 255
226 238 255
226 238 255
226 238 255
226 238 255
226 238 255
226 238 255
226 238 255
226 238 255
226 238 255
226 238 255
226 238 255
226 238 255
226 238 255
226 238 255
226 238 255
226 238 255
226 238 255
226 238 255
226 238 255
226 238 255
226 238 255
226 238 255
226 238 255
226 238 255
226 238 255
226 238 255
226 238 255
226 238 255
226 238 255
226 238 255
226 238 255
226 238 255
226 238 255
226 238 255
226 238 255
226 238 255
226 238 255
226 238 255
226 238 255
226 238 255
226 238 255
226 238 255
226 238 255
226 238 255
226 238 255
226 238 255
226 238 255
226 238 255
226 238 255
226 238 255
226 238 255
226 238 255
226 238 255
226 238 255
226 238 255
226 238 255
226 238 255
226 238 255
226 238 255
226 238 255
226 238 255
226 238 255
226 238 255
226 238 255
226 238 255
226 238 255
226 238 255
226 238 255
226 238 255
226 238 255
226 238 255
226 238 255
226 238 255
226 238 255
226 238 255
226 238 255
226 238 255
226 238 255
226 238 255
226 238 255
223 235 252
169 179 198
22 31 85
0 23 84
0 18 79
0 12 73
0 10 71
0 8 69
0 8 71
0 0 66
0 0 66
0 0 67
0 0 63
0 4 66
0 4 69
0 0 65
0 0 63
0 0 61
0 0 64
0 0 63
0 0 61
0 0 58
0 0 57
0 0 54
0 0 53
0 0 56
0 0 54
0 0 52
0 0 50
0 0 48
0 0 51
0 0 60
0 0 59
0 0 57
0 0 54
0 0 54
0 0 62
0 0 61
0 0 57
0 0 57
0 0 56
0 0 58
0 0 54
0 0 55
0 0 57
0 0 60
0 0 59
0 0 57
0 0 54
0 0 56
0 0 57
0 0 57
0 0 57
0 0 58
0 0 58
0 0 59
0 0 62
0 0 59
0 0 56
0 0 55
0 0 53
0 0 50
0 0 51
0 0 51
0 0 53
0 0 53
0 0 56
0 0 57
0 0 57
0 0 57
0 0 57
0 0 57
0 0 56
0 0 57
0 0 58
0 0 59
0 0 59
0 0 64
0 0 68
0 14 77
32 50 71
104 123 141
186 194 208
199 214 221
130 139 128
121 109 76
117 101 58
105 92 51
95 82 45
80 75 56
25 36 75
0 9 74
0 12 75
0 13 77
0 0 70
0 0 68
0 0 67
0 0 68
0 3 70
0 6 71
0 0 69
0 0 69
0 0 65
0 0 62
0 0 62
0 0 63
0 0 65
0 0 64
0 0 64
0 0 64
0 0 64
0 0 65
0 4 68
0 6 70
0 14 76
0 12 74
0 0 67
0 6 70
0 3 69
64 67 96
171 180 198
224 236 253
226 238 255
226 238 255
226 238 255
226 238 255
226 238 255
226 238 255
226 238 255
226 238 255
226 238 255
226 238 255
226 238 255
226 238 255
226 238 255
226 238 255
226 238 255
226 238 255
226 238 255
226 238 255
226 238 255
226 238 255
226 238 255
226 238 255
226 238 255
226 238 255
226 238 255
226 238 255
226 238 255
226 238 255
226 238 255
226 238 255
226 238 255
226 238 255
226 238 255
226 238 255
226 238 255
226 238 255
226 238 255
226 238 255
226 238 255
226 238 255
226 238 255
226 238 255
226 238 255
226 238 255
226 238 255
226 238 255
226 238 255
226 238 255
226 238 255
226 238 255
226 238 255
226 238 255
226 238 255
226 238 255
226 238 255
226 238 255
226 238 255
226 238 255
226 238 255
226 238 255
226 238 255
226 238 255
226 238 255
226 238 255
226 238 255
226 238 255
226 238 255
226 238 255
226 238 255
226 238 255
226 238 255
226 238 255
226 238 255
226 238 255
226 238 255
226 238 255
226 238 255
226 238 255
226 238 255
226 238 255
226 238 255
226 238 255
226 238 255
226 238 255
226 238 255
226 238 255
226 238 255
226 238 255
226 238 255
226 238 255
226 238 255
226 238 255
226 238 255
226 238 255
226 238 255
226 238 255
226 238 255
226 238 255
226 238 255
226 238 255
226 238 255
226 238 255
226 238 255
226 238 255
226 238 255
226 238 255
226 238 255
226 238 255
226 238 255
226 238 255
226 238 255
226 238 255
226 238 255
226 238 255
226 238 255
226 238 255
226 238 255
226 238 255
226 238 255
226 238 255
226 238 255
226 238 255
226 238 255
226 238 255
226 238 255
226 238 255
226 238 255
226 238 255
226 238 255
226 238 255
226 238 255
226 238 255
226 238 255
226 238 255
226 238 255
226 238 255
226 238 255
226 238 255
226 238 255
226 238 255
226 238 255
226 238 255
226 238 255
226 238 255
226 238 255
226 238 255
226 238 255
226 238 255
226 238 255
226 238 255
226 238 255
226 238 255
226 238 255
226 238 255
226 238 255
226 238 255
226 238 255
226 238 255
226 238 255
226 238 255
226 238 255
226 238 255
226 238 255
226 238 255
226 238 255
226 238 255
226 238 255
226 238 255
226 238 255
226 238 255
226 238 255
226 238 255
226 238 255
226 238 255
226 238 255
226 238 255
226 238 255
226 238 255
226 238 255
226 238 255
226 238 255
226 238 255
226 238 255
226 238 255
226 238 255
226 238 255
226 238 255
226 238 255
226 238 255
226 238 255
226 238 255
226 238 255
226 238 255
226 238 255
226 238 255
226 238 255
226 238 255
226 238 255
226 238 255
226 238 255
226 238 255
226 238 255
226 238 255
226 238 255
226 238 255
226 238 255
226 238 255
226 238 255
226 238 255
226 238 255
226 238 255
226 238 255
226 238 255
226 238 255
226 238 255
226 238 255
226 238 255
226 238 255
226 238 255
226 238 255
226 238 255
226 238 255
226 238 255
226 238 255
226 238 255
226 238 255
226 238 255
226 238 255
226 238 255
226 238 255
226 238 255
226 238 255
226 238 255
226 238 255
226 238 255
226 238 255
226 238 255
226 238 255
226 238 255
226 238 255
226 238 255
226 238 255
226 238 255
226 238 255
226 238 255
226 238 255
226 238 255
226 238 255
226 238 255
226 238 255
226 238 255
226 238 255
226 238 255
226 238 255
226 238 255
226 238 255
226 238 255
226 238 255
226 238 255
226 238 255
226 238 255
226 238 255
226 238 255
226 238 255
226 238 255
226 238 255
226 238 255
226 238 255
226 238 255
226 238 255
226 238 255
226 238 255
226 238 255
226 238 255
226 238 255
226 238 255
226 238 255
226 238 255
226 238 255
226 238 255
214 225 242
122 130 154
0 23 84
0 21 82
0 14 75
0 11 72
0 10 71
0 11 73
0 5 68
0 0 69
0 3 69
0 4 67
0 5 67
0 4 69
0 0 66
0 0 64
0 0 65
0 0 64
0 0 63
0 0 62
0 0 57
0 0 56
0 0 53
0 0 52
0 0 53
0 0 52
0 0 54
0 0 54
0 0 53
0 0 53
0 0 58
0 0 61
0 0 63
0 0 62
0 0 55
0 0 54
0 0 62
0 0 61
0 0 58
0 0 61
0 0 61
0 0 60
0 0 60
0 0 60
0 0 58
0 0 59
0 0 59
0 0 59
0 0 61
0 0 61
0 0 62
0 0 64
0 0 63
0 0 61
0 0 65
0 0 65
0 0 61
0 0 57
0 0 55
0 0 53
0 0 53
0 0 53
0 0 52
0 0 52
0 0 54
0 0 58
0 0 59
0 0 60
0 0 59
0 0 58
0 0 57
0 0 56
0 0 58
0 0 59
0 0 59
0 0 64
0 0 66
6 18 78
25 46 72
102 124 148
195 206 220
162 177 180
115 113 88
114 104 66
101 86 43
84 74 52
42 47 75
11 23 80
0 15 80
0 15 77
0 10 72
0 7 71
0 0 67
0 3 66
0 5 68
20 30 67
33 34 68
21 25 67
0 3 70
0 0 65
0 0 64
0 0 63
0 0 63
0 0 65
0 0 63
0 0 64
0 0 66
0 0 66
0 0 66
0 1 69
0 13 75
10 20 79
11 19 74
0 2 68
0 10 70
0 9 71
128 135 155
210 221 238
226 238 255
226 238 255
226 238 255
226 238 255
226 238 255
226 238 255
226 238 255
226 238 255
226 238 255
226 238 255
226 238 255
226 238 255
226 238 255
226 238 255
226 238 255
226 238 255
226 238 255
226 238 255
226 238 255
226 238 255
226 238 255
226 238 255
226 238 255
226 238 255
226 238 255
226 238 255
226 238 255
226 238 255
226 238 255
226 238 255
226 238 255
226 238 255
226 238 255
226 238 255
226 238 255
226 238 255
226 238 255
226 238 255
226 238 255
226 238 255
226 238 255
226 238 255
226 238 255
226 238 255
226 238 255
226 238 255
226 238 255
226 238 255
226 238 255
226 238 255
226 238 255
226 238 255
226 238 255
226 238 255
226 238 255
226 238 255
226 238 255
226 238 255
226 238 255
226 238 255
226 238 255
226 238 255
226 238 255
226 238 255
226 238 255
226 238 255
226 238 255
226 238 255
226 238 255
226 238 255
226 238 255
226 238 255
226 238 255
226 238 255
226 238 255
226 238 255
226 238 255
226 238 255
226 238 255
226 238 255
226 238 255
226 238 255
226 238 255
226 238 255
226 238 255
226 238 255
226 238 255
226 238 255
226 238 255
226 238 255
226 238 255
226 238 255
226 238 255
226 238 255
226 238 255
226 238 255
226 238 255
226 238 255
226 238 255
226 238 255
226 238 255
226 238 255
226 238 255
226 238 255
226 238 255
226 238 255
226 238 255
226 238 255
226 238 255
226 238 255
226 238 255
226 238 255
226 238 255
226 238 255
226 238 255
226 238 255
226 238 255
226 238 255
226 238 255
226 238 255
226 238 255
226 238 255
226 238 255
226 238 255
226 238 255
226 238 255
226 238 255
226 238 255
226 238 255
226 238 255
226 238 255
226 238 255
226 238 255
226 238 255
226 238 255
226 238 255
226 238 255
226 238 255
226 238 255
226 238 255
226 238 255
226 238 255
226 238 255
226 238 255
226 238 255
226 238 255
226 238 255
226 238 255
226 238 255
226 238 255
226 238 255
226 238 255
226 238 255
226 238 255
226 238 255
226 238 255
226 238 255
226 238 255
226 238 255
226 238 255
226 238 255
226 238 255
226 238 255
226 238 255
226 238 255
226 238 255
226 238 255
226 238 255
226 238 255
226 238 255
226 238 255
226 238 255
226 238 255
226 238 255
226 238 255
226 238 255
226 238 255
226 238 255
226 238 255
226 238 255
226 238 255
226 238 255
226 238 255
226 238 255
226 238 255
226 238 255
226 238 255
226 238 255
226 238 255
226 238 255
226 238 255
226 238 255
226 238 255
226 238 255
226 238 255
226 238 255
226 238 255
226 238 255
226 238 255
226 238 255
226 238 255
226 238 255
226 238 255
226 238 255
226 238 255
226 238 255
226 238 255
226 238 255
226 238 255
226 238 255
226 238 255
226 238 255
226 238 255
226 238 255
226 238 255
226 238 255
226 238 255
226 238 255
226 238 255
226 238 255
226 238 255
226 238 255
226 238 255
226 238 255
226 238 255
226 238 255
226 238 255
226 238 255
226 238 255
226 238 255
226 238 255
226 238 255
226 238 255
226 238 255
226 238 255
226 238 255
226 238 255
226 238 255
226 238 255
226 238 255
226 238 255
226 238 255
226 238 255
226 238 255
226 238 255
226 238 255
226 238 255
226 238 255
226 238 255
226 238 255
226 238 255
226 238 255
226 238 255
226 238 255
226 238 255
226 238 255
226 238 255
226 238 255
226 238 255
226 238 255
226 238 255
226 238 255
226 238 255
226 238 255
226 238 255
226 238 255
226 238 255
226 238 255
226 238 255
226 238 255
226 238 255
226 238 255
226 238 255
226 238 255
226 238 255
226 238 255
226 238 255
226 238 255
226 238 255
226 238 255
226 238 255
226 238 255
226 238 255
226 238 255
182 193 213
87 96 128
0 23 85
0 18 80
0 20 79
0 15 77
0 10 73
0 5 68
0 0 66
0 0 66
0 8 71
0 7 67
0 2 66
0 6 69
0 4 67
0 0 65
0 0 65
0 5 68
0 11 71
0 8 67
0 0 60
0 0 53
0 0 52
0 0 54
0 0 54
0 0 57
0 0 61
0 0 63
0 0 61
0 0 58
0 0 58
0 0 63
0 0 62
0 0 60
0 0 57
0 0 56
0 0 59
0 0 62
0 0 64
0 0 64
0 0 61
0 0 62
0 0 59
0 0 58
0 0 62
0 0 63
0 0 65
0 0 65
0 0 65
0 6 66
0 0 66
0 0 64
0 0 59
0 0 62
0 0 66
0 0 63
0 0 62
0 0 62
0 0 58
0 0 55
0 0 55
0 0 55
0 0 54
0 0 55
0 0 59
0 0 62
0 0 65
0 0 64
0 0 63
0 0 61
0 0 63
0 0 64
0 0 62
0 0 65
0 5 68
7 25 81
42 68 93
108 126 144
153 164 171
115 106 87
108 96 57
88 76 35
75 66 33
33 45 81
0 21 80
0 18 81
0 16 80
0 16 77
0 9 73
0 1 70
0 7 72
5 15 72
20 31 64
37 48 63
30 39 64
4 11 69
0 2 67
0 0 65
0 0 64
0 0 64
0 5 66
0 4 68
0 5 67
0 9 70
0 9 71
0 6 70
0 8 70
0 6 70
0 14 77
57 68 108
21 29 79
0 16 77
90 97 126
193 204 222
226 238 255
226 238 255
226 238 255
226 238 255
226 238 255
226 238 255
226 238 255
226 238 255
226 238 255
226 238 255
226 238 255
226 238 255
226 238 255
226 238 255
226 238 255
226 238 255
226 238 255
226 238 255
226 238 255
226 238 255
226 238 255
226 238 255
226 238 255
226 238 255
226 238 255
226 238 255
226 238 255
226 238 255
226 238 255
226 238 255
226 238 255
226 238 255
226 238 255
226 238 255
226 238 255
226 238 255
226 238 255
226 238 255
226 238 255
226 238 255
226 238 255
226 238 255
226 238 255
226 238 255
226 238 255
226 238 255
226 238 255
226 238 255
226 238 255
226 238 255
226 238 255
226 238 255
226 238 255
226 238 255
226 238 255
226 238 255
226 238 255
226 238 255
226 238 255
226 238 255
226 238 255
226 238 255
226 238 255
226 238 255
226 238 255
226 238 255
226 238 255
226 238 255
226 238 255
226 238 255
226 238 255
226 238 255
226 238 255
226 238 255
226 238 255
226 238 255
226 238 255
226 238 255
226 238 255
226 238 255
226 238 255
226 238 255
226 238 255
226 238 255
226 238 255
226 238 255
226 238 255
226 238 255
226 238 255
226 238 255
226 238 255
226 238 255
226 238 255
226 238 255
226 238 255
226 238 255
226 238 255
226 238 255
226 238 255
226 238 255
226 238 255
226 238 255
226 238 255
226 238 255
226 238 255
226 238 255
226 238 255
226 238 255
226 238 255
226 238 255
226 238 255
226 238 255
226 238 255
226 238 255
226 238 255
226 238 255
226 238 255
226 238 255
226 238 255
226 238 255
226 238 255
226 238 255
226 238 255
226 238 255
226 238 255
226 238 255
226 238 255
226 238 255
226 238 255
226 238 255
226 238 255
226 238 255
226 238 255
226 238 255
226 238 255
226 238 255
226 238 255
226 238 255
226 238 255
226 238 255
226 238 255
226 238 255
226 238 255
226 238 255
226 238 255
226 238 255
226 238 255
226 238 255
226 238 255
226 238 255
226 238 255
226 238 255
226 238 255
226 238 255
226 238 255
226 238 255
226 238 255
226 238 255
226 238 255
226 238 255
226 238 255
226 238 255
226 238 255
226 238 255
226 238 255
226 238 255
226 238 255
226 238 255
226 238 255
226 238 255
226 238 255
226 238 255
226 238 255
226 238 255
226 238 255
226 238 255
226 238 255
226 238 255
226 238 255
226 238 255
226 238 255
226 238 255
226 238 255
226 238 255
226 238 255
226 238 255
226 238 255
226 238 255
226 238 255
226 238 255
226 238 255
226 238 255
226 238 255
226 238 255
226 238 255
226 238 255
226 238 255
226 238 255
226 238 255
226 238 255
226 238 255
226 238 255
226 238 255
226 238 255
226 238 255
226 238 255
226 238 255
226 238 255
226 238 255
226 238 255
226 238 255
226 238 255
226 238 255
226 238 255
226 238 255
226 238 255
226 238 255
226 238 255
226 238 255
226 238 255
226 238 255
226 238 255
226 238 255
226 238 255
226 238 255
226 238 255
226 238 255
226 238 255
226 238 255
226 238 255
226 238 255
226 238 255
226 238 255
226 238 255
226 238 255
226 238 255
226 238 255
226 238 255
226 238 255
226 238 255
226 238 255
226 238 255
226 238 255
226 238 255
226 238 255
226 238 255
226 238 255
226 238 255
226 238 255
226 238 255
226 238 255
226 238 255
226 238 255
226 238 255
226 238 255
226 238 255
226 238 255
226 238 255
226 238 255
226 238 255
226 238 255
226 238 255
226 238 255
226 238 255
226 238 255
226 238 255
226 238 255
226 238 255
226 238 255
226 238 255
226 238 255
226 238 255
226 238 255
226 238 255
226 238 255
226 238 255
226 238 255
226 238 255
226 238 255
226 238 255
226 238 255
226 238 255
226 238 255
226 238 255
226 238 255
226 238 255
226 238 255
218 230 248
157 167 189
45 56 102
0 21 83
0 15 76
0 17 78
0 21 82
0 14 74
0 6 67
0 4 67
0 9 72
0 10 74
0 12 74
0 12 72
0 6 69
0 0 65
0 0 66
0 5 69
0 6 71
0 4 68
0 0 62
0 0 54
0 0 54
0 0 58
0 0 57
0 0 57
0 0 64
0 0 64
0 0 63
0 0 58
0 0 55
0 0 59
0 0 60
0 0 64
0 0 64
0 0 63
0 0 65
0 0 68
0 4 70
0 0 66
0 0 66
0 0 63
0 0 58
0 0 60
0 0 65
0 0 63
0 0 63
0 0 66
0 4 67
0 6 64
0 0 62
0 6 68
0 0 68
0 0 67
0 0 66
0 0 66
0 0 66
0 0 62
0 0 58
0 0 57
0 0 59
0 0 56
0 0 55
0 0 57
0 0 63
0 0 67
0 0 67
0 0 64
0 0 64
0 0 65
0 0 67
0 9 71
0 12 72
0 14 75
14 34 84
30 56 84
88 107 121
84 98 109
89 91 71
87 73 42
73 70 51
55 60 59
21 43 80
0 20 81
0 16 80
0 13 75
0 3 69
0 3 69
0 1 69
0 3 68
0 8 73
0 14 73
0 14 74
0 9 74
0 0 65
0 0 66
0 0 63
0 0 63
0 0 67
0 3 70
0 7 70
0 2 70
0 10 71
0 5 68
0 4 69
0 12 73
0 10 71
0 16 78
0 17 79
22 29 81
126 134 158
217 229 246
226 238 255
226 238 255
226 238 255
226 238 255
226 238 255
226 238 255
226 238 255
226 238 255
226 238 255
226 238 255
226 238 255
226 238 255
226 238 255
226 238 255
226 238 255
226 238 255
226 238 255
226 238 255
226 238 255
226 238 255
226 238 255
226 238 255
226 238 255
226 238 255
226 238 255
226 238 255
226 238 255
226 238 255
226 238 255
226 238 255
226 238 255
226 238 255
226 238 255
226 238 255
226 238 255
226 238 255
226 238 255
226 238 255
226 238 255
226 238 255
226 238 255
226 238 255
226 238 255
226 238 255
226 238 255
226 238 255
226 238 255
226 238 255
226 238 255
226 238 255
226 238 255
226 238 255
226 238 255
226 238 255
226 238 255
226 238 255
226 238 255
226 238 255
226 238 255
226 238 255
226 238 255
226 238 255
226 238 255
226 238 255
226 238 255
226 238 255
226 238 255
226 238 255
226 238 255
226 238 255
226 238 255
226 238 255
226 238 255
226 238 255
226 238 255
226 238 255
226 238 255
226 238 255
226 238 255
226 238 255
226 238 255
226 238 255
226 238 255
226 238 255
226 238 255
226 238 255
226 238 255
226 238 255
226 238 255
226 238 255
226 238 255
226 238 255
226 238 255
226 238 255
226 238 255
226 238 255
226 238 255
226 238 255
226 238 255
226 238 255
226 238 255
226 238 255
226 238 255
226 238 255
226 238 255
226 238 255
226 238 255
226 238 255
226 238 255
226 238 255
226 238 255
226 238 255
226 238 255
226 238 255
226 238 255
226 238 255
226 238 255
226 238 255
226 238 255
226 238 255
226 238 255
226 238 255
226 238 255
226 238 255
226 238 255
226 238 255
226 238 255
226 238 255
226 238 255
226 238 255
226 238 255
226 238 255
226 238 255
226 238 255
226 238 255
226 238 255
226 238 255
226 238 255
226 238 255
226 238 255
226 238 255
226 238 255
226 238 255
226 238 255
226 238 255
226 238 255
226 238 255
226 238 255
226 238 255
226 238 255
226 238 255
226 238 255
226 238 255
226 238 255
226 238 255
226 238 255
226 238 255
226 238 255
226 238 255
226 238 255
226 238 255
226 238 255
226 238 255
226 238 255
226 238 255
226 238 255
226 238 255
226 238 255
226 238 255
226 238 255
226 238 255
226 238 255
226 238 255
226 238 255
226 238 255
226 238 255
226 238 255
226 238 255
226 238 255
226 238 255
226 238 255
226 238 255
226 238 255
226 238 255
226 238 255
226 238 255
226 238 255
226 238 255
226 238 255
226 238 255
226 238 255
226 238 255
226 238 255
226 238 255
226 238 255
226 238 255
226 238 255
226 238 255
226 238 255
226 238 255
226 238 255
226 238 255
226 238 255
226 238 255
226 238 255
226 238 255
226 238 255
226 238 255
226 238 255
226 238 255
226 238 255
226 238 255
226 238 255
226 238 255
226 238 255
226 238 255
226 238 255
226 238 255
226 238 255
226 238 255
226 238 255
226 238 255
226 238 255
226 238 255
226 238 255
226 238 255
226 238 255
226 238 255
226 238 255
226 238 255
226 238 255
226 238 255
226 238 255
226 238 255
226 238 255
226 238 255
226 238 255
226 238 255
226 238 255
226 238 255
226 238 255
226 238 255
226 239 255
226 239 255
226 239 255
226 239 255
226 239 255
226 239 255
226 239 255
226 239 255
226 239 255
226 239 255
226 239 255
226 239 255
226 239 255
226 239 255
226 239 255
226 239 255
226 239 255
226 239 255
226 239 255
226 239 255
226 239 255
226 239 255
226 239 255
226 239 255
226 239 255
226 239 255
226 239 255
226 239 255
226 239 255
226 239 255
226 239 255
226 239 255
226 239 255
226 239 255
226 239 255
226 239 255
227 239 255
226 239 255
226 239 255
227 239 255
227 239 255
227 239 255
227 239 255
227 239 255
227 239 255
227 239 255
227 239 255
227 239 255
199 210 228
126 136 163
0 30 91
0 25 86
0 21 82
0 23 85
0 18 80
0 10 72
0 5 67
0 11 72
0 13 74
0 16 75
0 15 76
0 12 75
0 3 68
0 7 69
0 3 69
0 3 67
0 8 71
0 8 68
0 0 64
0 0 57
0 0 59
0 0 58
0 0 57
0 0 59
0 0 60
0 0 62
0 0 62
0 0 61
0 0 61
0 0 60
0 0 61
0 0 63
0 0 65
0 0 67
0 6 70
0 2 66
0 0 63
0 0 61
0 0 61
0 0 56
0 0 56
0 0 62
0 0 66
0 0 67
0 3 68
0 16 78
0 4 70
0 5 67
0 3 66
0 0 66
0 0 66
0 0 66
0 0 63
0 0 60
0 0 58
0 0 61
0 0 64
0 0 58
0 0 56
0 0 60
0 0 65
0 0 68
0 0 68
0 0 64
0 0 63
0 4 65
0 9 71
0 13 73
0 13 74
0 14 75
6 27 83
24 52 90
111 133 152
105 122 143
88 110 115
44 53 68
64 66 49
84 76 45
21 41 90
0 19 81
0 14 78
0 9 71
0 7 70
0 10 72
0 8 69
0 6 69
0 11 74
0 9 72
0 10 71
0 0 70
0 5 70
0 0 65
0 0 63
0 0 63
0 0 66
0 8 68
0 13 74
0 9 73
0 11 72
0 14 75
0 15 76
0 14 76
0 20 82
2 19 79
122 129 153
199 210 228
227 239 255
227 239 255
227 239 255
227 239 255
227 239 255
226 239 255
227 239 255
226 239 255
226 239 255
226 239 255
226 239 255
226 239 255
226 239 255
226 239 255
226 239 255
226 239 255
226 239 255
226 239 255
226 239 255
226 239 255
226 239 255
226 239 255
226 239 255
226 239 255
226 239 255
226 239 255
226 239 255
226 239 255
226 239 255
226 239 255
226 239 255
226 239 255
226 239 255
226 239 255
226 239 255
226 239 255
226 239 255
226 239 255
226 239 255
226 239 255
226 239 255
226 239 255
226 239 255
226 239 255
226 239 255
226 239 255
226 238 255
226 239 255
226 238 255
226 238 255
226 238 255
226 238 255
226 238 255
226 238 255
226 238 255
226 238 255
226 238 255
226 238 255
226 238 255
226 238 255
226 238 255
226 238 255
226 238 255
226 238 255
226 238 255
226 238 255
226 238 255
226 238 255
226 238 255
226 238 255
226 238 255
226 238 255
226 238 255
226 238 255
226 238 255
226 238 255
226 238 255
226 238 255
226 238 255
226 238 255
226 238 255
226 238 255
226 238 255
226 238 255
226 238 255
226 238 255
226 238 255
226 238 255
226 238 255
226 238 255
226 238 255
226 238 255
226 238 255
226 238 255
226 238 255
226 238 255
226 238 255
226 238 255
226 238 255
226 238 255
226 238 255
226 238 255
226 238 255
226 238 255
226 238 255
226 238 255
226 238 255
226 238 255
226 238 255
226 238 255
226 238 255
226 238 255
226 238 255
226 238 255
226 238 255
226 238 255
226 238 255
226 238 255
226 238 255
226 238 255
226 238 255
226 238 255
226 238 255
226 238 255
226 238 255
226 238 255
226 238 255
226 238 255
226 238 255
226 238 255
226 238 255
226 238 255
226 238 255
226 238 255
226 238 255
226 238 255
226 238 255
226 238 255
226 238 255
226 238 255
226 238 255
226 238 255
226 238 255
226 238 255
226 238 255
226 238 255
226 238 255
226 238 255
226 238 255
226 238 255
226 238 255
226 238 255
226 238 255
226 238 255
226 238 255
226 238 255
226 238 255
226 238 255
226 238 255
226 238 255
226 238 255
226 238 255
226 238 255
226 238 255
226 238 255
226 238 255
226 238 255
226 238 255
226 238 255
226 238 255
226 238 255
226 238 255
226 238 255
226 238 255
226 238 255
226 238 255
226 238 255
226 238 255
226 238 255
226 238 255
226 238 255
226 238 255
226 238 255
226 238 255
226 238 255
226 238 255
226 238 255
226 238 255
226 238 255
226 238 255
226 238 255
226 238 255
226 238 255
226 238 255
226 238 255
226 238 255
226 238 255
226 238 255
226 238 255
226 238 255
226 238 255
226 238 255
226 238 255
226 238 255
226 238 255
226 238 255
226 238 255
226 239 255
226 239 255
226 239 255
226 239 255
226 239 255
226 239 255
226 239 255
226 239 255
226 239 255
226 239 255
226 239 255
226 239 255
226 239 255
226 239 255
226 239 255
226 239 255
226 239 255
226 239 255
226 239 255
226 239 255
226 239 255
226 239 255
226 239 255
226 239 255
226 239 255
226 239 255
226 239 255
227 239 255
227 239 255
227 239 255
227 239 255
227 239 255
227 239 255
227 239 255
227 239 255
227 239 255
227 239 255
227 239 255
227 239 255
227 239 255
227 239 255
227 239 255
227 239 255
227 239 255
227 239 255
227 239 255
227 239 255
227 239 255
227 239 255
227 239 255
227 239 255
227 239 255
227 239 255
227 239 255
227 239 255
227 239 255
227 239 255
227 239 255
227 239 255
227 239 255
227 239 255
227 239 255
227 239 255
227 239 255
227 239 255
227 239 255
227 239 255
227 239 255
227 239 255
227 239 255
227 239 255
227 239 255
227 239 255
227 239 255
227 239 255
227 239 255
227 239 255
227 239 255
227 239 255
227 239 255
227 239 255
227 239 255
227 239 255
227 239 255
227 239 255
227 239 255
227 239 255
188 199 219
93 106 140
0 33 94
0 24 85
0 23 85
0 25 85
0 17 79
0 11 72
0 11 71
0 16 77
0 18 79
0 17 79
0 18 81
0 11 73
0 9 72
0 8 72
0 0 70
0 13 74
0 11 73
0 7 68
0 2 59
0 0 60
0 2 64
0 0 61
0 1 64
0 4 68
0 5 64
0 3 63
0 0 58
0 0 63
0 0 62
0 2 65
0 3 64
0 0 68
0 0 68
0 0 69
0 0 67
0 0 63
0 0 62
0 0 60
0 0 58
0 0 61
0 0 66
0 0 69
0 1 70
0 12 73
0 9 73
0 7 71
0 2 68
0 0 68
0 0 65
0 0 66
0 0 64
0 0 61
0 0 58
0 0 63
0 0 64
0 0 61
0 0 61
0 0 66
0 0 68
0 0 66
0 0 64
0 0 65
0 0 66
0 0 69
0 9 71
0 8 66
0 0 68
0 1 68
0 13 78
12 35 82
78 97 123
91 110 137
105 121 145
113 132 146
103 114 118
82 85 65
54 64 55
24 34 64
5 20 75
0 13 71
0 11 71
0 11 73
0 5 71
0 5 69
0 13 75
0 15 76
0 10 72
0 0 67
0 0 62
0 6 68
0 4 68
0 4 68
0 3 69
0 10 74
0 22 83
0 22 82
0 16 76
0 16 77
0 16 78
0 16 79
108 115 141
203 214 231
227 239 255
227 239 255
227 239 255
227 239 255
227 239 255
227 239 255
227 239 255
227 239 255
227 239 255
227 239 255
227 239 255
227 239 255
227 239 255
227 239 255
227 239 255
227 239 255
227 239 255
227 239 255
227 239 255
227 239 255
227 239 255
227 239 255
227 239 255
227 239 255
227 239 255
227 239 255
227 239 255
227 239 255
227 239 255
227 239 255
227 239 255
227 239 255
227 239 255
227 239 255
227 239 255
227 239 255
227 239 255
227 239 255
227 239 255
227 239 255
227 239 255
227 239 255
227 239 255
227 239 255
227 239 255
227 239 255
227 239 255
227 239 255
227 239 255
227 239 255
227 239 255
227 239 255
227 239 255
227 239 255
227 239 255
227 239 255
227 239 255
227 239 255
227 239 255
227 239 255
227 239 255
226 239 255
226 239 255
226 239 255
226 239 255
226 239 255
226 239 255
226 239 255
226 239 255
226 239 255
226 239 255
226 239 255
226 239 255
226 239 255
226 239 255
226 239 255
226 239 255
226 239 255
226 239 255
226 239 255
226 239 255
226 239 255
226 239 255
226 239 255
226 239 255
226 239 255
226 239 255
226 238 255
226 238 255
226 238 255
226 238 255
226 238 255
226 238 255
226 238 255
226 238 255
226 238 255
226 238 255
226 238 255
226 238 255
226 238 255
226 238 255
226 238 255
226 238 255
226 238 255
226 238 255
226 238 255
226 238 255
226 238 255
226 238 255
226 238 255
226 238 255
226 238 255
226 238 255
226 238 255
226 238 255
226 238 255
226 238 255
226 238 255
226 238 255
226 238 255
226 238 255
226 238 255
226 238 255
226 238 255
226 238 255
226 238 255
226 238 255
226 238 255
226 238 255
226 238 255
226 238 255
226 238 255
226 238 255
226 238 255
226 238 255
226 238 255
226 238 255
226 238 255
226 238 255
226 238 255
226 238 255
226 238 255
226 238 255
226 238 255
226 238 255
226 238 255
226 238 255
226 238 255
226 238 255
226 238 255
226 238 255
226 238 255
226 238 255
226 238 255
226 238 255
226 238 255
226 238 255
226 238 255
226 238 255
226 238 255
226 238 255
226 238 255
226 238 255
226 238 255
226 238 255
226 238 255
226 238 255
226 238 255
226 238 255
226 238 255
226 238 255
226 238 255
226 238 255
226 238 255
226 238 255
226 238 255
226 238 255
226 238 255
226 238 255
226 238 255
226 238 255
226 239 255
226 239 255
226 239 255
226 239 255
226 239 255
226 239 255
226 239 255
226 239 255
226 239 255
226 239 255
226 239 255
226 239 255
226 239 255
226 239 255
226 239 255
226 239 255
226 239 255
226 239 255
226 239 255
226 239 255
227 239 255
227 239 255
227 239 255
227 239 255
227 239 255
227 239 255
227 239 255
227 239 255
227 239 255
227 239 255
227 239 255
227 239 255
227 239 255
227 239 255
227 239 255
227 239 255
227 239 255
227 239 255
227 239 255
227 239 255
227 239 255
227 239 255
227 239 255
227 239 255
227 239 255
227 239 255
227 239 255
227 239 255
227 239 255
227 239 255
227 239 255
227 239 255
227 239 255
227 239 255
227 239 255
227 239 255
227 239 255
227 239 255
227 239 255
227 239 255
227 239 255
227 239 255
227 239 255
227 239 255
227 239 255
227 239 255
227 239 255
227 239 255
227 239 255
227 239 255
227 239 255
227 239 255
227 239 255
227 239 255
227 239 255
227 239 255
227 239 255
227 239 255
227 239 255
227 239 255
227 239 255
227 239 255
227 239 255
227 239 255
227 239 255
227 239 255
227 239 255
227 239 255
227 239 255
227 239 255
227 239 255
227 239 255
227 239 255
227 239 255
227 239 255
227 239 255
227 239 255
227 239 255
227 239 255
227 239 255
227 239 255
227 239 255
227 239 255
227 239 255
227 239 255
227 239 255
227 239 255
227 239 255
227 239 255
227 239 255
227 239 255
227 239 255
227 239 255
227 239 255
227 239 255
227 239 255
227 239 255
179 190 210
123 132 158
27 41 96
0 30 90
0 23 86
0 24 86
0 24 86
0 24 86
0 21 83
0 20 83
0 19 81
0 21 82
0 19 80
0 16 77
0 21 82
0 19 81
0 16 79
0 19 82
0 15 76
0 12 72
0 13 74
0 10 70
0 0 67
0 8 71
0 11 72
0 11 74
0 12 74
0 11 71
0 3 69
0 1 68
0 3 66
0 0 68
0 1 70
0 6 71
0 6 71
0 0 68
0 0 65
0 0 63
0 0 59
0 0 67
0 2 67
0 0 64
0 3 68
0 5 69
0 11 72
0 7 71
0 0 67
0 0 70
0 0 68
0 0 65
0 0 63
0 0 62
0 0 61
0 0 63
0 0 64
0 0 64
0 0 63
0 0 66
0 0 67
0 0 65
0 4 67
0 0 66
0 0 67
0 0 63
0 1 63
0 12 71
0 6 73
0 5 65
0 6 68
0 13 77
6 22 78
30 46 93
51 72 104
77 96 117
38 70 87
28 45 74
12 26 78
4 12 72
0 8 71
0 4 70
0 6 69
0 5 71
0 12 73
0 15 79
0 15 78
0 14 74
0 9 72
0 10 73
0 9 74
0 6 72
0 13 74
0 20 81
0 18 80
0 21 82
0 27 88
0 29 90
6 23 84
6 17 78
75 81 112
191 201 219
227 239 255
227 239 255
227 239 255
227 239 255
227 239 255
227 239 255
227 239 255
227 239 255
227 239 255
227 239 255
227 239 255
227 239 255
227 239 255
227 239 255
227 239 255
227 239 255
227 239 255
227 239 255
227 239 255
227 239 255
227 239 255
227 239 255
227 239 255
227 239 255
227 239 255
227 239 255
227 239 255
227 239 255
227 239 255
227 239 255
227 239 255
227 239 255
227 239 255
227 239 255
227 239 255
227 239 255
227 239 255
227 239 255
227 239 255
227 239 255
227 239 255
227 239 255
227 239 255
227 239 255
227 239 255
227 239 255
227 239 255
227 239 255
227 239 255
227 239 255
227 239 255
227 239 255
227 239 255
227 239 255
227 239 255
227 239 255
227 239 255
227 239 255
227 239 255
227 239 255
227 239 255
227 239 255
227 239 255
227 239 255
227 239 255
227 239 255
227 239 255
227 239 255
227 239 255
227 239 255
227 239 255
227 239 255
227 239 255
227 239 255
227 239 255
227 239 255
227 239 255
227 239 255
227 239 255
227 239 255
227 239 255
227 239 255
227 239 255
227 239 255
227 239 255
227 239 255
227 239 255
227 239 255
227 239 255
227 239 255
227 239 255
227 239 255
227 239 255
227 239 255
227 239 255
227 239 255
226 239 255
226 239 255
226 239 255
226 239 255
226 239 255
226 239 255
226 239 255
226 239 255
226 239 255
226 239 255
226 239 255
226 239 255
226 239 255
226 239 255
226 239 255
226 239 255
226 239 255
226 239 255
226 239 255
226 239 255
226 239 255
226 239 255
226 238 255
226 238 255
226 238 255
226 238 255
226 238 255
226 238 255
226 238 255
226 238 255
226 238 255
226 238 255
226 238 255
226 238 255
226 238 255
226 238 255
226 238 255
226 238 255
226 238 255
226 238 255
226 238 255
226 238 255
226 238 255
226 238 255
226 238 255
226 238 255
226 238 255
226 238 255
226 238 255
226 238 255
226 238 255
226 238 255
226 238 255
226 238 255
226 238 255
226 238 255
226 238 255
226 238 255
226 238 255
226 238 255
226 238 255
226 239 255
226 239 255
226 239 255
226 239 255
226 239 255
226 239 255
226 239 255
226 239 255
226 239 255
226 239 255
226 239 255
226 239 255
226 239 255
226 239 255
226 239 255
226 239 255
226 239 255
226 239 255
227 239 255
227 239 255
227 239 255
227 239 255
227 239 255
227 239 255
227 239 255
227 239 255
227 239 255
227 239 255
227 239 255
227 239 255
227 239 255
227 239 255
227 239 255
227 239 255
227 239 255
227 239 255
227 239 255
227 239 255
227 239 255
227 239 255
227 239 255
227 239 255
227 239 255
227 239 255
227 239 255
227 239 255
227 239 255
227 239 255
227 239 255
227 239 255
227 239 255
227 239 255
227 239 255
227 239 255
227 239 255
227 239 255
227 239 255
227 239 255
227 239 255
227 239 255
227 239 255
227 239 255
227 239 255
227 239 255
227 239 255
227 239 255
227 239 255
227 239 255
227 239 255
227 239 255
227 239 255
227 239 255
227 239 255
227 239 255
227 239 255
227 239 255
227 239 255
227 239 255
227 239 255
227 239 255
227 239 255
227 239 255
227 239 255
227 239 255
227 239 255
227 239 255
227 239 255
227 239 255
227 239 255
227 239 255
227 239 255
227 239 255
227 239 255
227 239 255
227 239 255
227 239 255
227 239 255
227 239 255
227 239 255
227 239 255
227 239 255
227 239 255
227 239 255
227 239 255
227 239 255
227 239 255
227 239 255
227 239 255
227 239 255
227 239 255
227 239 255
227 239 255
227 239 255
227 239 255
227 239 255
227 239 255
227 239 255
227 239 255
227 239 255
227 239 255
227 239 255
227 239 255
227 239 255
227 239 255
227 239 255
227 239 255
227 239 255
227 239 255
227 239 255
227 239 255
227 239 255
227 239 255
227 239 255
227 239 255
227 239 255
227 239 255
227 239 255
227 239 255
227 239 255
227 239 255
227 239 255
227 239 255
227 239 255
227 239 255
226 237 254
190 201 219
112 122 150
15 38 96
0 28 90
0 29 90
0 28 89
0 27 88
0 23 86
0 23 84
0 23 85
0 24 86
0 24 85
0 19 81
0 27 87
0 25 85
0 22 82
0 20 81
0 19 81
0 19 80
0 13 73
0 2 65
0 0 65
0 3 67
0 5 65
0 8 69
0 11 71
0 5 66
0 5 66
0 8 68
0 4 69
0 10 73
0 10 72
0 10 74
0 7 71
0 6 68
0 11 69
0 5 64
0 4 68
0 9 73
0 0 69
0 7 70
0 8 69
0 0 67
0 5 70
0 7 72
0 0 71
0 0 68
0 0 64
0 0 64
0 0 63
0 0 64
0 11 72
0 10 70
0 0 63
0 0 62
0 0 65
0 0 65
0 6 65
0 8 71
0 7 69
0 5 67
0 0 64
0 6 66
0 19 81
0 10 73
0 5 71
0 7 71
0 6 69
0 2 67
0 3 67
0 7 73
0 18 80
0 21 84
0 17 79
0 10 73
0 11 71
0 17 78
0 19 79
0 18 78
0 19 80
0 17 79
0 16 76
0 14 74
0 5 71
0 11 74
0 15 76
0 16 77
0 16 77
0 18 81
0 21 82
0 26 87
0 29 89
78 84 121
117 125 153
150 160 184
184 194 213
227 239 255
227 239 255
227 239 255
227 239 255
227 239 255
227 239 255
227 239 255
227 239 255
227 239 255
227 239 255
227 239 255
227 239 255
227 239 255
227 239 255
227 239 255
227 239 255
227 239 255
227 239 255
227 239 255
227 239 255
227 239 255
227 239 255
227 239 255
227 239 255
227 239 255
227 239 255
227 239 255
227 239 255
227 239 255
227 239 255
227 239 255
227 239 255
227 239 255
227 239 255
227 239 255
227 239 255
227 239 255
227 239 255
227 239 255
227 239 255
227 239 255
227 239 255
227 239 255
227 239 255
227 239 255
227 239 255
227 239 255
227 239 255
227 239 255
227 239 255
227 239 255
227 239 255
227 239 255
227 239 255
227 239 255
227 239 255
227 239 255
227 239 255
227 239 255
227 239 255
227 239 255
227 239 255
227 239 255
227 239 255
227 239 255
227 239 255
227 239 255
227 239 255
227 239 255
227 239 255
227 239 255
227 239 255
227 239 255
227 239 255
227 239 255
227 239 255
227 239 255
227 239 255
227 239 255
227 239 255
227 239 255
227 239 255
227 239 255
227 239 255
227 239 255
227 239 255
227 239 255
227 239 255
227 239 255
227 239 255
227 239 255
227 239 255
227 239 255
227 239 255
227 239 255
227 239 255
227 239 255
227 239 255
227 239 255
227 239 255
227 239 255
227 239 255
227 239 255
227 239 255
227 239 255
227 239 255
227 239 255
227 239 255
227 239 255
227 239 255
227 239 255
227 239 255
227 239 255
227 239 255
227 239 255
227 239 255
227 239 255
227 239 255
227 239 255
227 239 255
227 239 255
227 239 255
227 239 255
227 239 255
227 239 255
227 239 255
226 239 255
226 239 255
226 239 255
226 239 255
226 239 255
226 239 255
226 239 255
226 239 255
226 239 255
226 239 255
226 239 255
226 239 255
226 239 255
226 239 255
226 239 255
226 239 255
226 239 255
226 239 255
226 239 255
226 238 255
226 238 255
226 238 255
226 238 255
226 238 255
226 238 255
226 238 255
226 239 255
226 239 255
226 239 255
227 239 255
227 239 255
227 239 255
227 239 255
227 239 255
227 239 255
227 239 255
227 239 255
227 239 255
227 239 255
227 239 255
227 239 255
227 239 255
227 239 255
227 239 255
227 239 255
227 239 255
227 239 255
227 239 255
227 239 255
227 239 255
227 239 255
227 239 255
227 239 255
227 239 255
227 239 255
227 239 255
227 239 255
227 239 255
227 239 255
227 239 255
227 239 255
227 239 255
227 239 255
227 239 255
227 239 255
227 239 255
227 239 255
227 239 255
227 239 255
227 239 255
227 239 255
227 239 255
227 239 255
227 239 255
227 239 255
227 239 255
227 239 255
227 239 255
227 239 255
227 239 255
227 239 255
227 239 255
227 239 255
227 239 255
227 239 255
227 239 255
227 239 255
227 239 255
227 239 255
227 239 255
227 239 255
227 239 255
227 239 255
227 239 255
227 239 255
227 239 255
227 239 255
227 239 255
227 239 255
227 239 255
227 239 255
227 239 255
227 239 255
227 239 255
227 239 255
227 239 255
227 239 255
227 239 255
227 239 255
227 239 255
227 239 255
227 239 255
227 239 255
227 239 255
227 239 255
227 239 255
227 239 255
227 239 255
227 239 255
227 239 255
227 239 255
227 239 255
227 239 255
227 239 255
227 239 255
227 239 255
227 239 255
227 239 255
227 239 255
227 239 255
227 239 255
227 239 255
227 239 255
227 239 255
227 239 255
227 239 255
227 239 255
227 239 255
227 239 255
227 239 255
227 239 255
227 239 255
227 239 255
227 239 255
227 239 255
227 239 255
227 239 255
227 239 255
227 239 255
227 239 255
227 239 255
227 239 255
227 239 255
227 239 255
227 239 255
227 239 255
227 239 255
227 239 255
227 239 255
227 239 255
227 239 255
227 239 255
227 239 255
227 239 255
227 239 255
227 239 255
227 239 255
227 239 255
227 239 255
227 239 255
227 239 255
227 239 255
227 239 255
227 239 255
227 239 255
227 239 255
227 239 255
227 239 255
227 239 255
227 239 255
208 219 237
153 164 187
111 119 148
29 45 97
32 41 90
0 22 84
0 22 84
0 23 84
0 25 86
0 26 87
0 25 86
0 29 89
0 38 97
0 35 96
0 32 91
0 21 82
0 19 80
0 17 78
0 17 78
0 13 73
0 5 67
0 8 69
0 4 69
0 14 75
0 13 74
0 11 71
0 11 73
0 12 75
0 4 67
0 10 72
0 11 72
0 11 73
0 17 74
0 16 76
0 10 72
0 11 72
0 9 70
0 0 68
0 9 71
0 15 75
0 12 73
0 8 72
0 11 73
0 8 71
0 4 70
0 9 71
0 12 72
0 9 70
0 3 65
0 10 70
0 10 72
0 10 73
0 14 76
0 8 68
0 6 68
0 11 71
0 12 72
0 17 78
0 15 76
0 14 74
0 8 72
0 9 72
0 6 71
0 12 73
0 13 75
0 13 74
0 11 73
0 10 73
0 10 72
0 10 72
0 17 79
0 23 84
0 16 78
0 15 78
0 23 83
0 15 76
0 17 77
0 10 72
0 4 69
0 4 69
0 9 71
0 10 74
0 12 74
0 15 75
10 25 83
32 43 92
100 104 135
158 163 181
143 148 171
202 208 220
221 228 241
206 218 237
227 239 255
227 239 255
227 239 255
227 239 255
227 239 255
227 239 255
227 239 255
227 239 255
227 239 255
227 239 255
227 239 255
227 239 255
227 239 255
227 239 255
227 239 255
227 239 255
227 239 255
227 239 255
227 239 255
227 239 255
227 239 255
227 239 255
227 239 255
227 239 255
227 239 255
227 239 255
227 239 255
227 239 255
227 239 255
227 239 255
227 239 255
227 239 255
227 239 255
227 239 255
227 239 255
227 239 255
227 239 255
227 239 255
227 239 255
227 239 255
227 239 255
227 239 255
227 239 255
227 239 255
227 239 255
227 239 255
227 239 255
227 239 255
227 239 255
227 239 255
227 239 255
227 239 255
227 239 255
227 239 255
227 239 255
227 239 255
227 239 255
227 239 255
227 239 255
227 239 255
227 239 255
227 239 255
227 239 255
227 239 255
227 239 255
227 239 255
227 239 255
227 239 255
227 239 255
227 239 255
227 239 255
227 239 255
227 239 255
227 239 255
227 239 255
227 239 255
227 239 255
227 239 255
227 239 255
227 239 255
227 239 255
227 239 255
227 239 255
227 239 255
227 239 255
227 239 255
227 239 255
227 239 255
227 239 255
227 239 255
227 239 255
227 239 255
227 239 255
227 239 255
227 239 255
227 239 255
227 239 255
227 239 255
227 239 255
227 239 255
227 239 255
227 239 255
227 239 255
227 239 255
227 239 255
227 239 255
227 239 255
227 239 255
227 239 255
227 239 255
227 239 255
227 239 255
227 239 255
227 239 255
227 239 255
227 239 255
227 239 255
227 239 255
227 239 255
227 239 255
227 239 255
227 239 255
227 239 255
227 239 255
227 239 255
227 239 255
227 239 255
227 239 255
227 239 255
227 239 255
227 239 255
227 239 255
227 239 255
227 239 255
227 239 255
227 239 255
227 239 255
227 239 255
227 239 255
227 239 255
227 239 255
227 239 255
227 239 255
227 239 255
227 239 255
227 239 255
227 239 255
227 239 255
227 239 255
227 239 255
227 239 255
226 239 255
227 239 255
226 239 255
227 239 255
227 239 255
227 239 255
227 239 255
227 239 255
227 239 255
227 239 255
227 239 255
227 239 255
227 239 255
227 239 255
227 239 255
227 239 255
227 239 255
227 239 255
227 239 255
227 239 255
227 239 255
227 239 255
227 239 255
227 239 255
227 239 255
227 239 255
227 239 255
227 239 255
227 239 255
227 239 255
227 239 255
227 239 255
227 239 255
227 239 255
227 239 255
227 239 255
227 239 255
227 239 255
227 239 255
227 239 255
227 239 255
227 239 255
227 239 255
227 239 255
227 239 255
227 239 255
227 239 255
227 239 255
227 239 255
227 239 255
227 239 255
227 239 255
227 239 255
227 239 255
227 239 255
227 239 255
227 239 255
227 239 255
227 239 255
227 239 255
227 239 255
227 239 255
227 239 255
227 239 255
227 239 255
227 239 255
227 239 255
227 239 255
227 239 255
227 239 255
227 239 255
227 239 255
227 239 255
227 239 255
227 239 255
227 239 255
227 239 255
227 239 255
227 239 255
227 239 255
227 239 255
227 239 255
227 239 255
227 239 255
227 239 255
227 239 255
227 239 255
227 239 255
227 239 255
227 239 255
227 239 255
227 239 255
227 239 255
227 239 255
227 239 255
227 239 255
227 239 255
227 239 255
227 239 255
227 239 255
227 239 255
227 239 255
227 239 255
227 239 255
227 239 255
227 239 255
227 239 255
227 239 255
227 239 255
227 239 255
227 239 255
227 239 255
227 239 255
227 239 255
227 239 255
227 239 255
227 239 255
227 239 255
227 239 255
227 239 255
227 239 255
227 239 255
227 239 255
227 239 255
227 239 255
227 239 255
227 239 255
227 239 255
227 239 255
227 239 255
227 239 255
227 239 255
227 239 255
227 239 255
227 239 255
227 239 255
227 239 255
227 239 255
227 239 255
227 239 255
227 239 255
227 239 255
227 239 255
227 239 255
227 239 255
227 239 255
227 239 255
227 239 255
227 239 255
227 239 255
227 239 255
227 239 255
227 239 255
227 239 255
227 239 255
227 239 255
227 239 255
227 239 255
227 239 255
227 238 254
216 225 238
190 197 210
128 138 164
88 97 132
33 43 92
17 35 94
4 32 93
0 29 90
0 27 89
0 36 95
0 37 95
0 39 98
0 39 99
0 28 90
0 25 88
0 23 85
0 24 84
0 27 87
0 22 79
0 16 77
0 25 84
0 19 80
0 28 87
0 25 83
0 9 71
0 12 70
0 11 72
0 14 75
0 17 79
0 31 90
0 26 88
0 25 86
0 18 80
0 13 74
0 3 62
0 2 66
0 14 75
0 20 81
0 19 83
0 16 78
0 17 79
0 14 78
0 20 81
0 22 85
0 19 81
0 15 76
0 22 81
0 23 84
0 25 87
0 31 92
0 22 83
0 12 75
0 15 77
0 15 76
0 17 78
0 19 82
0 22 85
0 25 86
0 23 85
0 28 88
0 23 83
0 23 84
0 18 80
0 19 81
0 24 85
0 23 85
0 28 88
0 20 82
0 17 79
0 21 83
0 20 83
0 20 82
0 17 79
0 21 82
7 20 79
2 13 74
32 38 86
105 111 140
123 130 152
118 125 153
127 131 154
180 186 201
212 219 231
228 233 242
237 243 251
233 241 253
229 240 255
227 239 255
227 239 255
227 239 255
227 239 255
227 239 255
227 239 255
227 239 255
227 239 255
227 239 255
227 239 255
227 239 255
227 239 255
227 239 255
227 239 255
227 239 255
227 239 255
227 239 255
227 239 255
227 239 255
227 239 255
227 239 255
227 239 255
227 239 255
227 239 255
227 239 255
227 239 255
227 239 255
227 239 255
227 239 255
227 239 255
227 239 255
227 239 255
227 239 255
227 239 255
227 239 255
227 239 255
227 239 255
227 239 255
227 239 255
227 239 255
227 239 255
227 239 255
227 239 255
227 239 255
227 239 255
227 239 255
227 239 255
227 239 255
227 239 255
227 239 255
227 239 255
227 239 255
227 239 255
227 239 255
227 239 255
227 239 255
227 239 255
227 239 255
227 239 255
227 239 255
227 239 255
227 239 255
227 239 255
227 239 255
227 239 255
227 239 255
227 239 255
227 239 255
227 239 255
227 239 255
227 239 255
227 239 255
227 239 255
227 239 255
227 239 255
227 239 255
227 239 255
227 239 255
227 239 255
227 239 255
227 239 255
227 239 255
227 239 255
227 239 255
227 239 255
227 239 255
227 239 255
227 239 255
227 239 255
227 239 255
227 239 255
227 239 255
227 239 255
227 239 255
227 239 255
227 239 255
227 239 255
227 239 255
227 239 255
227 239 255
227 239 255
227 239 255
227 239 255
227 239 255
227 239 255
227 239 255
227 239 255
227 239 255
227 239 255
227 239 255
227 239 255
227 239 255
227 239 255
227 239 255
227 239 255
227 239 255
227 239 255
227 239 255
227 239 255
227 239 255
227 239 255
227 239 255
227 239 255
227 239 255
227 239 255
227 239 255
227 239 255
227 239 255
227 239 255
227 239 255
227 239 255
227 239 255
227 239 255
227 239 255
227 239 255
227 239 255
227 239 255
227 239 255
227 239 255
227 239 255
227 239 255
227 239 255
227 239 255
227 239 255
227 239 255
227 239 255
227 239 255
227 239 255
227 239 255
227 239 255
227 239 255
227 239 255
227 239 255
227 239 255
227 239 255
227 239 255
227 239 255
227 239 255
227 239 255
227 239 255
227 239 255
227 239 255
227 239 255
227 239 255
227 239 255
227 239 255
227 239 255
227 239 255
227 239 255
227 239 255
227 239 255
227 239 255
227 239 255
227 239 255
227 239 255
227 239 255
227 239 255
227 239 255
227 239 255
227 239 255
227 239 255
227 239 255
227 239 255
227 239 255
227 239 255
227 239 255
227 239 255
227 239 255
227 239 255
227 239 255
227 239 255
227 239 255
227 239 255
227 239 255
227 239 255
227 239 255
227 239 255
227 239 255
227 239 255
227 239 255
227 239 255
227 239 255
227 239 255
227 239 255
227 239 255
227 239 255
227 239 255
227 239 255
227 239 255
227 239 255
227 239 255
227 239 255
227 239 255
227 239 255
227 239 255
227 239 255
227 239 255
227 239 255
227 239 255
227 239 255
227 239 255
227 239 255
227 239 255
227 239 255
227 239 255
227 239 255
227 239 255
227 239 255
227 239 255
227 239 255
227 239 255
227 239 255
227 239 255
227 239 255
227 239 255
227 239 255
227 239 255
227 239 255
227 239 255
227 239 255
227 239 255
227 239 255
227 239 255
227 239 255
227 239 255
227 239 255
227 239 255
227 239 255
227 239 255
227 239 255
227 239 255
227 239 255
227 239 255
227 239 255
227 239 255
227 239 255
227 239 255
227 239 255
227 239 255
227 239 255
227 239 255
227 239 255
227 239 255
227 239 255
227 239 255
227 239 255
227 239 255
227 239 255
227 239 255
227 239 255
227 239 255
227 239 255
227 239 255
227 239 255
227 239 255
227 239 255
227 239 255
227 239 255
227 239 255
227 239 255
227 239 255
227 239 255
227 239 255
227 239 255
227 239 255
227 239 255
227 239 255
227 239 255
227 239 255
227 239 255
227 239 255
227 239 255
227 239 255
227 239 255
227 239 255
227 239 255
227 239 255
227 239 255
227 239 255
227 239 255
227 239 255
227 239 255
227 239 255
227 239 255
227 239 255
227 239 255
227 239 255
227 239 255
227 239 255
227 239 255
227 239 255
227 239 255
227 239 255
227 239 255
228 239 255
230 240 253
194 202 217
191 198 212
196 207 220
159 166 185
128 138 160
33 53 107
0 38 98
0 33 93
0 28 88
0 25 87
6 27 86
0 25 86
0 28 91
0 28 90
0 28 90
0 38 97
0 42 102
0 43 101
0 36 94
0 21 82
0 23 83
0 18 81
0 19 80
0 16 78
0 19 82
0 22 82
0 17 79
0 19 81
0 21 83
0 23 84
0 13 74
0 5 68
0 6 66
0 7 70
0 17 79
0 23 83
0 22 83
0 23 83
0 25 85
0 23 84
0 25 85
0 27 88
0 27 89
0 30 92
0 30 90
0 27 87
0 36 94
0 37 95
0 17 79
0 21 83
0 23 84
0 24 85
0 28 89
0 22 86
0 22 84
0 25 85
0 26 86
0 18 81
0 19 82
0 24 86
0 25 86
0 23 84
0 24 85
0 34 91
0 22 84
0 22 83
0 28 89
0 25 87
1 27 87
33 46 99
40 53 102
117 125 154
173 180 196
226 231 242
217 225 237
230 235 244
239 245 254
240 245 253
239 245 254
237 244 255
234 243 255
228 239 255
227 239 255
227 239 255
227 239 255
227 239 255
227 239 255
227 239 255
227 239 255
227 239 255
227 239 255
227 239 255
227 239 255
227 239 255
227 239 255
227 239 255
227 239 255
227 239 255
227 239 255
227 239 255
227 239 255
227 239 255
227 239 255
227 239 255
227 239 255
227 239 255
227 239 255
227 239 255
227 239 255
227 239 255
227 239 255
227 239 255
227 239 255
227 239 255
227 239 255
227 239 255
227 239 255
227 239 255
227 239 255
227 239 255
227 239 255
227 239 255
227 239 255
227 239 255
227 239 255
227 239 255
227 239 255
227 239 255
227 239 255
227 239 255
227 239 255
227 239 255
227 239 255
227 239 255
227 239 255
227 239 255
227 239 255
227 239 255
227 239 255
227 239 255
227 239 255
227 239 255
227 239 255
227 239 255
227 239 255
227 239 255
227 239 255
227 239 255
227 239 255
227 239 255
227 239 255
227 239 255
227 239 255
227 239 255
227 239 255
227 239 255
227 239 255
227 239 255
227 239 255
227 239 255
227 239 255
227 239 255
227 239 255
227 239 255
227 239 255
227 239 255
227 239 255
227 239 255
227 239 255
227 239 255
227 239 255
227 239 255
227 239 255
227 239 255
227 239 255
227 239 255
227 239 255
227 239 255
227 239 255
227 239 255
227 239 255
227 239 255
227 239 255
227 239 255
227 239 255
227 239 255
227 239 255
227 239 255
227 239 255
227 239 255
227 239 255
227 239 255
227 239 255
227 239 255
227 239 255
227 239 255
227 239 255
227 239 255
227 239 255
227 239 255
227 239 255
227 239 255
227 239 255
227 239 255
227 239 255
227 239 255
227 239 255
227 239 255
227 239 255
227 239 255
227 239 255
227 239 255
227 239 255
227 239 255
227 239 255
227 239 255
227 239 255
227 239 255
227 239 255
227 239 255
227 239 255
227 239 255
227 239 255
227 239 255
227 239 255
227 239 255
227 239 255
227 239 255
227 239 255
227 239 255
227 239 255
227 239 255
227 239 255
227 239 255
227 239 255
227 239 255
227 239 255
227 239 255
227 239 255
227 239 255
227 239 255
227 239 255
227 239 255
227 239 255
227 239 255
227 239 255
227 239 255
227 239 255
227 239 255
227 239 255
227 239 255
227 239 255
227 239 255
227 239 255
227 239 255
227 239 255
227 239 255
227 239 255
227 239 255
227 239 255
227 239 255
227 239 255
227 239 255
227 239 255
227 239 255
227 239 255
227 239 255
227 239 255
227 239 255
227 239 255
227 239 255
227 239 255
227 239 255
227 239 255
227 239 255
227 239 255
227 239 255
227 239 255
227 239 255
227 239 255
227 239 255
227 239 255
227 239 255
227 239 255
227 239 255
227 239 255
227 239 255
227 239 255
227 239 255
227 239 255
227 239 255
227 239 255
227 239 255
227 239 255
227 239 255
227 239 255
227 239 255
227 239 255
227 239 255
227 239 255
227 239 255
227 239 255
227 239 255
227 239 255
227 239 255
227 239 255
227 239 255
227 239 255
227 239 255
227 239 255
227 239 255
227 239 255
227 239 255
227 239 255
227 239 255
227 239 255
227 239 255
227 239 255
227 239 255
227 239 255
227 239 255
227 239 255
227 239 255
227 239 255
227 239 255
227 239 255
227 239 255
227 239 255
227 239 255
227 239 255
227 239 255
227 239 255
227 239 255
227 239 255
227 239 255
227 239 255
227 239 255
227 239 255
227 239 255
227 239 255
227 239 255
227 239 255
227 239 255
227 239 255
227 239 255
227 239 255
227 239 255
227 239 255
227 239 255
227 239 255
227 239 255
227 239 255
227 239 255
227 239 255
227 239 255
227 239 255
227 239 255
227 239 255
227 239 255
227 239 255
227 239 255
227 239 255
227 239 255
227 239 255
227 239 255
227 239 255
227 239 255
227 239 255
227 239 255
227 239 255
227 239 255
227 239 255
227 239 255
227 239 255
227 239 255
227 239 255
227 239 255
227 239 255
227 239 255
227 239 255
227 239 255
227 239 255
227 239 255
227 239 255
227 239 255
227 239 255
227 239 255
227 239 255
227 239 255
227 239 255
227 239 255
227 239 255
227 239 255
227 239 255
227 239 255
227 239 255
227 239 255
227 239 255
227 239 255
227 239 255
227 239 255
231 241 255
237 245 255
238 244 254
241 247 254
238 243 251
223 229 237
171 179 197
129 140 165
98 112 141
135 147 172
87 95 126
54 62 103
13 29 87
1 26 87
3 30 90
0 29 88
10 30 89
4 29 90
0 29 89
0 25 87
0 23 83
9 24 84
0 22 83
0 20 79
4 24 85
0 19 82
0 17 80
0 16 78
0 17 80
0 21 82
0 15 75
21 34 88
9 18 75
0 11 73
0 16 76
0 22 81
0 20 80
0 18 77
0 16 76
0 20 81
50 67 112
86 98 134
71 81 121
78 88 126
47 60 108
34 44 98
7 23 85
0 21 83
0 22 83
0 25 86
0 25 88
0 29 90
0 32 93
0 29 90
0 28 88
19 35 93
2 27 88
14 33 90
0 29 90
0 33 92
34 54 106
64 78 120
131 138 160
103 116 148
66 83 127
59 71 112
120 130 156
126 137 161
187 195 212
212 219 230
237 243 252
241 245 252
242 247 255
242 247 255
243 248 255
240 246 255
237 245 255
231 241 255
227 239 255
227 239 255
227 239 255
227 239 255
227 239 255
227 239 255
227 239 255
227 239 255
227 239 255
227 239 255
227 239 255
227 239 255
227 239 255
227 239 255
227 239 255
227 239 255
227 239 255
227 239 255
227 239 255
227 239 255
227 239 255
227 239 255
227 239 255
227 239 255
227 239 255
227 239 255
227 239 255
227 239 255
227 239 255
227 239 255
227 239 255
227 239 255
227 239 255
227 239 255
227 239 255
227 239 255
227 239 255
227 239 255
227 239 255
227 239 255
227 239 255
227 239 255
227 239 255
227 239 255
227 239 255
227 239 255
227 239 255
227 239 255
227 239 255
227 239 255
227 239 255
227 239 255
227 239 255
227 239 255
227 239 255
227 239 255
227 239 255
227 239 255
227 239 255
227 239 255
227 239 255
227 239 255
227 239 255
227 239 255
227 239 255
227 239 255
227 239 255
227 239 255
227 239 255
227 239 255
227 239 255
227 239 255
227 239 255
227 239 255
227 239 255
227 239 255
227 239 255
227 239 255
227 239 255
227 239 255
227 239 255
227 239 255
227 239 255
227 239 255
227 239 255
227 239 255
227 239 255
227 239 255
227 239 255
227 239 255
227 239 255
227 239 255
227 239 255
227 239 255
227 239 255
227 239 255
227 239 255
227 239 255
227 239 255
227 239 255
227 239 255
227 239 255
227 239 255
227 239 255
227 239 255
227 239 255
227 239 255
227 239 255
227 239 255
227 239 255
227 239 255
227 239 255
227 239 255
227 239 255
227 239 255
227 239 255
227 239 255
227 239 255
227 239 255
227 239 255
227 239 255
227 239 255
227 239 255
227 239 255
227 239 255
227 239 255
227 239 255
227 239 255
227 239 255
227 239 255
227 239 255
227 239 255
227 239 255
227 239 255
227 239 255
227 239 255
227 239 255
227 239 255
227 239 255
227 239 255
227 239 255
227 239 255
227 239 255
227 239 255
227 239 255
227 239 255
227 239 255
227 239 255
227 239 255
227 239 255
227 239 255
227 239 255
227 239 255
227 239 255
227 239 255
227 239 255
227 239 255
227 239 255
227 239 255
227 239 255
227 239 255
227 239 255
227 239 255
227 239 255
227 239 255
227 239 255
227 239 255
227 239 255
227 239 255
227 239 255
227 239 255
227 239 255
227 239 255
227 239 255
227 239 255
227 239 255
227 239 255
227 239 255
227 239 255
227 239 255
227 239 255
227 239 255
227 239 255
227 239 255
227 239 255
227 239 255
227 239 255
227 239 255
227 239 255
227 239 255
227 239 255
227 239 255
227 239 255
227 239 255
227 239 255
227 239 255
227 239 255
227 239 255
227 239 255
227 239 255
227 239 255
227 239 255
227 239 255
227 239 255
227 239 255
227 239 255
227 239 255
227 239 255
227 239 255
227 239 255
227 239 255
227 239 255
227 239 255
227 239 255
227 239 255
227 239 255
227 239 255
227 239 255
227 239 255
227 239 255
227 239 255
227 239 255
227 239 255
227 239 255
227 239 255
227 239 255
227 239 255
227 239 255
227 239 255
227 239 255
227 239 255
227 239 255
227 239 255
227 239 255
227 239 255
227 239 255
227 239 255
227 239 255
227 239 255
227 239 255
227 239 255
227 239 255
227 239 255
227 239 255
227 239 255
227 239 255
227 239 255
227 239 255
227 239 255
227 239 255
227 239 255
227 239 255
227 239 255
227 239 255
227 239 255
227 239 255
227 239 255
227 239 255
227 239 255
227 239 255
227 239 255
227 239 255
227 239 255
227 239 255
227 239 255
227 239 255
227 239 255
227 239 255
227 239 255
227 239 255
227 239 255
227 239 255
227 239 255
227 239 255
227 239 255
227 239 255
227 239 255
227 239 255
227 239 255
227 239 255
227 239 255
227 239 255
227 239 255
227 239 255
227 239 255
227 239 255
227 239 255
227 239 255
227 239 255
227 239 255
227 239 255
227 239 255
227 239 255
227 239 255
227 239 255
227 239 255
227 239 255
227 239 255
227 239 255
227 239 255
227 239 255
227 239 255
227 239 255
227 239 255
227 239 255
227 239 255
227 239 255
227 239 255
227 239 255
227 239 255
227 239 255
227 239 255
227 239 255
227 239 255
227 239 255
227 239 255
227 239 255
227 239 255
227 239 255
227 239 255
227 239 255
227 239 255
227 239 255
227 239 255
228 239 255
232 242 255
238 245 255
243 248 255
244 248 255
242 247 255
241 247 255
243 248 255
241 247 254
235 241 248
214 221 231
181 188 202
169 176 194
152 160 181
156 163 183
167 178 199
145 154 175
103 115 147
174 181 195
156 162 180
155 167 188
158 167 187
184 191 205
176 182 197
147 154 174
129 136 159
78 88 120
59 73 116
60 73 118
87 98 134
139 150 176
165 174 193
163 174 194
92 98 129
133 137 152
137 141 161
83 90 117
45 53 95
101 108 145
191 201 219
234 240 250
205 211 225
203 209 220
136 142 163
89 102 134
124 135 160
132 141 167
24 48 101
92 105 138
90 101 136
103 110 140
50 62 109
23 46 99
34 53 103
50 69 114
12 46 102
7 39 98
77 102 138
211 223 233
227 234 243
194 207 222
220 230 241
226 232 243
227 235 244
239 245 253
240 246 254
243 248 255
244 249 255
242 248 255
242 247 255
243 248 255
236 244 255
233 242 255
227 239 255
227 239 255
227 239 255
227 239 255
227 239 255
227 239 255
227 239 255
227 239 255
227 239 255
227 239 255
227 239 255
227 239 255
227 239 255
227 239 255
227 239 255
227 239 255
227 239 255
227 239 255
227 239 255
227 239 255
227 239 255
227 239 255
227 239 255
227 239 255
227 239 255
227 239 255
227 239 255
227 239 255
227 239 255
227 239 255
227 239 255
227 239 255
227 239 255
227 239 255
227 239 255
227 239 255
227 239 255
227 239 255
227 239 255
227 239 255
227 239 255
227 239 255
227 239 255
227 239 255
227 239 255
227 239 255
227 239 255
227 239 255
227 239 255
227 239 255
227 239 255
227 239 255
227 239 255
227 239 255
227 239 255
227 239 255
227 239 255
227 239 255
227 239 255
227 239 255
227 239 255
227 239 255
227 239 255
227 239 255
227 239 255
227 239 255
227 239 255
227 239 255
227 239 255
227 239 255
227 239 255
227 239 255
227 239 255
227 239 255
227 239 255
227 239 255
227 239 255
227 239 255
227 239 255
227 239 255
227 239 255
227 239 255
227 239 255
227 239 255
227 239 255
227 239 255
227 239 255
227 239 255
227 239 255
227 239 255
227 239 255
227 239 255
227 239 255
227 239 255
227 239 255
227 239 255
227 239 255
227 239 255
227 239 255
227 239 255
227 239 255
227 239 255
227 239 255
227 239 255
227 239 255
227 239 255
227 239 255
227 239 255
227 239 255
227 239 255
227 239 255
227 239 255
227 239 255
227 239 255
227 239 255
227 239 255
227 239 255
227 239 255
227 239 255
227 239 255
227 239 255
227 239 255
227 239 255
227 239 255
227 239 255
227 239 255
227 239 255
227 239 255
227 239 255
227 239 255
227 239 255
227 239 255
227 239 255
227 239 255
227 239 255
227 239 255
227 239 255
227 239 255
227 239 255
227 239 255
227 239 255
227 239 255
227 239 255
227 239 255
227 239 255
227 239 255
227 239 255
227 239 255
227 239 255
227 239 255
227 239 255
227 239 255
227 239 255
227 239 255
227 239 255
227 239 255
227 239 255
227 239 255
227 239 255
227 239 255
227 239 255
227 239 255
227 239 255
227 239 255
227 239 255
227 239 255
227 239 255
227 239 255
227 239 255
227 239 255
227 239 255
227 239 255
227 239 255
227 239 255
227 239 255
227 239 255
227 239 255
227 239 255
227 239 255
227 239 255
227 239 255
227 239 255
227 239 255
227 239 255
227 239 255
227 239 255
227 239 255
227 239 255
227 239 255
227 239 255
227 239 255
227 239 255
227 239 255
227 239 255
227 239 255
227 239 255
227 239 255
227 239 255
227 239 255
227 239 255
227 239 255
227 239 255
227 239 255
227 239 255
227 239 255
227 239 255
227 239 255
227 239 255
227 239 255
227 239 255
227 239 255
227 239 255
227 239 255
227 239 255
227 239 255
227 239 255
227 239 255
227 239 255
227 239 255
227 239 255
227 239 255
227 239 255
227 239 255
227 239 255
227 239 255
227 239 255
227 239 255
227 239 255
227 239 255
227 239 255
227 239 255
227 239 255
227 239 255
227 239 255
227 239 255
227 239 255
227 239 255
227 239 255
227 239 255
227 239 255
227 239 255
227 239 255
227 239 255
227 239 255
227 239 255
227 239 255
227 239 255
227 239 255
227 239 255
227 239 255
227 239 255
227 239 255
227 239 255
227 239 255
227 239 255
227 239 255
227 239 255
227 239 255
227 239 255
227 239 255
227 239 255
227 239 255
227 239 255
227 239 255
227 239 255
227 239 255
227 239 255
227 239 255
227 239 255
227 239 255
227 239 255
227 239 255
227 239 255
227 239 255
227 239 255
227 239 255
227 239 255
227 239 255
227 239 255
227 239 255
227 239 255
227 239 255
227 239 255
227 239 255
227 239 255
227 239 255
227 239 255
227 239 255
227 239 255
227 239 255
227 239 255
227 239 255
227 239 255
227 239 255
227 239 255
227 239 255
227 239 255
227 239 255
227 239 255
227 239 255
227 239 255
227 239 255
227 239 255
227 239 255
227 239 255
227 239 255
227 239 255
227 239 255
227 239 255
227 239 255
227 239 255
227 239 255
227 239 255
227 239 255
227 239 255
227 239 255
227 239 255
227 239 255
227 239 255
227 239 255
227 239 255
227 239 255
227 239 255
227 239 255
227 239 255
227 239 255
227 239 255
227 239 255
227 239 255
227 239 255
228 239 255
232 242 255
237 245 255
241 247 255
244 248 255
242 248 255
245 249 255
245 249 255
242 248 255
242 247 255
241 247 255
243 248 255
243 248 255
241 247 255
241 247 255
242 248 254
241 247 254
243 248 254
241 246 253
241 246 254
242 246 254
241 247 253
241 246 254
240 246 253
236 242 250
229 236 244
226 234 243
226 231 242
203 211 224
221 228 239
207 214 225
168 178 197
158 166 187
156 163 184
222 228 238
235 242 250
240 245 253
242 247 254
234 240 247
227 232 242
222 228 240
209 216 227
194 200 213
213 221 230
220 228 238
241 246 254
241 247 254
240 246 254
235 242 249
238 244 252
224 232 242
224 231 242
223 229 239
220 227 238
224 233 241
217 229 240
225 234 243
239 245 254
242 247 255
243 248 255
244 248 255
243 248 255
243 248 255
242 248 255
241 247 255
238 245 255
233 242 255
227 239 255
227 239 255
227 239 255
227 239 255
227 239 255
227 239 255
227 239 255
227 239 255
227 239 255
227 239 255
227 239 255
227 239 255
227 239 255
227 239 255
227 239 255
227 239 255
227 239 255
227 239 255
227 239 255
227 239 255
227 239 255
227 239 255
227 239 255
227 239 255
227 239 255
227 239 255
227 239 255
227 239 255
227 239 255
227 239 255
227 239 255
227 239 255
227 239 255
227 239 255
227 239 255
227 239 255
227 239 255
227 239 255
227 239 255
227 239 255
227 239 255
227 239 255
227 239 255
227 239 255
227 239 255
227 239 255
227 239 255
227 239 255
227 239 255
227 239 255
227 239 255
227 239 255
227 239 255
227 239 255
227 239 255
227 239 255
227 239 255
227 239 255
227 239 255
227 239 255
227 239 255
227 239 255
227 239 255
227 239 255
227 239 255
227 239 255
227 239 255
227 239 255
227 239 255
227 239 255
227 239 255
227 239 255
227 239 255
227 239 255
227 239 255
227 239 255
227 239 255
227 239 255
227 239 255
227 239 255
227 239 255
227 239 255
227 239 255
227 239 255
227 239 255
227 239 255
227 239 255
227 239 255
227 239 255
227 239 255
227 239 255
227 239 255
227 239 255
227 239 255
227 239 255
227 239 255
227 239 255
227 239 255
227 239 255
227 239 255
227 239 255
227 239 255
227 239 255
227 239 255
227 239 255
227 239 255
227 239 255
227 239 255
227 239 255
227 239 255
227 239 255
227 239 255
227 239 255
227 239 255
227 239 255
227 239 255
227 239 255
227 239 255
227 239 255
227 239 255
227 239 255
227 239 255
227 239 255
227 239 255
227 239 255
227 239 255
227 239 255
227 239 255
227 239 255
227 239 255
227 239 255
227 239 255
227 239 255
227 239 255
227 239 255
227 239 255
227 239 255
227 239 255
227 239 255
227 239 255
227 239 255
227 239 255
227 239 255
227 239 255
227 239 255
227 239 255
227 239 255
227 239 255
227 239 255
227 239 255
227 239 255
227 239 255
227 239 255
227 239 255
227 239 255
227 239 255
227 239 255
227 239 255
227 239 255
227 239 255
227 239 255
227 239 255
227 239 255
227 239 255
227 239 255
227 239 255
227 239 255
227 239 255
227 239 255
227 239 255
227 239 255
227 239 255
227 239 255
227 239 255
227 239 255
227 239 255
227 239 255
227 239 255
227 239 255
227 239 255
227 239 255
227 239 255
227 239 255
227 239 255
227 239 255
227 239 255
227 239 255
227 239 255
227 239 255
227 239 255
227 239 255
227 239 255
227 239 255
227 239 255
227 239 255
227 239 255
227 239 255
227 239 255
227 239 255
227 239 255
227 239 255
227 239 255
227 239 255
227 239 255
227 239 255
227 239 255
227 239 255
227 239 255
227 239 255
227 239 255
227 239 255
227 239 255
227 239 255
227 239 255
227 239 255
227 239 255
227 239 255
227 239 255
227 239 255
227 239 255
227 239 255
227 239 255
227 239 255
227 239 255
227 239 255
227 239 255
227 239 255
227 239 255
227 239 255
227 239 255
227 239 255
227 239 255
227 239 255
227 239 255
227 239 255
227 239 255
227 239 255
227 239 255
227 239 255
227 239 255
227 239 255
227 239 255
227 239 255
227 239 255
227 239 255
227 239 255
227 239 255
227 239 255
227 239 255
227 239 255
227 239 255
227 239 255
227 239 255
227 239 255
227 239 255
227 239 255
227 239 255
227 239 255
227 239 255
227 239 255
227 239 255
227 239 255
227 239 255
227 239 255
227 239 255
227 239 255
227 239 255
227 239 255
227 239 255
227 239 255
227 239 255
227 239 255
227 239 255
227 239 255
227 239 255
227 239 255
227 239 255
227 239 255
227 239 255
227 239 255
227 239 255
227 239 255
227 239 255
227 239 255
227 239 255
227 239 255
227 239 255
227 239 255
227 239 255
227 239 255
227 239 255
227 239 255
227 239 255
227 239 255
227 239 255
227 239 255
227 239 255
227 239 255
227 239 255
227 239 255
227 239 255
227 239 255
227 239 255
227 239 255
227 239 255
227 239 255
227 239 255
227 239 255
227 239 255
227 239 255
227 239 255
227 239 255
227 239 255
227 239 255
227 239 255
227 239 255
227 239 255
227 239 255
227 239 255
227 239 255
227 239 255
227 239 255
227 239 255
227 239 255
227 239 255
227 239 255
227 239 255
227 239 255
227 239 255
227 239 255
227 239 255
227 239 255
227 239 255
227 239 255
227 239 255
227 239 255
227 239 255
230 241 255
235 243 255
239 246 255
243 248 255
241 247 255
244 248 255
242 247 255
242 247 255
243 248 255
243 248 255
243 248 255
243 248 255
244 249 255
242 248 255
244 248 255
242 248 255
242 248 255
242 247 255
242 247 255
242 248 255
243 248 255
241 247 255
242 248 255
243 248 255
243 248 255
241 247 255
242 247 255
241 247 255
243 248 255
243 248 255
243 248 255
243 248 255
243 248 255
242 248 255
243 248 255
242 248 255
244 249 255
239 246 255
241 247 255
243 248 255
242 248 255
243 248 255
242 247 255
243 248 255
241 247 255
241 246 254
231 238 247
226 235 245
228 238 246
232 241 250
237 243 252
242 248 255
243 248 255
243 248 255
242 247 255
244 248 255
243 248 255
242 247 255
235 244 255
231 241 255
228 239 255
227 239 255
227 239 255
227 239 255
227 239 255
227 239 255
227 239 255
227 239 255
227 239 255
227 239 255
227 239 255
227 239 255
227 239 255
227 239 255
227 239 255
227 239 255
227 239 255
227 239 255
227 239 255
227 239 255
227 239 255
227 239 255
227 239 255
227 239 255
227 239 255
227 239 255
227 239 255
227 239 255
227 239 255
227 239 255
227 239 255
227 239 255
227 239 255
227 239 255
227 239 255
227 239 255
227 239 255
227 239 255
227 239 255
227 239 255
227 239 255
227 239 255
227 239 255
227 239 255
227 239 255
227 239 255
227 239 255
227 239 255
227 239 255
227 239 255
227 239 255
227 239 255
227 239 255
227 239 255
227 239 255
227 239 255
227 239 255
227 239 255
227 239 255
227 239 255
227 239 255
227 239 255
227 239 255
227 239 255
227 239 255
227 239 255
227 239 255
227 239 255
227 239 255
227 239 255
227 239 255
227 239 255
227 239 255
227 239 255
227 239 255
227 239 255
227 239 255
227 239 255
227 239 255
227 239 255
227 239 255
227 239 255
227 239 255
227 239 255
227 239 255
227 239 255
227 239 255
227 239 255
227 239 255
227 239 255
227 239 255
227 239 255
227 239 255
227 239 255
227 239 255
227 239 255
227 239 255
227 239 255
227 239 255
227 239 255
227 239 255
227 239 255
227 239 255
227 239 255
227 239 255
227 239 255
227 239 255
227 239 255
227 239 255
227 239 255
227 239 255
227 239 255
227 239 255
227 239 255
227 239 255
227 239 255
227 239 255
227 239 255
227 239 255
227 239 255
227 239 255
227 239 255
227 239 255
227 239 255
227 239 255
227 239 255
227 239 255
227 239 255
227 239 255
227 239 255
227 239 255
227 239 255
227 239 255
227 239 255
227 239 255
227 239 255
227 239 255
227 239 255
227 239 255
227 239 255
227 239 255
227 239 255
227 239 255
227 239 255
227 239 255
227 239 255
227 239 255
227 239 255
227 239 255
227 239 255
227 239 255
227 239 255
227 239 255
227 239 255
227 239 255
227 239 255
227 239 255
227 239 255
227 239 255
227 239 255
227 239 255
227 239 255
227 239 255
227 239 255
227 239 255
227 239 255
227 239 255
227 239 255
227 239 255
227 239 255
227 239 255
227 239 255
227 239 255
227 239 255
227 239 255
227 239 255
227 239 255
227 239 255
227 239 255
227 239 255
227 239 255
227 239 255
227 239 255
227 239 255
227 239 255
227 239 255
227 239 255
227 239 255
227 239 255
227 239 255
227 239 255
227 239 255
227 239 255
227 239 255
227 239 255
227 239 255
227 239 255
227 239 255
227 239 255
227 239 255
227 239 255
227 239 255
227 239 255
227 239 255
227 239 255
227 239 255
227 239 255
227 239 255
227 239 255
227 239 255
227 239 255
227 239 255
227 239 255
227 239 255
227 239 255
227 239 255
227 239 255
227 239 255
227 239 255
227 239 255
227 239 255
227 239 255
227 239 255
227 239 255
227 239 255
227 239 255
227 239 255
227 239 255
227 239 255
227 239 255
227 239 255
227 239 255
227 239 255
227 239 255
227 239 255
227 239 255
227 239 255
227 239 255
227 239 255
227 239 255
227 239 255
227 239 255
227 239 255
227 239 255
227 239 255
227 239 255
227 239 255
227 239 255
227 239 255
227 239 255
227 239 255
227 239 255
227 239 255
227 239 255
227 239 255
227 239 255
227 239 255
227 239 255
227 239 255
227 239 255
227 239 255
227 239 255
227 239 255
227 239 255
227 239 255
227 239 255
227 239 255
227 239 255
227 239 255
227 239 255
227 239 255
227 239 255
227 239 255
227 239 255
227 239 255
227 239 255
227 239 255
227 239 255
227 239 255
227 239 255
227 239 255
227 239 255
227 239 255
227 239 255
227 239 255
227 239 255
227 239 255
227 239 255
227 239 255
227 239 255
227 239 255
227 239 255
227 239 255
227 239 255
227 239 255
227 239 255
227 239 255
227 239 255
227 239 255
227 239 255
227 239 255
227 239 255
227 239 255
227 239 255
227 239 255
227 239 255
227 239 255
227 239 255
227 239 255
227 239 255
227 239 255
227 239 255
227 239 255
227 239 255
227 239 255
227 239 255
227 239 255
227 239 255
227 239 255
227 239 255
227 239 255
227 239 255
227 239 255
227 239 255
227 239 255
227 239 255
227 239 255
227 239 255
227 239 255
227 239 255
227 239 255
227 239 255
227 239 255
227 239 255
227 239 255
227 239 255
227 239 255
227 239 255
227 239 255
227 239 255
227 239 255
227 239 255
227 239 255
228 239 255
231 241 255
237 245 255
239 246 255
244 249 255
244 248 255
243 248 255
243 248 255
243 248 255
242 248 255
243 248 255
243 248 255
243 248 255
242 248 255
240 246 255
242 248 255
242 248 255
244 248 255
245 249 255
243 248 255
242 247 255
244 248 255
243 248 255
243 248 255
243 248 255
242 247 255
241 246 255
243 248 255
244 249 255
244 249 255
242 247 255
244 248 255
243 248 255
241 247 255
244 248 255
241 247 255
243 248 255
243 248 255
243 248 255
239 244 251
232 241 250
236 242 251
234 241 249
222 232 242
222 234 244
237 243 251
244 248 255
242 248 255
244 249 255
242 247 255
240 246 255
235 243 255
232 241 255
229 240 255
227 239 255
227 239 255
227 239 255
227 239 255
227 239 255
227 239 255
227 239 255
227 239 255
227 239 255
227 239 255
227 239 255
227 239 255
227 239 255
227 239 255
227 239 255
227 239 255
227 239 255
227 239 255
227 239 255
227 239 255
227 239 255
227 239 255
227 239 255
227 239 255
227 239 255
227 239 255
227 239 255
227 239 255
227 239 255
227 239 255
227 239 255
227 239 255
227 239 255
227 239 255
227 239 255
227 239 255
227 239 255
227 239 255
227 239 255
227 239 255
227 239 255
227 239 255
227 239 255
227 239 255
227 239 255
227 239 255
227 239 255
227 239 255
227 239 255
227 239 255
227 239 255
227 239 255
227 239 255
227 239 255
227 239 255
227 239 255
227 239 255
227 239 255
227 239 255
227 239 255
227 239 255
227 239 255
227 239 255
227 239 255
227 239 255
227 239 255
227 239 255
227 239 255
227 239 255
227 239 255
227 239 255
227 239 255
227 239 255
227 239 255
227 239 255
227 239 255
227 239 255
227 239 255
227 239 255
227 239 255
227 239 255
227 239 255
227 239 255
227 239 255
227 239 255
227 239 255
227 239 255
227 239 255
227 239 255
227 239 255
227 239 255
227 239 255
227 239 255
227 239 255
227 239 255
227 239 255
227 239 255
227 239 255
227 239 255
227 239 255
227 239 255
227 239 255
227 239 255
227 239 255
227 239 255
227 239 255
227 239 255
227 239 255
227 239 255
227 239 255
227 239 255
227 239 255
227 239 255
227 239 255
227 239 255
227 239 255
227 239 255
227 239 255
227 239 255
227 239 255
227 239 255
227 239 255
227 239 255
227 239 255
227 239 255
227 239 255
227 239 255
227 239 255
227 239 255
227 239 255
227 239 255
227 239 255
227 239 255
227 239 255
227 239 255
227 239 255
227 239 255
227 239 255
227 239 255
227 239 255
227 239 255
227 239 255
227 239 255
227 239 255
227 239 255
227 239 255
227 239 255
227 239 255
227 239 255
227 239 255
227 239 255
227 239 255
227 239 255
227 239 255
227 239 255
227 239 255
227 239 255
227 239 255
227 239 255
227 239 255
227 239 255
227 239 255
227 239 255
227 239 255
227 239 255
227 239 255
227 239 255
227 239 255
227 239 255
227 239 255
227 239 255
227 239 255
227 239 255
227 239 255
227 239 255
227 239 255
227 239 255
227 239 255
227 239 255
227 239 255
227 239 255
227 239 255
227 239 255
227 239 255
227 239 255
227 239 255
227 239 255
227 239 255
227 239 255
227 239 255
227 239 255
227 239 255
227 239 255
227 239 255
227 239 255
227 239 255
227 239 255
227 239 255
227 239 255
227 239 255
227 239 255
227 239 255
227 239 255
227 239 255
227 239 255
227 239 255
227 239 255
227 239 255
227 239 255
227 239 255
227 239 255
227 239 255
227 239 255
227 239 255
227 239 255
227 239 255
227 239 255
227 239 255
227 239 255
227 239 255
227 239 255
227 239 255
227 239 255
227 239 255
227 239 255
227 239 255
227 239 255
227 239 255
227 239 255
227 239 255
227 239 255
227 239 255
227 239 255
227 239 255
227 239 255
227 239 255
227 239 255
227 239 255
227 239 255
227 239 255
227 239 255
227 239 255
227 239 255
227 239 255
227 239 255
227 239 255
227 239 255
227 239 255
227 239 255
227 239 255
227 239 255
227 239 255
227 239 255
227 239 255
227 239 255
227 239 255
227 239 255
227 239 255
227 239 255
227 239 255
227 239 255
227 239 255
227 239 255
227 239 255
227 239 255
227 239 255
227 239 255
227 239 255
227 239 255
227 239 255
227 239 255
227 239 255
227 239 255
227 239 255
227 239 255
227 239 255
227 239 255
227 239 255
227 239 255
227 239 255
227 239 255
227 239 255
227 239 255
227 239 255
227 239 255
227 239 255
227 239 255
227 239 255
227 239 255
227 239 255
227 239 255
227 239 255
227 239 255
227 239 255
227 239 255
227 239 255
227 239 255
227 239 255
227 239 255
227 239 255
227 239 255
227 239 255
227 239 255
227 239 255
227 239 255
227 239 255
227 239 255
227 239 255
227 239 255
227 239 255
227 239 255
227 239 255
227 239 255
227 239 255
227 239 255
227 239 255
227 239 255
227 239 255
227 239 255
227 239 255
227 239 255
227 239 255
227 239 255
227 239 255
227 239 255
227 239 255
227 239 255
227 239 255
227 239 255
227 239 255
227 239 255
227 239 255
227 239 255
227 239 255
227 239 255
227 239 255
227 239 255
227 239 255
227 239 255
227 239 255
227 239 255
227 239 255
227 239 255
227 239 255
227 239 255
227 239 255
227 239 255
227 239 255
227 239 255
227 239 255
227 239 255
231 241 255
232 242 255
236 244 255
236 243 253
236 243 253
241 246 253
242 247 254
244 249 255
245 249 255
245 249 255
243 248 255
242 248 255
244 249 255
244 248 255
243 248 255
243 248 255
242 247 254
243 248 255
243 248 255
243 248 255
244 248 255
243 248 255
244 249 255
243 248 255
243 248 255
242 247 255
243 248 255
243 248 255
244 249 255
244 248 255
242 247 254
232 239 248
237 243 250
232 239 249
227 236 244
223 233 243
221 233 242
226 236 244
231 240 249
236 244 253
240 247 255
237 245 255
234 243 255
230 241 255
227 239 255
227 239 255
227 239 255
227 239 255
227 239 255
227 239 255
227 239 255
227 239 255
227 239 255
227 239 255
227 239 255
227 239 255
227 239 255
227 239 255
227 239 255
227 239 255
227 239 255
227 239 255
227 239 255
227 239 255
227 239 255
227 239 255
227 239 255
227 239 255
227 239 255
227 239 255
227 239 255
227 239 255
227 239 255
227 239 255
227 239 255
227 239 255
227 239 255
227 239 255
227 239 255
227 239 255
227 239 255
227 239 255
227 239 255
227 239 255
227 239 255
227 239 255
227 239 255
227 239 255
227 239 255
227 239 255
227 239 255
227 239 255
227 239 255
227 239 255
227 239 255
227 239 255
227 239 255
227 239 255
227 239 255
227 239 255
227 239 255
227 239 255
227 239 255
227 239 255
227 239 255
227 239 255
227 239 255
227 239 255
227 239 255
227 239 255
227 239 255
227 239 255
227 239 255
227 239 255
227 239 255
227 239 255
227 239 255
227 239 255
227 239 255
227 239 255
227 239 255
227 239 255
227 239 255
227 239 255
227 239 255
227 239 255
227 239 255
227 239 255
227 239 255
227 239 255
227 239 255
227 239 255
227 239 255
227 239 255
227 239 255
227 239 255
227 239 255
227 239 255
227 239 255
227 239 255
227 239 255
227 239 255
227 239 255
227 239 255
227 239 255
227 239 255
227 239 255
227 239 255
227 239 255
227 239 255
227 239 255
227 239 255
227 239 255
227 239 255
227 239 255
227 239 255
227 239 255
227 239 255
227 239 255
227 239 255
227 239 255
227 239 255
227 239 255
227 239 255
227 239 255
227 239 255
227 239 255
227 239 255
227 239 255
227 239 255
227 239 255
227 239 255
227 239 255
227 239 255
227 239 255
227 239 255
227 239 255
227 239 255
227 239 255
227 239 255
227 239 255
227 239 255
227 239 255
227 239 255
227 239 255
227 239 255
227 239 255
227 239 255
227 239 255
227 239 255
227 239 255
227 239 255
227 239 255
227 239 255
227 239 255
227 239 255
227 239 255
227 239 255
227 239 255
227 239 255
227 239 255
227 239 255
227 239 255
227 239 255
227 239 255
227 239 255
227 239 255
227 239 255
227 239 255
227 239 255
227 239 255
227 239 255
227 239 255
227 239 255
227 239 255
227 239 255
227 239 255
227 239 255
227 239 255
227 239 255
227 239 255
227 239 255
227 239 255
227 239 255
227 239 255
227 239 255
227 239 255
227 239 255
227 239 255
227 239 255
227 239 255
227 239 255
227 239 255
227 239 255
227 239 255
227 239 255
227 239 255
227 239 255
227 239 255
227 239 255
227 239 255
227 239 255
227 239 255
227 239 255
227 239 255
227 239 255
227 239 255
227 239 255
227 239 255
227 239 255
227 239 255
227 239 255
227 239 255
227 239 255
227 239 255
227 239 255
227 239 255
227 239 255
227 239 255
227 239 255
227 239 255
227 239 255
227 239 255
227 239 255
227 239 255
227 239 255
227 239 255
227 239 255
227 239 255
227 239 255
227 239 255
227 239 255
227 239 255
227 239 255
227 239 255
227 239 255
227 239 255
227 239 255
227 239 255
227 239 255
227 239 255
227 239 255
227 239 255
227 239 255
227 239 255
227 239 255
227 239 255
227 239 255
227 239 255
227 239 255
227 239 255
227 239 255
227 239 255
227 239 255
227 239 255
227 239 255
227 239 255
227 239 255
227 239 255
227 239 255
227 239 255
227 239 255
227 239 255
227 239 255
227 239 255
227 239 255
227 239 255
227 239 255
227 239 255
227 239 255
227 239 255
227 239 255
227 239 255
227 239 255
227 239 255
227 239 255
227 239 255
227 239 255
227 239 255
227 239 255
227 239 255
227 239 255
227 239 255
227 239 255
227 239 255
227 239 255
227 239 255
227 239 255
227 239 255
227 239 255
227 239 255
227 239 255
227 239 255
227 239 255
227 239 255
227 239 255
227 239 255
227 239 255
227 239 255
227 239 255
227 239 255
227 239 255
227 239 255
227 239 255
227 239 255
227 239 255
227 239 255
227 239 255
227 239 255
227 239 255
227 239 255
227 239 255
227 239 255
227 239 255
227 239 255
227 239 255
227 239 255
227 239 255
227 239 255
227 239 255
227 239 255
227 239 255
227 239 255
227 239 255
227 239 255
227 239 255
227 239 255
227 239 255
227 239 255
227 239 255
227 239 255
227 239 255
227 239 255
227 239 255
227 239 255
227 239 255
227 239 255
227 239 255
227 239 255
227 239 255
227 239 255
227 239 255
227 239 255
227 239 255
227 239 255
227 239 255
227 239 255
227 239 255
227 239 255
227 239 255
227 239 255
227 239 255
227 239 255
227 239 255
227 239 255
227 239 255
227 239 255
227 239 255
227 239 255
227 239 255
227 239 255
227 239 255
227 239 255
227 239 255
227 239 255
227 239 254
226 237 252
226 237 251
225 236 249
229 239 251
229 239 251
231 240 250
236 244 252
236 243 250
233 240 248
231 239 248
226 235 244
225 234 245
230 238 247
231 240 247
233 241 248
229 238 246
232 240 249
234 242 251
235 241 250
233 241 250
233 241 249
229 237 247
222 232 242
224 234 244
228 237 245
228 237 247
228 238 248
229 238 250
230 239 251
229 239 251
230 240 254
232 242 255
228 240 255
227 239 255
227 239 255
227 239 255
227 239 255
227 239 255
227 239 255
227 239 255
227 239 255
227 239 255
227 239 255
227 239 255
227 239 255
227 239 255
227 239 255
227 239 255
227 239 255
227 239 255
227 239 255
227 239 255
227 239 255
227 239 255
227 239 255
227 239 255
227 239 255
227 239 255
227 239 255
227 239 255
227 239 255
227 239 255
227 239 255
227 239 255
227 239 255
227 239 255
227 239 255
227 239 255
227 239 255
227 239 255
227 239 255
227 239 255
227 239 255
227 239 255
227 239 255
227 239 255
227 239 255
227 239 255
227 239 255
227 239 255
227 239 255
227 239 255
227 239 255
227 239 255
227 239 255
227 239 255
227 239 255
227 239 255
227 239 255
227 239 255
227 239 255
227 239 255
227 239 255
227 239 255
227 239 255
227 239 255
227 239 255
227 239 255
227 239 255
227 239 255
227 239 255
227 239 255
227 239 255
227 239 255
227 239 255
227 239 255
227 239 255
227 239 255
227 239 255
227 239 255
227 239 255
227 239 255
227 239 255
227 239 255
227 239 255
227 239 255
227 239 255
227 239 255
227 239 255
227 239 255
227 239 255
227 239 255
227 239 255
227 239 255
227 239 255
227 239 255
227 239 255
227 239 255
227 239 255
227 239 255
227 239 255
227 239 255
227 239 255
227 239 255
227 239 255
227 239 255
227 239 255
227 239 255
227 239 255
227 239 255
227 239 255
227 239 255
227 239 255
227 239 255
227 239 255
227 239 255
227 239 255
227 239 255
227 239 255
227 239 255
227 239 255
227 239 255
227 239 255
227 239 255
227 239 255
227 239 255
227 239 255
227 239 255
227 239 255
227 239 255
227 239 255
227 239 255
227 239 255
227 239 255
227 239 255
227 239 255
227 239 255
227 239 255
227 239 255
227 239 255
227 239 255
227 239 255
227 239 255
227 239 255
227 239 255
227 239 255
227 239 255
227 239 255
227 239 255
227 239 255
227 239 255
227 239 255
227 239 255
227 239 255
227 239 255
227 239 255
227 239 255
227 239 255
227 239 255
227 239 255
227 239 255
227 239 255
227 239 255
227 239 255
227 239 255
227 239 255
227 239 255
227 239 255
227 239 255
227 239 255
227 239 255
227 239 255
227 239 255
227 239 255
227 239 255
227 239 255
227 239 255
227 239 255
227 239 255
227 239 255
227 239 255
227 239 255
227 239 255
227 239 255
227 239 255
227 239 255
227 239 255
227 239 255
227 239 255
227 239 255
227 239 255
227 239 255
227 239 255
227 239 255
227 239 255
227 239 255
227 239 255
227 239 255
227 239 255
227 239 255
227 239 255
227 239 255
227 239 255
227 239 255
227 239 255
227 239 255
227 239 255
227 239 255
227 239 255
227 239 255
227 239 255
227 239 255
227 239 255
227 239 255
227 239 255
227 239 255
227 239 255
227 239 255
227 239 255
227 239 255
227 239 255
227 239 255
227 239 255
227 239 255
227 239 255
227 239 255
227 239 255
227 239 255
227 239 255
227 239 255
227 239 255
227 239 255
227 239 255
227 239 255
227 239 255
227 239 255
227 239 255
227 239 255
227 239 255
227 239 255
227 239 255
227 239 255
227 239 255
227 239 255
227 239 255
227 239 255
227 239 255
227 239 255
227 239 255
227 239 255
227 239 255
227 239 255
227 239 255
227 239 255
227 239 255
227 239 255
227 239 255
227 239 255
227 239 255
227 239 255
227 239 255
227 239 255
227 239 255
227 239 255
227 239 255
227 239 255
227 239 255
227 239 255
227 239 255
227 239 255
227 239 255
227 239 255
227 239 255
227 239 255
227 239 255
227 239 255
227 239 255
227 239 255
227 239 255
227 239 255
227 239 255
227 239 255
227 239 255
227 239 255
227 239 255
227 239 255
227 239 255
227 239 255
227 239 255
227 239 255
227 239 255
227 239 255
227 239 255
227 239 255
227 239 255
227 239 255
227 239 255
227 239 255
227 239 255
227 239 255
227 239 255
227 239 255
227 239 255
227 239 255
227 239 255
227 239 255
227 239 255
227 239 255
227 239 255
227 239 255
227 239 255
227 239 255
227 239 255
227 239 255
227 239 255
227 239 255
227 239 255
227 239 255
227 239 255
227 239 255
227 239 255
227 239 255
227 239 255
227 239 255
227 239 255
227 239 255
227 239 255
227 239 255
227 239 255
227 239 255
227 239 255
227 239 255
227 239 255
227 239 255
227 239 255
227 239 255
227 239 255
227 239 255
227 239 255
227 239 255
227 239 255
227 239 255
227 239 255
227 239 255
227 239 255
227 239 255
227 239 255
227 239 255
227 239 255
227 239 255
227 239 255
227 239 255
227 239 255
227 239 255
227 239 255
227 239 255
227 239 255
227 239 255
227 239 255
227 239 255
227 239 255
227 239 255
227 239 255
227 239 255
227 239 255
227 239 255
227 239 255
227 239 255
227 239 255
227 239 255
227 239 255
227 239 255
227 239 255
227 239 255
227 239 255
227 239 255
227 239 255
227 239 255
226 238 254
226 238 254
225 237 253
225 237 252
226 237 252
226 237 252
225 237 250
225 236 251
223 235 249
225 237 251
225 237 251
225 237 251
225 237 251
229 239 253
228 239 255
229 240 255
228 239 255
227 239 255
227 239 255
227 239 255
227 239 255
227 239 255
227 239 255
227 239 255
227 239 255
227 239 255
227 239 255
227 239 255
227 239 255
227 239 255
227 239 255
227 239 255
227 239 255
227 239 255
227 239 255
227 239 255
227 239 255
227 239 255
227 239 255
227 239 255
227 239 255
227 239 255
227 239 255
227 239 255
227 239 255
227 239 255
227 239 255
227 239 255
227 239 255
227 239 255
227 239 255
227 239 255
227 239 255
227 239 255
227 239 255
227 239 255
227 239 255
227 239 255
227 239 255
227 239 255
227 239 255
227 239 255
227 239 255
227 239 255
227 239 255
227 239 255
227 239 255
227 239 255
227 239 255
227 239 255
227 239 255
227 239 255
227 239 255
227 239 255
227 239 255
227 239 255
227 239 255
227 239 255
227 239 255
227 239 255
227 239 255
227 239 255
227 239 255
227 239 255
227 239 255
227 239 255
227 239 255
227 239 255
227 239 255
227 239 255
227 239 255
227 239 255
227 239 255
227 239 255
227 239 255
227 239 255
227 239 255
227 239 255
227 239 255
227 239 255
227 239 255
227 239 255
227 239 255
227 239 255
227 239 255
227 239 255
227 239 255
227 239 255
227 239 255
227 239 255
227 239 255
227 239 255
227 239 255
227 239 255
227 239 255
227 239 255
227 239 255
227 239 255
227 239 255
227 239 255
227 239 255
227 239 255
227 239 255
227 239 255
227 239 255
227 239 255
227 239 255
227 239 255
227 239 255
227 239 255
227 239 255
227 239 255
227 239 255
227 239 255
227 239 255
227 239 255
227 239 255
227 239 255
227 239 255
227 239 255
227 239 255
227 239 255
227 239 255
227 239 255
227 239 255
227 239 255
227 239 255
227 239 255
227 239 255
227 239 255
227 239 255
227 239 255
227 239 255
227 239 255
227 239 255
227 239 255
227 239 255
227 239 255
227 239 255
227 239 255
227 239 255
227 239 255
227 239 255
227 239 255
227 239 255
227 239 255
227 239 255
227 239 255
227 239 255
227 239 255
227 239 255
227 239 255
227 239 255
227 239 255
227 239 255
227 239 255
227 239 255
227 239 255
227 239 255
227 239 255
227 239 255
227 239 255
227 239 255
227 239 255
227 239 255
227 239 255
227 239 255
227 239 255
227 239 255
227 239 255
227 239 255
227 239 255
227 239 255
227 239 255
227 239 255
227 239 255
227 239 255
227 239 255
227 239 255
227 239 255
227 239 255
227 239 255
227 239 255
227 239 255
227 239 255
227 239 255
227 239 255
227 239 255
227 239 255
227 239 255
227 239 255
227 239 255
227 239 255
227 239 255
227 239 255
227 239 255
227 239 255
227 239 255
227 239 255
227 239 255
227 239 255
227 239 255
227 239 255
227 239 255
227 239 255
227 239 255
227 239 255
227 239 255
227 239 255
227 239 255
227 239 255
227 239 255
227 239 255
227 239 255
227 239 255
227 239 255
227 239 255
227 239 255
227 239 255
227 239 255
227 239 255
227 239 255
227 239 255
227 239 255
227 239 255
227 239 255
227 239 255
227 239 255
227 239 255
227 239 255
227 239 255
227 239 255
227 239 255
227 239 255
227 239 255
227 239 255
227 239 255
227 239 255
227 239 255
227 239 255
227 239 255
227 239 255
227 239 255
227 239 255
227 239 255
227 239 255
227 239 255
227 239 255
227 239 255
227 239 255
227 239 255
227 239 255
227 239 255
227 239 255
227 239 255
227 239 255
227 239 255
227 239 255
227 239 255
227 239 255
227 239 255
227 239 255
227 239 255
227 239 255
227 239 255
227 239 255
227 239 255
227 239 255
227 239 255
227 239 255
227 239 255
227 239 255
227 239 255
227 239 255
227 239 255
227 239 255
227 239 255
227 239 255
227 239 255
227 239 255
227 239 255
227 239 255
227 239 255
227 239 255
227 239 255
227 239 255
227 239 255
227 239 255
227 239 255
227 239 255
227 239 255
227 239 255
227 239 255
227 239 255
227 239 255
227 239 255
227 239 255
227 239 255
227 239 255
227 239 255
227 239 255
227 239 255
227 239 255
227 239 255
227 239 255
227 239 255
227 239 255
227 239 255
227 239 255
227 239 255
227 239 255
227 239 255
227 239 255
227 239 255
227 239 255
227 239 255
227 239 255
227 239 255
227 239 255
227 239 255
227 239 255
227 239 255
227 239 255
227 239 255
227 239 255
227 239 255
227 239 255
227 239 255
227 239 255
227 239 255
227 239 255
227 239 255
227 239 255
227 239 255
227 239 255
227 239 255
227 239 255
227 239 255
227 239 255
227 239 255
227 239 255
227 239 255
227 239 255
227 239 255
227 239 255
227 239 255
227 239 255
227 239 255
227 239 255
227 239 255
227 239 255
227 239 255
227 239 255
227 239 255
227 239 255
227 239 255
227 239 255
227 239 255
227 239 255
227 239 255
227 239 255
227 239 255
227 239 255
227 239 255
227 239 255
227 239 255
227 239 255
227 239 255
227 239 255
227 239 255
227 239 255
227 239 255
227 239 255
227 239 255
227 239 255
227 239 255
227 239 255
227 239 255
227 239 255
227 239 255
227 239 255
227 239 255
227 239 255
227 239 255
227 239 255
227 239 255
227 239 255
227 239 255
227 239 255
227 239 255
227 239 255
227 239 255
227 239 255
227 239 255
227 239 255
227 239 255
227 239 255
227 239 255
227 239 255
227 239 255
227 239 255
227 239 255
227 239 255
227 239 255
227 239 255
227 239 255
227 239 255
227 239 255
227 239 255
227 239 255
227 239 255
227 239 255
227 239 255
227 239 255
227 239 255
227 239 255
227 239 255
227 239 255
227 239 255
227 239 255
227 239 255
227 239 255
227 239 255
227 239 255
227 239 255
227 239 255
227 239 255
227 239 255
227 239 255
227 239 255
227 239 255
227 239 255
227 239 255
227 239 255
227 239 255
227 239 255
227 239 255
227 239 255
227 239 255
227 239 255
227 239 255
227 239 255
227 239 255
227 239 255
227 239 255
227 239 255
227 239 255
227 239 255
227 239 255
227 239 255
227 239 255
227 239 255
227 239 255
227 239 255
227 239 255
227 239 255
227 239 255
227 239 255
227 239 255
227 239 255
227 239 255
227 239 255
227 239 255
227 239 255
227 239 255
227 239 255
227 239 255
227 239 255
227 239 255
227 239 255
227 239 255
227 239 255
227 239 255
227 239 255
227 239 255
227 239 255
227 239 255
227 239 255
227 239 255
227 239 255
227 239 255
227 239 255
227 239 255
227 239 255
227 239 255
227 239 255
227 239 255
227 239 255
227 239 255
227 239 255
227 239 255
227 239 255
227 239 255
227 239 255
227 239 255
227 239 255
227 239 255
227 239 255
227 239 255
227 239 255
227 239 255
227 239 255
227 239 255
227 239 255
227 239 255
227 239 255
227 239 255
227 239 255
227 239 255
227 239 255
227 239 255
227 239 255
227 239 255
227 239 255
227 239 255
227 239 255
227 239 255
227 239 255
227 239 255
227 239 255
227 239 255
227 239 255
227 239 255
227 239 255
227 239 255
227 239 255
227 239 255
227 239 255
227 239 255
227 239 255
227 239 255
227 239 255
227 239 255
227 239 255
227 239 255
227 239 255
227 239 255
227 239 255
227 239 255
227 239 255
227 239 255
227 239 255
227 239 255
227 239 255
227 239 255
227 239 255
227 239 255
227 239 255
227 239 255
227 239 255
227 239 255
227 239 255
227 239 255
227 239 255
227 239 255
227 239 255
227 239 255
227 239 255
227 239 255
227 239 255
227 239 255
227 239 255
227 239 255
227 239 255
227 239 255
227 239 255
227 239 255
227 239 255
227 239 255
227 239 255
227 239 255
227 239 255
227 239 255
227 239 255
227 239 255
227 239 255
227 239 255
227 239 255
227 239 255
227 239 255
227 239 255
227 239 255
227 239 255
227 239 255
227 239 255
227 239 255
227 239 255
227 239 255
227 239 255
227 239 255
227 239 255
227 239 255
227 239 255
227 239 255
227 239 255
227 239 255
227 239 255
227 239 255
227 239 255
227 239 255
227 239 255
227 239 255
227 239 255
227 239 255
227 239 255
227 239 255
227 239 255
227 239 255
227 239 255
227 239 255
227 239 255
227 239 255
227 239 255
227 239 255
227 239 255
227 239 255
227 239 255
227 239 255
227 239 255
227 239 255
227 239 255
227 239 255
227 239 255
227 239 255
227 239 255
227 239 255
227 239 255
227 239 255
227 239 255
227 239 255
227 239 255
227 239 255
227 239 255
227 239 255
227 239 255
227 239 255
227 239 255
227 239 255
227 239 255
227 239 255
227 239 255
227 239 255
227 239 255
227 239 255
227 239 255
227 239 255
227 239 255
227 239 255
227 239 255
227 239 255
227 239 255
227 239 255
227 239 255
227 239 255
227 239 255
227 239 255
227 239 255
227 239 255
227 239 255
227 239 255
227 239 255
227 239 255
227 239 255
227 239 255
227 239 255
227 239 255
227 239 255
227 239 255
227 239 255
227 239 255
227 239 255
227 239 255
227 239 255
227 239 255
227 239 255
227 239 255
227 239 255
227 239 255
227 239 255
227 239 255
227 239 255
227 239 255
227 239 255
227 239 255
227 239 255
227 239 255
227 239 255
227 239 255
227 239 255
227 239 255
227 239 255
227 239 255
227 239 255
227 239 255
227 239 255
227 239 255
227 239 255
227 239 255
227 239 255
227 239 255
227 239 255
227 239 255
227 239 255
227 239 255
227 239 255
227 239 255
227 239 255
227 239 255
227 239 255
227 239 255
227 239 255
227 239 255
227 239 255
227 239 255
227 239 255
227 239 255
227 239 255
227 239 255
227 239 255
227 239 255
227 239 255
227 239 255
227 239 255
227 239 255
227 239 255
227 239 255
227 239 255
227 239 255
227 239 255
227 239 255
227 239 255
227 239 255
227 239 255
227 239 255
227 239 255
227 239 255
227 239 255
227 239 255
227 239 255
227 239 255
227 239 255
227 239 255
227 239 255
227 239 255
227 239 255
227 239 255
227 239 255
227 239 255
227 239 255
227 239 255
227 239 255
227 239 255
227 239 255
227 239 255
227 239 255
227 239 255
227 239 255
227 239 255
227 239 255
227 239 255
227 239 255
227 239 255
227 239 255
227 239 255
227 239 255
227 239 255
227 239 255
227 239 255
227 239 255
227 239 255
227 239 255
227 239 255
227 239 255
227 239 255
227 239 255
227 239 255
227 239 255
227 239 255
227 239 255
227 239 255
227 239 255
227 239 255
227 239 255
227 239 255
227 239 255
227 239 255
227 239 255
227 239 255
227 239 255
227 239 255
227 239 255
227 239 255
227 239 255
227 239 255
227 239 255
227 239 255
227 239 255
227 239 255
227 239 255
227 239 255
227 239 255
227 239 255
227 239 255
227 239 255
227 239 255
227 239 255
227 239 255
227 239 255
227 239 255
227 239 255
227 239 255
227 239 255
227 239 255
227 239 255
227 239 255
227 239 255
227 239 255
227 239 255
227 239 255
227 239 255
227 239 255
227 239 255
227 239 255
227 239 255
227 239 255
227 239 255
227 239 255
227 239 255
227 239 255
227 239 255
227 239 255
227 239 255
227 239 255
227 239 255
227 239 255
227 239 255
227 239 255
227 239 255
227 239 255
227 239 255
227 239 255
227 239 255
227 239 255
227 239 255
227 239 255
227 239 255
227 239 255
227 239 255
227 239 255
227 239 255
227 239 255
227 239 255
227 239 255
227 239 255
227 239 255
227 239 255
227 239 255
227 239 255
227 239 255
227 239 255
227 239 255
227 239 255
227 239 255
227 239 255
227 239 255
227 239 255
227 239 255
227 239 255
227 239 255
227 239 255
227 239 255
227 239 255
227 239 255
227 239 255
227 239 255
227 239 255
227 239 255
227 239 255
227 239 255
227 239 255
227 239 255
227 239 255
227 239 255
227 239 255
227 239 255
227 239 255
227 239 255
227 239 255
227 239 255
227 239 255
227 239 255
227 239 255
227 239 255
227 239 255
227 239 255
227 239 255
227 239 255
227 239 255
227 239 255
227 239 255
227 239 255
227 239 255
227 239 255
227 239 255
227 239 255
227 239 255
227 239 255
227 239 255
227 239 255
227 239 255
227 239 255
227 239 255
227 239 255
227 239 255
227 239 255
227 239 255
227 239 255
227 239 255
227 239 255
227 239 255
227 239 255
227 239 255
227 239 255
227 239 255
227 239 255
227 239 255
227 239 255
227 239 255
227 239 255
227 239 255
227 239 255
227 239 255
227 239 255
227 239 255
227 239 255
227 239 255
227 239 255
227 239 255
227 239 255
227 239 255
227 239 255
227 239 255
227 239 255
227 239 255
227 239 255
227 239 255
227 239 255
227 239 255
227 239 255
227 239 255
227 239 255
227 239 255
227 239 255
227 239 255
227 239 255
227 239 255
227 239 255
227 239 255
227 239 255
227 239 255
227 239 255
227 239 255
227 239 255
227 239 255
227 239 255
227 239 255
227 239 255
227 239 255
227 239 255
227 239 255
227 239 255
227 239 255
227 239 255
227 239 255
227 239 255
227 239 255
227 239 255
227 239 255
227 239 255
227 239 255
227 239 255
227 239 255
227 239 255
227 239 255
227 239 255
227 239 255
227 239 255
227 239 255
227 239 255
227 239 255
227 239 255
227 239 255
227 239 255
227 239 255
227 239 255
227 239 255
227 239 255
227 239 255
227 239 255
227 239 255
227 239 255
227 239 255
227 239 255
227 239 255
227 239 255
227 239 255
227 239 255
227 239 255
227 239 255
227 239 255
227 239 255
227 239 255
227 239 255
227 239 255
227 239 255
227 239 255
227 239 255
227 239 255
227 239 255
227 239 255
227 239 255
227 239 255
227 239 255
227 239 255
227 239 255
227 239 255
227 239 255
227 239 255
227 239 255
227 239 255
227 239 255
227 239 255
227 239 255
227 239 255
227 239 255
227 239 255
227 239 255
227 239 255
227 239 255
227 239 255
227 239 255
227 239 255
227 239 255
227 239 255
227 239 255
227 239 255
227 239 255
227 239 255
227 239 255
227 239 255
227 239 255
227 239 255
227 239 255
227 239 255
227 239 255
227 239 255
227 239 255
227 239 255
227 239 255
227 239 255
227 239 255
227 239 255
227 239 255
227 239 255
227 239 255
227 239 255
227 239 255
227 239 255
227 239 255
227 239 255
227 239 255
227 239 255
227 239 255
227 239 255
227 239 255
227 239 255
227 239 255
227 239 255
227 239 255
227 239 255
227 239 255
227 239 255
227 239 255
227 239 255
227 239 255
227 239 255
227 239 255
227 239 255
227 239 255
227 239 255
227 239 255
227 239 255
227 239 255
227 239 255
227 239 255
227 239 255
227 239 255
227 239 255
227 239 255
227 239 255
227 239 255
227 239 255
227 239 255
227 239 255
227 239 255
227 239 255
227 239 255
227 239 255
227 239 255
227 239 255
227 239 255
227 239 255
227 239 255
227 239 255
227 239 255
227 239 255
227 239 255
227 239 255
227 239 255
227 239 255
227 239 255
227 239 255
227 239 255
227 239 255
227 239 255
227 239 255
227 239 255
227 239 255
227 239 255
227 239 255
227 239 255
227 239 255
227 239 255
227 239 255
227 239 255
227 239 255
227 239 255
227 239 255
227 239 255
227 239 255
227 239 255
227 239 255
227 239 255
227 239 255
227 239 255
227 239 255
227 239 255
227 239 255
227 239 255
227 239 255
227 239 255
227 239 255
227 239 255
227 239 255
227 239 255
227 239 255
227 239 255
227 239 255
227 239 255
227 239 255
227 239 255
227 239 255
227 239 255
227 239 255
227 239 255
227 239 255
227 239 255
227 239 255
227 239 255
227 239 255
227 239 255
227 239 255
227 239 255
227 239 255
227 239 255
227 239 255
227 239 255
227 239 255
227 239 255
227 239 255
227 239 255
227 239 255
227 239 255
227 239 255
227 239 255
227 239 255
227 239 255
227 239 255
227 239 255
227 239 255
227 239 255
227 239 255
227 239 255
227 239 255
227 239 255
227 239 255
227 239 255
227 239 255
227 239 255
227 239 255
227 239 255
227 239 255
227 239 255
227 239 255
227 239 255
227 239 255
227 239 255
227 239 255
227 239 255
227 239 255
227 239 255
227 239 255
227 239 255
227 239 255
227 239 255
227 239 255
227 239 255
227 239 255
227 239 255
227 239 255
227 239 255
227 239 255
227 239 255
227 239 255
227 239 255
227 239 255
227 239 255
227 239 255
227 239 255
227 239 255
227 239 255
227 239 255
227 239 255
227 239 255
227 239 255
227 239 255
227 239 255
227 239 255
227 239 255
227 239 255
227 239 255
227 239 255
227 239 255
227 239 255
227 239 255
227 239 255
227 239 255
227 239 255
227 239 255
227 239 255
227 239 255
227 239 255
227 239 255
227 239 255
227 239 255
227 239 255
227 239 255
227 239 255
227 239 255
227 239 255
227 239 255
227 239 255
227 239 255
227 239 255
227 239 255
227 239 255
227 239 255
227 239 255
227 239 255
227 239 255
227 239 255
227 239 255
227 239 255
227 239 255
227 239 255
227 239 255
227 239 255
227 239 255
227 239 255
227 239 255
227 239 255
227 239 255
227 239 255
227 239 255
227 239 255
227 239 255
227 239 255
227 239 255
227 239 255
227 239 255
227 239 255
227 239 255
227 239 255
227 239 255
227 239 255
227 239 255
227 239 255
227 239 255
227 239 255
227 239 255
227 239 255
227 239 255
227 239 255
227 239 255
227 239 255
227 239 255
227 239 255
227 239 255
227 239 255
227 239 255
227 239 255
227 239 255
227 239 255
227 239 255
227 239 255
227 239 255
227 239 255
227 239 255
227 239 255
227 239 255
227 239 255
227 239 255
227 239 255
227 239 255
227 239 255
227 239 255
227 239 255
227 239 255
227 239 255
227 239 255
227 239 255
227 239 255
227 239 255
227 239 255
227 239 255
227 239 255
227 239 255
227 239 255
227 239 255
227 239 255
227 239 255
227 239 255
227 239 255
227 239 255
227 239 255
227 239 255
227 239 255
227 239 255
227 239 255
227 239 255
227 239 255
227 239 255
227 239 255
227 239 255
227 239 255
227 239 255
227 239 255
227 239 255
227 239 255
227 239 255
227 239 255
227 239 255
227 239 255
227 239 255
227 239 255
227 239 255
227 239 255
227 239 255
227 239 255
227 239 255
227 239 255
227 239 255
227 239 255
227 239 255
227 239 255
227 239 255
227 239 255
227 239 255
227 239 255
227 239 255
227 239 255
227 239 255
227 239 255
227 239 255
227 239 255
227 239 255
227 239 255
227 239 255
227 239 255
227 239 255
227 239 255
227 239 255
227 239 255
227 239 255
227 239 255
227 239 255
227 239 255
227 239 255
227 239 255
227 239 255
227 239 255
227 239 255
227 239 255
227 239 255
227 239 255
227 239 255
227 239 255
227 239 255
227 239 255
227 239 255
227 239 255
227 239 255
227 239 255
227 239 255
227 239 255
227 239 255
227 239 255
227 239 255
227 239 255
227 239 255
227 239 255
227 239 255
227 239 255
227 239 255
227 239 255
227 239 255
227 239 255
227 239 255
227 239 255
227 239 255
227 239 255
227 239 255
227 239 255
227 239 255
227 239 255
227 239 255
227 239 255
227 239 255
227 239 255
227 239 255
227 239 255
227 239 255
227 239 255
227 239 255
227 239 255
227 239 255
227 239 255
227 239 255
227 239 255
227 239 255
227 239 255
227 239 255
227 239 255
227 239 255
227 239 255
227 239 255
227 239 255
227 239 255
227 239 255
227 239 255
227 239 255
227 239 255
227 239 255
227 239 255
227 239 255
227 239 255
227 239 255
227 239 255
227 239 255
227 239 255
227 239 255
227 239 255
227 239 255
227 239 255
227 239 255
227 239 255
227 239 255
227 239 255
227 239 255
227 239 255
227 239 255
227 239 255
227 239 255
227 239 255
227 239 255
227 239 255
227 239 255
227 239 255
227 239 255
227 239 255
227 239 255
227 239 255
227 239 255
227 239 255
227 239 255
227 239 255
227 239 255
227 239 255
227 239 255
227 239 255
227 239 255
227 239 255
227 239 255
227 239 255
227 239 255
227 239 255
227 239 255
227 239 255
227 239 255
227 239 255
227 239 255
227 239 255
227 239 255
227 239 255
227 239 255
227 239 255
227 239 255
227 239 255
227 239 255
227 239 255
227 239 255
227 239 255
227 239 255
227 239 255
227 239 255
227 239 255
227 239 255
227 239 255
227 239 255
227 239 255
227 239 255
227 239 255
227 239 255
227 239 255
227 239 255
227 239 255
227 239 255
227 239 255
227 239 255
227 239 255
227 239 255
227 239 255
227 239 255
227 239 255
227 239 255
227 239 255
227 239 255
227 239 255
227 239 255
227 239 255
227 239 255
227 239 255
227 239 255
227 239 255
227 239 255
227 239 255
227 239 255
227 239 255
227 239 255
227 239 255
227 239 255
227 239 255
227 239 255
227 239 255
227 239 255
227 239 255
227 239 255
227 239 255
227 239 255
227 239 255
227 239 255
227 239 255
228 239 255
228 239 255
227 239 255
227 239 255
227 239 255
228 239 255
228 239 255
228 239 255
228 239 255
228 239 255
228 239 255
228 239 255
228 239 255
228 239 255
228 239 255
227 239 255
228 239 255
228 239 255
228 239 255
228 239 255
228 239 255
228 239 255
228 239 255
227 239 255
228 239 255
228 239 255
228 239 255
227 239 255
227 239 255
228 239 255
228 239 255
228 239 255
227 239 255
227 239 255
227 239 255
227 239 255
227 239 255
227 239 255
227 239 255
227 239 255
227 239 255
227 239 255
228 239 255
227 239 255
227 239 255
227 239 255
227 239 255
227 239 255
227 239 255
227 239 255
227 239 255
227 239 255
227 239 255
227 239 255
227 239 255
227 239 255
227 239 255
227 239 255
227 239 255
227 239 255
227 239 255
227 239 255
227 239 255
227 239 255
227 239 255
227 239 255
227 239 255
227 239 255
227 239 255
227 239 255
227 239 255
227 239 255
227 239 255
227 239 255
227 239 255
227 239 255
227 239 255
227 239 255
227 239 255
227 239 255
227 239 255
227 239 255
227 239 255
227 239 255
227 239 255
227 239 255
227 239 255
227 239 255
227 239 255
227 239 255
227 239 255
227 239 255
227 239 255
227 239 255
227 239 255
227 239 255
227 239 255
227 239 255
227 239 255
227 239 255
227 239 255
227 239 255
227 239 255
227 239 255
227 239 255
227 239 255
227 239 255
227 239 255
227 239 255
227 239 255
227 239 255
227 239 255
227 239 255
227 239 255
227 239 255
227 239 255
227 239 255
227 239 255
227 239 255
227 239 255
227 239 255
227 239 255
227 239 255
227 239 255
227 239 255
227 239 255
227 239 255
227 239 255
227 239 255
227 239 255
227 239 255
227 239 255
227 239 255
227 239 255
227 239 255
227 239 255
227 239 255
227 239 255
227 239 255
227 239 255
227 239 255
227 239 255
227 239 255
227 239 255
227 239 255
227 239 255
227 239 255
227 239 255
227 239 255
227 239 255
227 239 255
227 239 255
227 239 255
227 239 255
227 239 255
227 239 255
227 239 255
227 239 255
227 239 255
227 239 255
227 239 255
227 239 255
227 239 255
227 239 255
227 239 255
227 239 255
227 239 255
227 239 255
227 239 255
227 239 255
227 239 255
227 239 255
227 239 255
227 239 255
227 239 255
227 239 255
227 239 255
227 239 255
227 239 255
227 239 255
227 239 255
227 239 255
227 239 255
227 239 255
227 239 255
227 239 255
227 239 255
227 239 255
227 239 255
227 239 255
227 239 255
227 239 255
227 239 255
227 239 255
227 239 255
227 239 255
227 239 255
227 239 255
227 239 255
227 239 255
227 239 255
227 239 255
227 239 255
227 239 255
227 239 255
227 239 255
227 239 255
227 239 255
227 239 255
227 239 255
227 239 255
227 239 255
227 239 255
227 239 255
227 239 255
227 239 255
